(Block-name: Header)
(Block-expand: 1)
(Block-enable: 1)

;Exported by FreeCAD
;Post Processor: centroid_post
;CAM file: /home/vladimir/Documentos/SOFTWARE/arduino/CNC/Designs/Letras Liz/letras_liz.FCStd
;Output Time: 2020-04-24 16:02:55.359765
G90 G80 G40 G49
;T2=T2__Fresa_1_8mm
;begin preamble
(Block-name: block)
(Block-expand: 1)
(Block-enable: 1)
G53 G00 G17
G21
;begin operation
;T2: Fresa 1.8mm
M6 T2
M3 S0
;end operation: T2: Fresa 1.8mm
;begin operation
;Pocket_Shape
G0 Z16.0325
(Block-name: block)
(Block-expand: 1)
(Block-enable: 1)
G0 X86.589 Y47.8835
G0 Z6.0325
G1 X86.589 Y47.8835 Z-0.4675 F60.0
G1 X86.589 Y-0.3165 Z-0.4675 F60.0
G1 X0.389 Y-0.3165 Z-0.4675 F60.0
G1 X0.389 Y47.8835 Z-0.4675 F60.0
G1 X86.589 Y47.8835 Z-0.4675 F60.0
G0 X86.589 Y47.8835 Z16.0325
(Block-name: block)
(Block-expand: 1)
(Block-enable: 1)
G0 X73.695 Y47.8835 Z16.0325
G0 X73.695 Y47.8835 Z7.0325
G1 X73.695 Y47.8835 Z-0.4675 F60.0
G1 X59.4144 Y33.603 Z-0.4675 F60.0
G1 X61.96 Y33.603 Z-0.4675 F60.0
G1 X76.2406 Y47.8835 Z-0.4675 F60.0
G1 X78.7861 Y47.8835 Z-0.4675 F60.0
G1 X64.5056 Y33.603 Z-0.4675 F60.0
G1 X67.0512 Y33.603 Z-0.4675 F60.0
G1 X81.3317 Y47.8835 Z-0.4675 F60.0
G1 X83.8773 Y47.8835 Z-0.4675 F60.0
G1 X69.5968 Y33.603 Z-0.4675 F60.0
G1 X72.1424 Y33.603 Z-0.4675 F60.0
G1 X86.4229 Y47.8835 Z-0.4675 F60.0
G1 X86.589 Y47.8835 Z-0.4675 F60.0
G1 X86.589 Y45.504 Z-0.4675 F60.0
G1 X74.6879 Y33.603 Z-0.4675 F60.0
G1 X77.2335 Y33.603 Z-0.4675 F60.0
G1 X86.589 Y42.9584 Z-0.4675 F60.0
G1 X86.589 Y40.4129 Z-0.4675 F60.0
G1 X79.7791 Y33.603 Z-0.4675 F60.0
G1 X82.3247 Y33.603 Z-0.4675 F60.0
G1 X86.589 Y37.8673 Z-0.4675 F60.0
G1 X86.589 Y35.3217 Z-0.4675 F60.0
G1 X84.3153 Y33.048 Z-0.4675 F60.0
G2 X84.3924 Y32.703 Z-0.4675 I-0.6052 J-0.3163 F60.0
G1 X84.3924 Y30.5795 Z-0.4675 F60.0
G1 X86.589 Y32.7761 Z-0.4675 F60.0
G1 X86.589 Y30.2305 Z-0.4675 F60.0
G1 X84.3924 Y28.0339 Z-0.4675 F60.0
G1 X84.3924 Y26.4949 Z-0.4675 F60.0
G2 X84.1376 Y25.8674 Z-0.4675 I-0.9 J-0 F60.0
G1 X70.7741 Y12.1265 Z-0.4675 F60.0
G1 X71.0305 Y12.1265 Z-0.4675 F60.0
G1 X86.589 Y27.6849 Z-0.4675 F60.0
G1 X86.589 Y25.1393 Z-0.4675 F60.0
G1 X73.5761 Y12.1265 Z-0.4675 F60.0
G1 X76.1217 Y12.1265 Z-0.4675 F60.0
G1 X86.589 Y22.5938 Z-0.4675 F60.0
G1 X86.589 Y20.0482 Z-0.4675 F60.0
G1 X78.6673 Y12.1265 Z-0.4675 F60.0
G1 X81.2129 Y12.1265 Z-0.4675 F60.0
G1 X86.589 Y17.5026 Z-0.4675 F60.0
G1 X86.589 Y14.957 Z-0.4675 F60.0
G1 X83.7271 Y12.0951 Z-0.4675 F60.0
G2 X84.3924 Y11.2265 Z-0.4675 I-0.234 J-0.8683 F60.0
G1 X84.3924 Y10.2148 Z-0.4675 F60.0
G1 X86.589 Y12.4114 Z-0.4675 F60.0
G1 X86.589 Y9.8658 Z-0.4675 F60.0
G1 X84.3924 Y7.6692 Z-0.4675 F60.0
G1 X84.3924 Y5.1236 Z-0.4675 F60.0
G1 X86.589 Y7.3203 Z-0.4675 F60.0
G1 X86.589 Y4.7747 Z-0.4675 F60.0
G1 X81.4978 Y-0.3165 Z-0.4675 F60.0
G1 X84.0434 Y-0.3165 Z-0.4675 F60.0
G1 X86.589 Y2.2291 Z-0.4675 F60.0
G1 X86.589 Y-0.3165 Z-0.4675 F60.0
G0 X86.589 Y-0.3165 Z16.0325
(Block-name: block)
(Block-expand: 1)
(Block-enable: 1)
G0 X83.9595 Y4.0142 Z16.0325
G0 X83.9595 Y4.0142 Z7.0325
G1 X83.9595 Y4.0142 Z-0.4675 F60.0
G3 X84.3924 Y4.7835 Z-0.4675 I-0.4671 J0.7693 F60.0
G1 X84.3924 Y11.2265 Z-0.4675 F60.0
G3 X83.4924 Y12.1265 Z-0.4675 I-0.9 J0 F60.0
G1 X70.7741 Y12.1265 Z-0.4675 F60.0
G1 X84.1376 Y25.8674 Z-0.4675 F60.0
G3 X84.3924 Y26.4949 Z-0.4675 I-0.6452 J0.6275 F60.0
G1 X84.3924 Y32.703 Z-0.4675 F60.0
G3 X83.4924 Y33.603 Z-0.4675 I-0.9 J0 F60.0
G1 X58.9118 Y33.603 Z-0.4675 F60.0
G3 X58.0118 Y32.703 Z-0.4675 I-0 J-0.9 F60.0
G1 X58.0118 Y26.26 Z-0.4675 F60.0
G3 X58.9118 Y25.36 Z-0.4675 I0.9 J-0 F60.0
G1 X70.9925 Y25.36 Z-0.4675 F60.0
G1 X57.629 Y11.619 Z-0.4675 F60.0
G3 X57.3742 Y10.9916 Z-0.4675 I0.6452 J-0.6275 F60.0
G1 X57.3742 Y4.7835 Z-0.4675 F60.0
G3 X58.2742 Y3.8835 Z-0.4675 I0.9 J-0 F60.0
G1 X83.4924 Y3.8835 Z-0.4675 F60.0
G3 X83.9595 Y4.0142 Z-0.4675 I0 J0.9 F60.0
G0 X83.9595 Y4.0142 Z16.0325
(Block-name: block)
(Block-expand: 1)
(Block-enable: 1)
G0 X83.1522 Y3.8835 Z16.0325
G0 X83.1522 Y3.8835 Z7.0325
G1 X83.1522 Y3.8835 Z-0.4675 F60.0
G1 X78.9522 Y-0.3165 Z-0.4675 F60.0
G1 X76.4067 Y-0.3165 Z-0.4675 F60.0
G1 X80.6067 Y3.8835 Z-0.4675 F60.0
G1 X78.0611 Y3.8835 Z-0.4675 F60.0
G1 X73.8611 Y-0.3165 Z-0.4675 F60.0
G1 X71.3155 Y-0.3165 Z-0.4675 F60.0
G1 X75.5155 Y3.8835 Z-0.4675 F60.0
G1 X72.9699 Y3.8835 Z-0.4675 F60.0
G1 X68.7699 Y-0.3165 Z-0.4675 F60.0
G1 X66.2243 Y-0.3165 Z-0.4675 F60.0
G1 X70.4243 Y3.8835 Z-0.4675 F60.0
G1 X67.8787 Y3.8835 Z-0.4675 F60.0
G1 X63.6787 Y-0.3165 Z-0.4675 F60.0
G1 X61.1332 Y-0.3165 Z-0.4675 F60.0
G1 X65.3332 Y3.8835 Z-0.4675 F60.0
G1 X62.7876 Y3.8835 Z-0.4675 F60.0
G1 X58.5876 Y-0.3165 Z-0.4675 F60.0
G1 X56.042 Y-0.3165 Z-0.4675 F60.0
G1 X60.242 Y3.8835 Z-0.4675 F60.0
G1 X58.2742 Y3.8835 Z-0.4675 F60.0
G2 X57.8201 Y4.0072 Z-0.4675 I-0.0777 J0.61 F60.0
G1 X53.4964 Y-0.3165 Z-0.4675 F60.0
G1 X50.9508 Y-0.3165 Z-0.4675 F60.0
G1 X57.3742 Y6.1069 Z-0.4675 F60.0
G1 X57.3742 Y8.6525 Z-0.4675 F60.0
G1 X48.4052 Y-0.3165 Z-0.4675 F60.0
G1 X45.8596 Y-0.3165 Z-0.4675 F60.0
G1 X57.4124 Y11.2363 Z-0.4675 F60.0
G2 X57.629 Y11.619 Z-0.4675 I0.8207 J-0.2118 F60.0
G1 X70.9925 Y25.36 Z-0.4675 F60.0
G1 X68.9906 Y25.36 Z-0.4675 F60.0
G1 X50.0165 Y6.386 Z-0.4675 F60.0
G1 X50.0165 Y8.9315 Z-0.4675 F60.0
G1 X66.445 Y25.36 Z-0.4675 F60.0
G1 X63.8994 Y25.36 Z-0.4675 F60.0
G1 X50.0165 Y11.4771 Z-0.4675 F60.0
G1 X50.0165 Y14.0227 Z-0.4675 F60.0
G1 X61.3538 Y25.36 Z-0.4675 F60.0
G1 X58.9118 Y25.36 Z-0.4675 F60.0
G1 X58.8203 Y25.3721 Z-0.4675 F60.0
G1 X50.0165 Y16.5683 Z-0.4675 F60.0
G1 X50.0165 Y19.1139 Z-0.4675 F60.0
G1 X58.0118 Y27.1092 Z-0.4675 F60.0
G1 X58.0118 Y29.6548 Z-0.4675 F60.0
G1 X50.0165 Y21.6595 Z-0.4675 F60.0
G1 X50.0165 Y24.205 Z-0.4675 F60.0
G1 X58.0118 Y32.2003 Z-0.4675 F60.0
G2 X58.0425 Y32.9359 Z-0.4675 I2.8089 J0.2513 F60.0
G2 X58.9118 Y33.603 Z-0.4675 I0.8693 J-0.2329 F60.0
G1 X59.4144 Y33.603 Z-0.4675 F60.0
G1 X73.695 Y47.8835 Z-0.4675 F60.0
G1 X71.1494 Y47.8835 Z-0.4675 F60.0
G1 X50.0165 Y26.7506 Z-0.4675 F60.0
G1 X50.0165 Y29.2962 Z-0.4675 F60.0
G1 X68.6038 Y47.8835 Z-0.4675 F60.0
G1 X66.0582 Y47.8835 Z-0.4675 F60.0
G1 X50.0165 Y31.8418 Z-0.4675 F60.0
G3 X49.9858 Y32.9359 Z-0.4675 I-4.1706 J0.4306 F60.0
G3 X49.2187 Y33.5895 Z-0.4675 I-0.8438 J-0.2133 F60.0
G1 X63.5126 Y47.8835 Z-0.4675 F60.0
G1 X60.9671 Y47.8835 Z-0.4675 F60.0
G1 X50.0165 Y36.933 Z-0.4675 F60.0
G1 X50.0165 Y39.4785 Z-0.4675 F60.0
G1 X58.4215 Y47.8835 Z-0.4675 F60.0
G1 X55.8759 Y47.8835 Z-0.4675 F60.0
G1 X50.0165 Y42.0241 Z-0.4675 F60.0
G1 X50.0165 Y43.4412 Z-0.4675 F60.0
G3 X49.6236 Y44.1768 Z-0.4675 I-0.87 J0.008 F60.0
G1 X53.3303 Y47.8835 Z-0.4675 F60.0
G1 X50.7847 Y47.8835 Z-0.4675 F60.0
G1 X47.2424 Y44.3412 Z-0.4675 F60.0
G1 X44.6968 Y44.3412 Z-0.4675 F60.0
G1 X48.2391 Y47.8835 Z-0.4675 F60.0
G1 X45.6935 Y47.8835 Z-0.4675 F60.0
G1 X42.1513 Y44.3412 Z-0.4675 F60.0
G1 X40.1064 Y44.3412 Z-0.4675 F60.0
G3 X39.2064 Y43.4412 Z-0.4675 I-0 J-0.9 F60.0
G1 X39.2064 Y41.3964 Z-0.4675 F60.0
G1 X14.8185 Y17.0085 Z-0.4675 F60.0
G1 X14.8185 Y19.5541 Z-0.4675 F60.0
G1 X43.148 Y47.8835 Z-0.4675 F60.0
G1 X40.6024 Y47.8835 Z-0.4675 F60.0
G1 X14.8185 Y22.0997 Z-0.4675 F60.0
G1 X14.8185 Y24.6452 Z-0.4675 F60.0
G1 X38.0568 Y47.8835 Z-0.4675 F60.0
G1 X35.5112 Y47.8835 Z-0.4675 F60.0
G1 X14.8185 Y27.1908 Z-0.4675 F60.0
G1 X14.8185 Y29.7364 Z-0.4675 F60.0
G1 X32.9656 Y47.8835 Z-0.4675 F60.0
G1 X30.42 Y47.8835 Z-0.4675 F60.0
G1 X14.8185 Y32.282 Z-0.4675 F60.0
G1 X14.8185 Y34.8276 Z-0.4675 F60.0
G1 X27.8745 Y47.8835 Z-0.4675 F60.0
G1 X25.3289 Y47.8835 Z-0.4675 F60.0
G1 X14.8185 Y37.3732 Z-0.4675 F60.0
G1 X14.8185 Y39.9187 Z-0.4675 F60.0
G1 X22.7833 Y47.8835 Z-0.4675 F60.0
G1 X20.2377 Y47.8835 Z-0.4675 F60.0
G1 X14.8073 Y42.4531 Z-0.4675 F60.0
G3 X13.9185 Y43.2674 Z-0.4675 I-0.8828 J-0.0713 F60.0
G1 X13.076 Y43.2674 Z-0.4675 F60.0
G1 X17.6921 Y47.8835 Z-0.4675 F60.0
G1 X15.1465 Y47.8835 Z-0.4675 F60.0
G1 X10.5304 Y43.2674 Z-0.4675 F60.0
G1 X7.9848 Y43.2674 Z-0.4675 F60.0
G1 X12.6009 Y47.8835 Z-0.4675 F60.0
G1 X10.0554 Y47.8835 Z-0.4675 F60.0
G1 X5.4393 Y43.2674 Z-0.4675 F60.0
G1 X4.2205 Y43.2674 Z-0.4675 F60.0
G3 X3.3205 Y42.3674 Z-0.4675 I-0 J-0.9 F60.0
G1 X3.3205 Y41.1487 Z-0.4675 F60.0
G1 X0.389 Y38.2171 Z-0.4675 F60.0
G1 X0.389 Y40.7627 Z-0.4675 F60.0
G1 X7.5098 Y47.8835 Z-0.4675 F60.0
G1 X4.9642 Y47.8835 Z-0.4675 F60.0
G1 X0.389 Y43.3083 Z-0.4675 F60.0
G1 X0.389 Y45.8539 Z-0.4675 F60.0
G1 X0.389 Y47.8835 Z-0.4675 F60.0
G1 X2.4186 Y47.8835 Z-0.4675 F60.0
G1 X0.389 Y45.8539 Z-0.4675 F60.0
G0 X0.389 Y45.8539 Z16.0325
(Block-name: block)
(Block-expand: 1)
(Block-enable: 1)
G0 X3.5549 Y42.9731 Z16.0325
G0 X3.5549 Y42.9731 Z7.0325
G1 X3.5549 Y42.9731 Z-0.4675 F60.0
G3 X3.3205 Y42.3674 Z-0.4675 I0.6657 J-0.6057 F60.0
G1 X3.3205 Y4.7835 Z-0.4675 F60.0
G3 X4.2205 Y3.8835 Z-0.4675 I0.9 J-0 F60.0
G1 X30.932 Y3.8835 Z-0.4675 F60.0
G3 X31.832 Y4.7835 Z-0.4675 I0 J0.9 F60.0
G1 X31.832 Y11.2265 Z-0.4675 F60.0
G3 X30.932 Y12.1265 Z-0.4675 I-0.9 J-0 F60.0
G1 X14.8185 Y12.1265 Z-0.4675 F60.0
G1 X14.8185 Y42.3674 Z-0.4675 F60.0
G3 X13.9185 Y43.2674 Z-0.4675 I-0.9 J0 F60.0
G1 X4.2205 Y43.2674 Z-0.4675 F60.0
G3 X3.5549 Y42.9731 Z-0.4675 I-0 J-0.9 F60.0
G0 X3.5549 Y42.9731 Z16.0325
(Block-name: block)
(Block-expand: 1)
(Block-enable: 1)
G0 X0.389 Y38.2171 Z16.0325
G0 X0.389 Y38.2171 Z7.0325
G1 X0.389 Y38.2171 Z-0.4675 F60.0
G1 X3.3205 Y41.1487 Z-0.4675 F60.0
G1 X3.3205 Y38.6031 Z-0.4675 F60.0
G1 X0.389 Y35.6716 Z-0.4675 F60.0
G1 X0.389 Y33.126 Z-0.4675 F60.0
G1 X3.3205 Y36.0575 Z-0.4675 F60.0
G1 X3.3205 Y33.5119 Z-0.4675 F60.0
G1 X0.389 Y30.5804 Z-0.4675 F60.0
G1 X0.389 Y28.0348 Z-0.4675 F60.0
G1 X3.3205 Y30.9663 Z-0.4675 F60.0
G1 X3.3205 Y28.4208 Z-0.4675 F60.0
G1 X0.389 Y25.4892 Z-0.4675 F60.0
G1 X0.389 Y22.9436 Z-0.4675 F60.0
G1 X3.3205 Y25.8752 Z-0.4675 F60.0
G1 X3.3205 Y23.3296 Z-0.4675 F60.0
G1 X0.389 Y20.398 Z-0.4675 F60.0
G1 X0.389 Y17.8525 Z-0.4675 F60.0
G1 X3.3205 Y20.784 Z-0.4675 F60.0
G1 X3.3205 Y18.2384 Z-0.4675 F60.0
G1 X0.389 Y15.3069 Z-0.4675 F60.0
G1 X0.389 Y12.7613 Z-0.4675 F60.0
G1 X3.3205 Y15.6928 Z-0.4675 F60.0
G1 X3.3205 Y13.1473 Z-0.4675 F60.0
G1 X0.389 Y10.2157 Z-0.4675 F60.0
G1 X0.389 Y7.6701 Z-0.4675 F60.0
G1 X3.3205 Y10.6017 Z-0.4675 F60.0
G1 X3.3205 Y8.0561 Z-0.4675 F60.0
G1 X0.389 Y5.1245 Z-0.4675 F60.0
G1 X0.389 Y2.579 Z-0.4675 F60.0
G1 X3.3205 Y5.5105 Z-0.4675 F60.0
G1 X3.3205 Y4.7835 Z-0.4675 F60.0
G3 X4.2391 Y3.8835 Z-0.4675 I0.9003 J0.0001 F60.0
G1 X0.389 Y0.0334 Z-0.4675 F60.0
G1 X0.389 Y-0.3165 Z-0.4675 F60.0
G1 X2.5847 Y-0.3165 Z-0.4675 F60.0
G1 X6.7847 Y3.8835 Z-0.4675 F60.0
G1 X9.3303 Y3.8835 Z-0.4675 F60.0
G1 X5.1303 Y-0.3165 Z-0.4675 F60.0
G1 X7.6759 Y-0.3165 Z-0.4675 F60.0
G1 X11.8759 Y3.8835 Z-0.4675 F60.0
G1 X14.4215 Y3.8835 Z-0.4675 F60.0
G1 X10.2215 Y-0.3165 Z-0.4675 F60.0
G1 X12.7671 Y-0.3165 Z-0.4675 F60.0
G1 X16.9671 Y3.8835 Z-0.4675 F60.0
G1 X19.5126 Y3.8835 Z-0.4675 F60.0
G1 X15.3126 Y-0.3165 Z-0.4675 F60.0
G1 X17.8582 Y-0.3165 Z-0.4675 F60.0
G1 X22.0582 Y3.8835 Z-0.4675 F60.0
G1 X24.6038 Y3.8835 Z-0.4675 F60.0
G1 X20.4038 Y-0.3165 Z-0.4675 F60.0
G1 X22.9494 Y-0.3165 Z-0.4675 F60.0
G1 X27.1494 Y3.8835 Z-0.4675 F60.0
G1 X29.695 Y3.8835 Z-0.4675 F60.0
G1 X25.495 Y-0.3165 Z-0.4675 F60.0
G1 X28.0406 Y-0.3165 Z-0.4675 F60.0
G1 X39.2064 Y10.8494 Z-0.4675 F60.0
G1 X39.2064 Y8.3038 Z-0.4675 F60.0
G1 X30.5861 Y-0.3165 Z-0.4675 F60.0
G1 X33.1317 Y-0.3165 Z-0.4675 F60.0
G1 X39.2064 Y5.7582 Z-0.4675 F60.0
G1 X39.2064 Y4.7835 Z-0.4675 F60.0
G3 X39.904 Y3.9102 Z-0.4675 I0.8907 J-0.0039 F60.0
G1 X35.6773 Y-0.3165 Z-0.4675 F60.0
G1 X38.2229 Y-0.3165 Z-0.4675 F60.0
G1 X42.4229 Y3.8835 Z-0.4675 F60.0
G1 X44.9685 Y3.8835 Z-0.4675 F60.0
G1 X40.7685 Y-0.3165 Z-0.4675 F60.0
G1 X43.3141 Y-0.3165 Z-0.4675 F60.0
G1 X47.5141 Y3.8835 Z-0.4675 F60.0
G1 X47.5141 Y3.8835 Z-0.4675 F60.0
G1 X49.1165 Y3.8835 Z-0.4675 F60.0
G3 X50.0165 Y4.7835 Z-0.4675 I-0 J0.9 F60.0
G1 X50.0165 Y32.703 Z-0.4675 F60.0
G3 X49.1165 Y33.603 Z-0.4675 I-0.9 J-0 F60.0
G1 X40.1064 Y33.603 Z-0.4675 F60.0
G3 X39.2064 Y32.703 Z-0.4675 I0 J-0.9 F60.0
G1 X39.2064 Y4.7835 Z-0.4675 F60.0
G3 X40.1064 Y3.8835 Z-0.4675 I0.9 J-0 F60.0
G1 X47.5141 Y3.8835 Z-0.4675 F60.0
G0 X47.5141 Y3.8835 Z16.0325
(Block-name: block)
(Block-expand: 1)
(Block-enable: 1)
G0 X31.832 Y6.0205 Z16.0325
G0 X31.832 Y6.0205 Z7.0325
G1 X31.832 Y6.0205 Z-0.4675 F60.0
G1 X39.2064 Y13.395 Z-0.4675 F60.0
G1 X39.2064 Y15.9406 Z-0.4675 F60.0
G1 X31.832 Y8.5661 Z-0.4675 F60.0
G1 X31.832 Y11.1116 Z-0.4675 F60.0
G1 X39.2064 Y18.4861 Z-0.4675 F60.0
G1 X39.2064 Y21.0317 Z-0.4675 F60.0
G1 X30.3012 Y12.1265 Z-0.4675 F60.0
G1 X27.7556 Y12.1265 Z-0.4675 F60.0
G1 X39.2064 Y23.5773 Z-0.4675 F60.0
G1 X39.2064 Y26.1229 Z-0.4675 F60.0
G1 X25.21 Y12.1265 Z-0.4675 F60.0
G1 X22.6644 Y12.1265 Z-0.4675 F60.0
G1 X39.2064 Y28.6685 Z-0.4675 F60.0
G1 X39.2064 Y31.2141 Z-0.4675 F60.0
G1 X20.1188 Y12.1265 Z-0.4675 F60.0
G0 X20.1188 Y12.1265 Z16.0325
(Block-name: block)
(Block-expand: 1)
(Block-enable: 1)
G0 X14.8185 Y17.0085 Z16.0325
G0 X14.8185 Y17.0085 Z7.0325
G1 X14.8185 Y17.0085 Z-0.4675 F60.0
G1 X39.2064 Y41.3964 Z-0.4675 F60.0
G1 X39.2064 Y38.8508 Z-0.4675 F60.0
G1 X14.8185 Y14.4629 Z-0.4675 F60.0
G1 X14.8185 Y12.1265 Z-0.4675 F60.0
G1 X15.0277 Y12.1265 Z-0.4675 F60.0
G1 X39.2064 Y36.3052 Z-0.4675 F60.0
G1 X39.2064 Y35.9244 Z-0.4675 F60.0
G3 X39.6564 Y35.145 Z-0.4675 I0.9 J0 F60.0
G3 X40.4712 Y35.0244 Z-0.4675 I0.5771 J1.0862 F60.0
G1 X17.5733 Y12.1265 Z-0.4675 F60.0
G1 X20.1188 Y12.1265 Z-0.4675 F60.0
G1 X39.2064 Y31.2141 Z-0.4675 F60.0
G1 X39.2064 Y32.703 Z-0.4675 F60.0
G2 X40.1064 Y33.603 Z-0.4675 I0.9 J0 F60.0
G1 X41.5953 Y33.603 Z-0.4675 F60.0
G1 X43.0168 Y35.0244 Z-0.4675 F60.0
G1 X45.5624 Y35.0244 Z-0.4675 F60.0
G1 X44.1409 Y33.603 Z-0.4675 F60.0
G1 X46.6865 Y33.603 Z-0.4675 F60.0
G1 X48.108 Y35.0244 Z-0.4675 F60.0
G1 X48.108 Y35.0244 Z-0.4675 F60.0
G1 X49.1165 Y35.0244 Z-0.4675 F60.0
G3 X50.0165 Y35.9244 Z-0.4675 I0 J0.9 F60.0
G1 X50.0165 Y43.4412 Z-0.4675 F60.0
G3 X49.1165 Y44.3412 Z-0.4675 I-0.9 J0 F60.0
G1 X40.1064 Y44.3412 Z-0.4675 F60.0
G3 X39.2064 Y43.4412 Z-0.4675 I0 J-0.9 F60.0
G1 X39.2064 Y35.9244 Z-0.4675 F60.0
G3 X40.1064 Y35.0244 Z-0.4675 I0.9 J-0 F60.0
G1 X48.108 Y35.0244 Z-0.4675 F60.0
G1 X48.108 Y35.0244 Z-0.9675 F60.0
G1 X49.1165 Y35.0244 Z-0.9675 F60.0
G3 X50.0165 Y35.9244 Z-0.9675 I0 J0.9 F60.0
G1 X50.0165 Y43.4412 Z-0.9675 F60.0
G3 X49.1165 Y44.3412 Z-0.9675 I-0.9 J0 F60.0
G1 X40.1064 Y44.3412 Z-0.9675 F60.0
G3 X39.2064 Y43.4412 Z-0.9675 I0 J-0.9 F60.0
G1 X39.2064 Y35.9244 Z-0.9675 F60.0
G3 X40.1064 Y35.0244 Z-0.9675 I0.9 J-0 F60.0
G1 X48.108 Y35.0244 Z-0.9675 F60.0
G1 X48.108 Y35.0244 Z-0.9675 F60.0
G1 X46.6865 Y33.603 Z-0.9675 F60.0
G1 X44.1409 Y33.603 Z-0.9675 F60.0
G1 X45.5624 Y35.0244 Z-0.9675 F60.0
G1 X43.0168 Y35.0244 Z-0.9675 F60.0
G1 X41.5953 Y33.603 Z-0.9675 F60.0
G1 X40.1064 Y33.603 Z-0.9675 F60.0
G3 X39.2064 Y32.703 Z-0.9675 I-0 J-0.9 F60.0
G1 X39.2064 Y31.2141 Z-0.9675 F60.0
G1 X20.1188 Y12.1265 Z-0.9675 F60.0
G1 X17.5733 Y12.1265 Z-0.9675 F60.0
G1 X40.4712 Y35.0244 Z-0.9675 F60.0
G2 X39.6564 Y35.145 Z-0.9675 I-0.2377 J1.2067 F60.0
G2 X39.2064 Y35.9244 Z-0.9675 I0.45 J0.7794 F60.0
G1 X39.2064 Y36.3052 Z-0.9675 F60.0
G1 X15.0277 Y12.1265 Z-0.9675 F60.0
G1 X14.8185 Y12.1265 Z-0.9675 F60.0
G1 X14.8185 Y14.4629 Z-0.9675 F60.0
G1 X39.2064 Y38.8508 Z-0.9675 F60.0
G1 X39.2064 Y41.3964 Z-0.9675 F60.0
G1 X14.8185 Y17.0085 Z-0.9675 F60.0
G1 X14.8185 Y17.0085 Z-0.9675 F60.0
G1 X14.8185 Y42.3674 Z-0.9675 F60.0
G3 X13.9185 Y43.2674 Z-0.9675 I-0.9 J0 F60.0
G1 X4.2205 Y43.2674 Z-0.9675 F60.0
G3 X3.3205 Y42.3674 Z-0.9675 I-0 J-0.9 F60.0
G1 X3.3205 Y4.7835 Z-0.9675 F60.0
G3 X4.2205 Y3.8835 Z-0.9675 I0.9 J-0 F60.0
G1 X30.932 Y3.8835 Z-0.9675 F60.0
G3 X31.832 Y4.7835 Z-0.9675 I0 J0.9 F60.0
G1 X31.832 Y11.2265 Z-0.9675 F60.0
G3 X30.932 Y12.1265 Z-0.9675 I-0.9 J-0 F60.0
G1 X14.8185 Y12.1265 Z-0.9675 F60.0
G1 X14.8185 Y17.0085 Z-0.9675 F60.0
G0 X14.8185 Y17.0085 Z16.0325
(Block-name: block)
(Block-expand: 1)
(Block-enable: 1)
G0 X20.1188 Y12.1265 Z16.0325
G0 X20.1188 Y12.1265 Z6.5325
G1 X20.1188 Y12.1265 Z-0.9675 F60.0
G1 X39.2064 Y31.2141 Z-0.9675 F60.0
G1 X39.2064 Y28.6685 Z-0.9675 F60.0
G1 X22.6644 Y12.1265 Z-0.9675 F60.0
G1 X25.21 Y12.1265 Z-0.9675 F60.0
G1 X39.2064 Y26.1229 Z-0.9675 F60.0
G1 X39.2064 Y23.5773 Z-0.9675 F60.0
G1 X27.7556 Y12.1265 Z-0.9675 F60.0
G1 X30.3012 Y12.1265 Z-0.9675 F60.0
G1 X39.2064 Y21.0317 Z-0.9675 F60.0
G1 X39.2064 Y18.4861 Z-0.9675 F60.0
G1 X31.832 Y11.1116 Z-0.9675 F60.0
G1 X31.832 Y8.5661 Z-0.9675 F60.0
G1 X39.2064 Y15.9406 Z-0.9675 F60.0
G1 X39.2064 Y13.395 Z-0.9675 F60.0
G1 X31.832 Y6.0205 Z-0.9675 F60.0
G0 X31.832 Y6.0205 Z16.0325
(Block-name: block)
(Block-expand: 1)
(Block-enable: 1)
G0 X31.832 Y-0.3165 Z16.0325
G0 X31.832 Y-0.3165 Z6.5325
G1 X31.832 Y-0.3165 Z-0.9675 F60.0
G1 X0.389 Y-0.3165 Z-0.9675 F60.0
G1 X0.389 Y47.8835 Z-0.9675 F60.0
G1 X86.589 Y47.8835 Z-0.9675 F60.0
G1 X86.589 Y-0.3165 Z-0.9675 F60.0
G1 X31.832 Y-0.3165 Z-0.9675 F60.0
G0 X31.832 Y-0.3165 Z16.0325
(Block-name: block)
(Block-expand: 1)
(Block-enable: 1)
G0 X39.3403 Y4.3113 Z16.0325
G0 X39.3403 Y4.3113 Z6.5325
G1 X39.3403 Y4.3113 Z-0.9675 F60.0
G3 X40.1064 Y3.8835 Z-0.9675 I0.7662 J0.4722 F60.0
G1 X49.1165 Y3.8835 Z-0.9675 F60.0
G3 X50.0165 Y4.7835 Z-0.9675 I-0 J0.9 F60.0
G1 X50.0165 Y32.703 Z-0.9675 F60.0
G3 X49.1165 Y33.603 Z-0.9675 I-0.9 J-0 F60.0
G1 X40.1064 Y33.603 Z-0.9675 F60.0
G3 X39.2064 Y32.703 Z-0.9675 I0 J-0.9 F60.0
G1 X39.2064 Y4.7835 Z-0.9675 F60.0
G3 X39.3403 Y4.3113 Z-0.9675 I0.9 J-0 F60.0
G0 X39.3403 Y4.3113 Z16.0325
(Block-name: block)
(Block-expand: 1)
(Block-enable: 1)
G0 X47.5141 Y3.8835 Z16.0325
G0 X47.5141 Y3.8835 Z6.5325
G1 X47.5141 Y3.8835 Z-0.9675 F60.0
G1 X43.3141 Y-0.3165 Z-0.9675 F60.0
G1 X40.7685 Y-0.3165 Z-0.9675 F60.0
G1 X44.9685 Y3.8835 Z-0.9675 F60.0
G1 X42.4229 Y3.8835 Z-0.9675 F60.0
G1 X38.2229 Y-0.3165 Z-0.9675 F60.0
G1 X35.6773 Y-0.3165 Z-0.9675 F60.0
G1 X39.904 Y3.9102 Z-0.9675 F60.0
G2 X39.2064 Y4.7835 Z-0.9675 I0.1931 J0.8695 F60.0
G1 X39.2064 Y5.7582 Z-0.9675 F60.0
G1 X33.1317 Y-0.3165 Z-0.9675 F60.0
G1 X30.5861 Y-0.3165 Z-0.9675 F60.0
G1 X39.2064 Y8.3038 Z-0.9675 F60.0
G1 X39.2064 Y10.8494 Z-0.9675 F60.0
G1 X28.0406 Y-0.3165 Z-0.9675 F60.0
G1 X25.495 Y-0.3165 Z-0.9675 F60.0
G1 X29.695 Y3.8835 Z-0.9675 F60.0
G1 X27.1494 Y3.8835 Z-0.9675 F60.0
G1 X22.9494 Y-0.3165 Z-0.9675 F60.0
G1 X20.4038 Y-0.3165 Z-0.9675 F60.0
G1 X24.6038 Y3.8835 Z-0.9675 F60.0
G1 X22.0582 Y3.8835 Z-0.9675 F60.0
G1 X17.8582 Y-0.3165 Z-0.9675 F60.0
G1 X15.3126 Y-0.3165 Z-0.9675 F60.0
G1 X19.5126 Y3.8835 Z-0.9675 F60.0
G1 X16.9671 Y3.8835 Z-0.9675 F60.0
G1 X12.7671 Y-0.3165 Z-0.9675 F60.0
G1 X10.2215 Y-0.3165 Z-0.9675 F60.0
G1 X14.4215 Y3.8835 Z-0.9675 F60.0
G1 X11.8759 Y3.8835 Z-0.9675 F60.0
G1 X7.6759 Y-0.3165 Z-0.9675 F60.0
G1 X5.1303 Y-0.3165 Z-0.9675 F60.0
G1 X9.3303 Y3.8835 Z-0.9675 F60.0
G1 X6.7847 Y3.8835 Z-0.9675 F60.0
G1 X2.5847 Y-0.3165 Z-0.9675 F60.0
G1 X0.389 Y-0.3165 Z-0.9675 F60.0
G1 X0.389 Y0.0334 Z-0.9675 F60.0
G1 X4.2391 Y3.8835 Z-0.9675 F60.0
G2 X3.3205 Y4.7835 Z-0.9675 I-0.0183 J0.9001 F60.0
G1 X3.3205 Y5.5105 Z-0.9675 F60.0
G1 X0.389 Y2.579 Z-0.9675 F60.0
G1 X0.389 Y5.1245 Z-0.9675 F60.0
G1 X3.3205 Y8.0561 Z-0.9675 F60.0
G1 X3.3205 Y10.6017 Z-0.9675 F60.0
G1 X0.389 Y7.6701 Z-0.9675 F60.0
G1 X0.389 Y10.2157 Z-0.9675 F60.0
G1 X3.3205 Y13.1473 Z-0.9675 F60.0
G1 X3.3205 Y15.6928 Z-0.9675 F60.0
G1 X0.389 Y12.7613 Z-0.9675 F60.0
G1 X0.389 Y15.3069 Z-0.9675 F60.0
G1 X3.3205 Y18.2384 Z-0.9675 F60.0
G1 X3.3205 Y20.784 Z-0.9675 F60.0
G1 X0.389 Y17.8525 Z-0.9675 F60.0
G1 X0.389 Y20.398 Z-0.9675 F60.0
G1 X3.3205 Y23.3296 Z-0.9675 F60.0
G1 X3.3205 Y25.8752 Z-0.9675 F60.0
G1 X0.389 Y22.9436 Z-0.9675 F60.0
G1 X0.389 Y25.4892 Z-0.9675 F60.0
G1 X3.3205 Y28.4208 Z-0.9675 F60.0
G1 X3.3205 Y30.9663 Z-0.9675 F60.0
G1 X0.389 Y28.0348 Z-0.9675 F60.0
G1 X0.389 Y30.5804 Z-0.9675 F60.0
G1 X3.3205 Y33.5119 Z-0.9675 F60.0
G1 X3.3205 Y36.0575 Z-0.9675 F60.0
G1 X0.389 Y33.126 Z-0.9675 F60.0
G1 X0.389 Y35.6716 Z-0.9675 F60.0
G1 X3.3205 Y38.6031 Z-0.9675 F60.0
G1 X3.3205 Y41.1487 Z-0.9675 F60.0
G1 X0.389 Y38.2171 Z-0.9675 F60.0
G0 X0.389 Y38.2171 Z16.0325
(Block-name: block)
(Block-expand: 1)
(Block-enable: 1)
G0 X0.389 Y45.8539 Z16.0325
G0 X0.389 Y45.8539 Z6.5325
G1 X0.389 Y45.8539 Z-0.9675 F60.0
G1 X2.4186 Y47.8835 Z-0.9675 F60.0
G1 X0.389 Y47.8835 Z-0.9675 F60.0
G1 X0.389 Y45.8539 Z-0.9675 F60.0
G1 X0.389 Y43.3083 Z-0.9675 F60.0
G1 X4.9642 Y47.8835 Z-0.9675 F60.0
G1 X7.5098 Y47.8835 Z-0.9675 F60.0
G1 X0.389 Y40.7627 Z-0.9675 F60.0
G1 X0.389 Y38.2171 Z-0.9675 F60.0
G1 X3.3205 Y41.1487 Z-0.9675 F60.0
G1 X3.3205 Y42.3674 Z-0.9675 F60.0
G2 X4.2205 Y43.2674 Z-0.9675 I0.9 J0 F60.0
G1 X5.4393 Y43.2674 Z-0.9675 F60.0
G1 X10.0554 Y47.8835 Z-0.9675 F60.0
G1 X12.6009 Y47.8835 Z-0.9675 F60.0
G1 X7.9848 Y43.2674 Z-0.9675 F60.0
G1 X10.5304 Y43.2674 Z-0.9675 F60.0
G1 X15.1465 Y47.8835 Z-0.9675 F60.0
G1 X17.6921 Y47.8835 Z-0.9675 F60.0
G1 X13.076 Y43.2674 Z-0.9675 F60.0
G1 X13.9185 Y43.2674 Z-0.9675 F60.0
G2 X14.8073 Y42.4531 Z-0.9675 I0.006 J-0.8856 F60.0
G1 X20.2377 Y47.8835 Z-0.9675 F60.0
G1 X22.7833 Y47.8835 Z-0.9675 F60.0
G1 X14.8185 Y39.9187 Z-0.9675 F60.0
G1 X14.8185 Y37.3732 Z-0.9675 F60.0
G1 X25.3289 Y47.8835 Z-0.9675 F60.0
G1 X27.8745 Y47.8835 Z-0.9675 F60.0
G1 X14.8185 Y34.8276 Z-0.9675 F60.0
G1 X14.8185 Y32.282 Z-0.9675 F60.0
G1 X30.42 Y47.8835 Z-0.9675 F60.0
G1 X32.9656 Y47.8835 Z-0.9675 F60.0
G1 X14.8185 Y29.7364 Z-0.9675 F60.0
G1 X14.8185 Y27.1908 Z-0.9675 F60.0
G1 X35.5112 Y47.8835 Z-0.9675 F60.0
G1 X38.0568 Y47.8835 Z-0.9675 F60.0
G1 X14.8185 Y24.6452 Z-0.9675 F60.0
G1 X14.8185 Y22.0997 Z-0.9675 F60.0
G1 X40.6024 Y47.8835 Z-0.9675 F60.0
G1 X43.148 Y47.8835 Z-0.9675 F60.0
G1 X14.8185 Y19.5541 Z-0.9675 F60.0
G1 X14.8185 Y17.0085 Z-0.9675 F60.0
G1 X39.2064 Y41.3964 Z-0.9675 F60.0
G1 X39.2064 Y43.4412 Z-0.9675 F60.0
G2 X40.1064 Y44.3412 Z-0.9675 I0.9 J0 F60.0
G1 X42.1513 Y44.3412 Z-0.9675 F60.0
G1 X45.6935 Y47.8835 Z-0.9675 F60.0
G1 X48.2391 Y47.8835 Z-0.9675 F60.0
G1 X44.6968 Y44.3412 Z-0.9675 F60.0
G1 X47.2424 Y44.3412 Z-0.9675 F60.0
G1 X50.7847 Y47.8835 Z-0.9675 F60.0
G1 X53.3303 Y47.8835 Z-0.9675 F60.0
G1 X49.6236 Y44.1768 Z-0.9675 F60.0
G2 X50.0165 Y43.4412 Z-0.9675 I-0.4771 J-0.7276 F60.0
G1 X50.0165 Y42.0241 Z-0.9675 F60.0
G1 X55.8759 Y47.8835 Z-0.9675 F60.0
G1 X58.4215 Y47.8835 Z-0.9675 F60.0
G1 X50.0165 Y39.4785 Z-0.9675 F60.0
G1 X50.0165 Y36.933 Z-0.9675 F60.0
G1 X60.9671 Y47.8835 Z-0.9675 F60.0
G1 X63.5126 Y47.8835 Z-0.9675 F60.0
G1 X49.2187 Y33.5895 Z-0.9675 F60.0
G2 X49.9858 Y32.9359 Z-0.9675 I-0.0766 J-0.8669 F60.0
G2 X50.0165 Y31.8418 Z-0.9675 I-4.1399 J-0.6635 F60.0
G1 X66.0582 Y47.8835 Z-0.9675 F60.0
G1 X68.6038 Y47.8835 Z-0.9675 F60.0
G1 X50.0165 Y29.2962 Z-0.9675 F60.0
G1 X50.0165 Y26.7506 Z-0.9675 F60.0
G1 X71.1494 Y47.8835 Z-0.9675 F60.0
G1 X73.695 Y47.8835 Z-0.9675 F60.0
G1 X59.4144 Y33.603 Z-0.9675 F60.0
G1 X58.9118 Y33.603 Z-0.9675 F60.0
G3 X58.0425 Y32.9359 Z-0.9675 I0 J-0.9 F60.0
G3 X58.0118 Y32.2003 Z-0.9675 I2.7782 J-0.4842 F60.0
G1 X50.0165 Y24.205 Z-0.9675 F60.0
G1 X50.0165 Y21.6595 Z-0.9675 F60.0
G1 X58.0118 Y29.6548 Z-0.9675 F60.0
G1 X58.0118 Y27.1092 Z-0.9675 F60.0
G1 X50.0165 Y19.1139 Z-0.9675 F60.0
G1 X50.0165 Y16.5683 Z-0.9675 F60.0
G1 X58.8203 Y25.3721 Z-0.9675 F60.0
G1 X58.9118 Y25.36 Z-0.9675 F60.0
G1 X61.3538 Y25.36 Z-0.9675 F60.0
G1 X50.0165 Y14.0227 Z-0.9675 F60.0
G1 X50.0165 Y11.4771 Z-0.9675 F60.0
G1 X63.8994 Y25.36 Z-0.9675 F60.0
G1 X66.445 Y25.36 Z-0.9675 F60.0
G1 X50.0165 Y8.9315 Z-0.9675 F60.0
G1 X50.0165 Y6.386 Z-0.9675 F60.0
G1 X68.9906 Y25.36 Z-0.9675 F60.0
G1 X70.9925 Y25.36 Z-0.9675 F60.0
G1 X57.629 Y11.619 Z-0.9675 F60.0
G3 X57.4124 Y11.2363 Z-0.9675 I0.6041 J-0.5946 F60.0
G1 X45.8596 Y-0.3165 Z-0.9675 F60.0
G1 X48.4052 Y-0.3165 Z-0.9675 F60.0
G1 X57.3742 Y8.6525 Z-0.9675 F60.0
G1 X57.3742 Y6.1069 Z-0.9675 F60.0
G1 X50.9508 Y-0.3165 Z-0.9675 F60.0
G1 X53.4964 Y-0.3165 Z-0.9675 F60.0
G1 X57.8201 Y4.0072 Z-0.9675 F60.0
G3 X58.2742 Y3.8835 Z-0.9675 I0.3764 J0.4863 F60.0
G1 X60.242 Y3.8835 Z-0.9675 F60.0
G1 X56.042 Y-0.3165 Z-0.9675 F60.0
G1 X58.5876 Y-0.3165 Z-0.9675 F60.0
G1 X62.7876 Y3.8835 Z-0.9675 F60.0
G1 X65.3332 Y3.8835 Z-0.9675 F60.0
G1 X61.1332 Y-0.3165 Z-0.9675 F60.0
G1 X63.6787 Y-0.3165 Z-0.9675 F60.0
G1 X67.8787 Y3.8835 Z-0.9675 F60.0
G1 X70.4243 Y3.8835 Z-0.9675 F60.0
G1 X66.2243 Y-0.3165 Z-0.9675 F60.0
G1 X68.7699 Y-0.3165 Z-0.9675 F60.0
G1 X72.9699 Y3.8835 Z-0.9675 F60.0
G1 X75.5155 Y3.8835 Z-0.9675 F60.0
G1 X71.3155 Y-0.3165 Z-0.9675 F60.0
G1 X73.8611 Y-0.3165 Z-0.9675 F60.0
G1 X78.0611 Y3.8835 Z-0.9675 F60.0
G1 X80.6067 Y3.8835 Z-0.9675 F60.0
G1 X76.4067 Y-0.3165 Z-0.9675 F60.0
G1 X78.9522 Y-0.3165 Z-0.9675 F60.0
G1 X83.1522 Y3.8835 Z-0.9675 F60.0
G1 X83.1522 Y3.8835 Z-0.9675 F60.0
G1 X83.4924 Y3.8835 Z-0.9675 F60.0
G3 X84.3924 Y4.7835 Z-0.9675 I0 J0.9 F60.0
G1 X84.3924 Y11.2265 Z-0.9675 F60.0
G3 X83.4924 Y12.1265 Z-0.9675 I-0.9 J0 F60.0
G1 X70.7741 Y12.1265 Z-0.9675 F60.0
G1 X84.1376 Y25.8674 Z-0.9675 F60.0
G3 X84.3924 Y26.4949 Z-0.9675 I-0.6452 J0.6275 F60.0
G1 X84.3924 Y32.703 Z-0.9675 F60.0
G3 X83.4924 Y33.603 Z-0.9675 I-0.9 J0 F60.0
G1 X58.9118 Y33.603 Z-0.9675 F60.0
G3 X58.0118 Y32.703 Z-0.9675 I-0 J-0.9 F60.0
G1 X58.0118 Y26.26 Z-0.9675 F60.0
G3 X58.9118 Y25.36 Z-0.9675 I0.9 J-0 F60.0
G1 X70.9925 Y25.36 Z-0.9675 F60.0
G1 X57.629 Y11.619 Z-0.9675 F60.0
G3 X57.3742 Y10.9916 Z-0.9675 I0.6452 J-0.6275 F60.0
G1 X57.3742 Y4.7835 Z-0.9675 F60.0
G3 X58.2742 Y3.8835 Z-0.9675 I0.9 J-0 F60.0
G1 X83.1522 Y3.8835 Z-0.9675 F60.0
G0 X83.1522 Y3.8835 Z16.0325
(Block-name: block)
(Block-expand: 1)
(Block-enable: 1)
G0 X86.589 Y-0.3165 Z16.0325
G0 X86.589 Y-0.3165 Z6.5325
G1 X86.589 Y-0.3165 Z-0.9675 F60.0
G1 X86.589 Y2.2291 Z-0.9675 F60.0
G1 X84.0434 Y-0.3165 Z-0.9675 F60.0
G1 X81.4978 Y-0.3165 Z-0.9675 F60.0
G1 X86.589 Y4.7747 Z-0.9675 F60.0
G1 X86.589 Y7.3203 Z-0.9675 F60.0
G1 X84.3924 Y5.1236 Z-0.9675 F60.0
G1 X84.3924 Y7.6692 Z-0.9675 F60.0
G1 X86.589 Y9.8658 Z-0.9675 F60.0
G1 X86.589 Y12.4114 Z-0.9675 F60.0
G1 X84.3924 Y10.2148 Z-0.9675 F60.0
G1 X84.3924 Y11.2265 Z-0.9675 F60.0
G3 X83.7271 Y12.0951 Z-0.9675 I-0.8993 J0.0003 F60.0
G1 X86.589 Y14.957 Z-0.9675 F60.0
G1 X86.589 Y17.5026 Z-0.9675 F60.0
G1 X81.2129 Y12.1265 Z-0.9675 F60.0
G1 X78.6673 Y12.1265 Z-0.9675 F60.0
G1 X86.589 Y20.0482 Z-0.9675 F60.0
G1 X86.589 Y22.5938 Z-0.9675 F60.0
G1 X76.1217 Y12.1265 Z-0.9675 F60.0
G1 X73.5761 Y12.1265 Z-0.9675 F60.0
G1 X86.589 Y25.1393 Z-0.9675 F60.0
G1 X86.589 Y27.6849 Z-0.9675 F60.0
G1 X71.0305 Y12.1265 Z-0.9675 F60.0
G1 X70.7741 Y12.1265 Z-0.9675 F60.0
G1 X84.1376 Y25.8674 Z-0.9675 F60.0
G3 X84.3924 Y26.4949 Z-0.9675 I-0.6452 J0.6275 F60.0
G1 X84.3924 Y28.0339 Z-0.9675 F60.0
G1 X86.589 Y30.2305 Z-0.9675 F60.0
G1 X86.589 Y32.7761 Z-0.9675 F60.0
G1 X84.3924 Y30.5795 Z-0.9675 F60.0
G1 X84.3924 Y32.703 Z-0.9675 F60.0
G3 X84.3153 Y33.048 Z-0.9675 I-0.6823 J0.0287 F60.0
G1 X86.589 Y35.3217 Z-0.9675 F60.0
G1 X86.589 Y37.8673 Z-0.9675 F60.0
G1 X82.3247 Y33.603 Z-0.9675 F60.0
G1 X79.7791 Y33.603 Z-0.9675 F60.0
G1 X86.589 Y40.4129 Z-0.9675 F60.0
G1 X86.589 Y42.9584 Z-0.9675 F60.0
G1 X77.2335 Y33.603 Z-0.9675 F60.0
G1 X74.6879 Y33.603 Z-0.9675 F60.0
G1 X86.589 Y45.504 Z-0.9675 F60.0
G1 X86.589 Y47.8835 Z-0.9675 F60.0
G1 X86.4229 Y47.8835 Z-0.9675 F60.0
G1 X72.1424 Y33.603 Z-0.9675 F60.0
G1 X69.5968 Y33.603 Z-0.9675 F60.0
G1 X83.8773 Y47.8835 Z-0.9675 F60.0
G1 X81.3317 Y47.8835 Z-0.9675 F60.0
G1 X67.0512 Y33.603 Z-0.9675 F60.0
G1 X64.5056 Y33.603 Z-0.9675 F60.0
G1 X78.7861 Y47.8835 Z-0.9675 F60.0
G1 X76.2406 Y47.8835 Z-0.9675 F60.0
G1 X61.96 Y33.603 Z-0.9675 F60.0
G1 X59.4144 Y33.603 Z-0.9675 F60.0
G1 X73.695 Y47.8835 Z-0.9675 F60.0
G1 X73.695 Y47.8835 Z-1.4675 F60.0
G1 X59.4144 Y33.603 Z-1.4675 F60.0
G1 X61.96 Y33.603 Z-1.4675 F60.0
G1 X76.2406 Y47.8835 Z-1.4675 F60.0
G1 X78.7861 Y47.8835 Z-1.4675 F60.0
G1 X64.5056 Y33.603 Z-1.4675 F60.0
G1 X67.0512 Y33.603 Z-1.4675 F60.0
G1 X81.3317 Y47.8835 Z-1.4675 F60.0
G1 X83.8773 Y47.8835 Z-1.4675 F60.0
G1 X69.5968 Y33.603 Z-1.4675 F60.0
G1 X72.1424 Y33.603 Z-1.4675 F60.0
G1 X86.4229 Y47.8835 Z-1.4675 F60.0
G1 X86.589 Y47.8835 Z-1.4675 F60.0
G1 X86.589 Y45.504 Z-1.4675 F60.0
G1 X74.6879 Y33.603 Z-1.4675 F60.0
G1 X77.2335 Y33.603 Z-1.4675 F60.0
G1 X86.589 Y42.9584 Z-1.4675 F60.0
G1 X86.589 Y40.4129 Z-1.4675 F60.0
G1 X79.7791 Y33.603 Z-1.4675 F60.0
G1 X82.3247 Y33.603 Z-1.4675 F60.0
G1 X86.589 Y37.8673 Z-1.4675 F60.0
G1 X86.589 Y35.3217 Z-1.4675 F60.0
G1 X84.3153 Y33.048 Z-1.4675 F60.0
G2 X84.3924 Y32.703 Z-1.4675 I-0.6052 J-0.3163 F60.0
G1 X84.3924 Y30.5795 Z-1.4675 F60.0
G1 X86.589 Y32.7761 Z-1.4675 F60.0
G1 X86.589 Y30.2305 Z-1.4675 F60.0
G1 X84.3924 Y28.0339 Z-1.4675 F60.0
G1 X84.3924 Y26.4949 Z-1.4675 F60.0
G2 X84.1376 Y25.8674 Z-1.4675 I-0.9 J-0 F60.0
G1 X70.7741 Y12.1265 Z-1.4675 F60.0
G1 X71.0305 Y12.1265 Z-1.4675 F60.0
G1 X86.589 Y27.6849 Z-1.4675 F60.0
G1 X86.589 Y25.1393 Z-1.4675 F60.0
G1 X73.5761 Y12.1265 Z-1.4675 F60.0
G1 X76.1217 Y12.1265 Z-1.4675 F60.0
G1 X86.589 Y22.5938 Z-1.4675 F60.0
G1 X86.589 Y20.0482 Z-1.4675 F60.0
G1 X78.6673 Y12.1265 Z-1.4675 F60.0
G1 X81.2129 Y12.1265 Z-1.4675 F60.0
G1 X86.589 Y17.5026 Z-1.4675 F60.0
G1 X86.589 Y14.957 Z-1.4675 F60.0
G1 X83.7271 Y12.0951 Z-1.4675 F60.0
G2 X84.3924 Y11.2265 Z-1.4675 I-0.234 J-0.8683 F60.0
G1 X84.3924 Y10.2148 Z-1.4675 F60.0
G1 X86.589 Y12.4114 Z-1.4675 F60.0
G1 X86.589 Y9.8658 Z-1.4675 F60.0
G1 X84.3924 Y7.6692 Z-1.4675 F60.0
G1 X84.3924 Y5.1236 Z-1.4675 F60.0
G1 X86.589 Y7.3203 Z-1.4675 F60.0
G1 X86.589 Y4.7747 Z-1.4675 F60.0
G1 X81.4978 Y-0.3165 Z-1.4675 F60.0
G1 X84.0434 Y-0.3165 Z-1.4675 F60.0
G1 X86.589 Y2.2291 Z-1.4675 F60.0
G1 X86.589 Y-0.3165 Z-1.4675 F60.0
G0 X86.589 Y-0.3165 Z16.0325
(Block-name: block)
(Block-expand: 1)
(Block-enable: 1)
G0 X86.589 Y-0.3165 Z16.0325
G0 X86.589 Y-0.3165 Z6.0325
G1 X86.589 Y-0.3165 Z-1.4675 F60.0
G1 X0.389 Y-0.3165 Z-1.4675 F60.0
G1 X0.389 Y47.8835 Z-1.4675 F60.0
G1 X86.589 Y47.8835 Z-1.4675 F60.0
G1 X86.589 Y-0.3165 Z-1.4675 F60.0
G0 X86.589 Y-0.3165 Z16.0325
(Block-name: block)
(Block-expand: 1)
(Block-enable: 1)
G0 X83.9595 Y4.0142 Z16.0325
G0 X83.9595 Y4.0142 Z6.0325
G1 X83.9595 Y4.0142 Z-1.4675 F60.0
G3 X84.3924 Y4.7835 Z-1.4675 I-0.4671 J0.7693 F60.0
G1 X84.3924 Y11.2265 Z-1.4675 F60.0
G3 X83.4924 Y12.1265 Z-1.4675 I-0.9 J0 F60.0
G1 X70.7741 Y12.1265 Z-1.4675 F60.0
G1 X84.1376 Y25.8674 Z-1.4675 F60.0
G3 X84.3924 Y26.4949 Z-1.4675 I-0.6452 J0.6275 F60.0
G1 X84.3924 Y32.703 Z-1.4675 F60.0
G3 X83.4924 Y33.603 Z-1.4675 I-0.9 J0 F60.0
G1 X58.9118 Y33.603 Z-1.4675 F60.0
G3 X58.0118 Y32.703 Z-1.4675 I-0 J-0.9 F60.0
G1 X58.0118 Y26.26 Z-1.4675 F60.0
G3 X58.9118 Y25.36 Z-1.4675 I0.9 J-0 F60.0
G1 X70.9925 Y25.36 Z-1.4675 F60.0
G1 X57.629 Y11.619 Z-1.4675 F60.0
G3 X57.3742 Y10.9916 Z-1.4675 I0.6452 J-0.6275 F60.0
G1 X57.3742 Y4.7835 Z-1.4675 F60.0
G3 X58.2742 Y3.8835 Z-1.4675 I0.9 J-0 F60.0
G1 X83.4924 Y3.8835 Z-1.4675 F60.0
G3 X83.9595 Y4.0142 Z-1.4675 I0 J0.9 F60.0
G0 X83.9595 Y4.0142 Z16.0325
(Block-name: block)
(Block-expand: 1)
(Block-enable: 1)
G0 X83.1522 Y3.8835 Z16.0325
G0 X83.1522 Y3.8835 Z6.0325
G1 X83.1522 Y3.8835 Z-1.4675 F60.0
G1 X78.9522 Y-0.3165 Z-1.4675 F60.0
G1 X76.4067 Y-0.3165 Z-1.4675 F60.0
G1 X80.6067 Y3.8835 Z-1.4675 F60.0
G1 X78.0611 Y3.8835 Z-1.4675 F60.0
G1 X73.8611 Y-0.3165 Z-1.4675 F60.0
G1 X71.3155 Y-0.3165 Z-1.4675 F60.0
G1 X75.5155 Y3.8835 Z-1.4675 F60.0
G1 X72.9699 Y3.8835 Z-1.4675 F60.0
G1 X68.7699 Y-0.3165 Z-1.4675 F60.0
G1 X66.2243 Y-0.3165 Z-1.4675 F60.0
G1 X70.4243 Y3.8835 Z-1.4675 F60.0
G1 X67.8787 Y3.8835 Z-1.4675 F60.0
G1 X63.6787 Y-0.3165 Z-1.4675 F60.0
G1 X61.1332 Y-0.3165 Z-1.4675 F60.0
G1 X65.3332 Y3.8835 Z-1.4675 F60.0
G1 X62.7876 Y3.8835 Z-1.4675 F60.0
G1 X58.5876 Y-0.3165 Z-1.4675 F60.0
G1 X56.042 Y-0.3165 Z-1.4675 F60.0
G1 X60.242 Y3.8835 Z-1.4675 F60.0
G1 X58.2742 Y3.8835 Z-1.4675 F60.0
G2 X57.8201 Y4.0072 Z-1.4675 I-0.0777 J0.61 F60.0
G1 X53.4964 Y-0.3165 Z-1.4675 F60.0
G1 X50.9508 Y-0.3165 Z-1.4675 F60.0
G1 X57.3742 Y6.1069 Z-1.4675 F60.0
G1 X57.3742 Y8.6525 Z-1.4675 F60.0
G1 X48.4052 Y-0.3165 Z-1.4675 F60.0
G1 X45.8596 Y-0.3165 Z-1.4675 F60.0
G1 X57.4124 Y11.2363 Z-1.4675 F60.0
G2 X57.629 Y11.619 Z-1.4675 I0.8207 J-0.2118 F60.0
G1 X70.9925 Y25.36 Z-1.4675 F60.0
G1 X68.9906 Y25.36 Z-1.4675 F60.0
G1 X50.0165 Y6.386 Z-1.4675 F60.0
G1 X50.0165 Y8.9315 Z-1.4675 F60.0
G1 X66.445 Y25.36 Z-1.4675 F60.0
G1 X63.8994 Y25.36 Z-1.4675 F60.0
G1 X50.0165 Y11.4771 Z-1.4675 F60.0
G1 X50.0165 Y14.0227 Z-1.4675 F60.0
G1 X61.3538 Y25.36 Z-1.4675 F60.0
G1 X58.9118 Y25.36 Z-1.4675 F60.0
G1 X58.8203 Y25.3721 Z-1.4675 F60.0
G1 X50.0165 Y16.5683 Z-1.4675 F60.0
G1 X50.0165 Y19.1139 Z-1.4675 F60.0
G1 X58.0118 Y27.1092 Z-1.4675 F60.0
G1 X58.0118 Y29.6548 Z-1.4675 F60.0
G1 X50.0165 Y21.6595 Z-1.4675 F60.0
G1 X50.0165 Y24.205 Z-1.4675 F60.0
G1 X58.0118 Y32.2003 Z-1.4675 F60.0
G2 X58.0425 Y32.9359 Z-1.4675 I2.8089 J0.2513 F60.0
G2 X58.9118 Y33.603 Z-1.4675 I0.8693 J-0.2329 F60.0
G1 X59.4144 Y33.603 Z-1.4675 F60.0
G1 X73.695 Y47.8835 Z-1.4675 F60.0
G1 X71.1494 Y47.8835 Z-1.4675 F60.0
G1 X50.0165 Y26.7506 Z-1.4675 F60.0
G1 X50.0165 Y29.2962 Z-1.4675 F60.0
G1 X68.6038 Y47.8835 Z-1.4675 F60.0
G1 X66.0582 Y47.8835 Z-1.4675 F60.0
G1 X50.0165 Y31.8418 Z-1.4675 F60.0
G3 X49.9858 Y32.9359 Z-1.4675 I-4.1706 J0.4306 F60.0
G3 X49.2187 Y33.5895 Z-1.4675 I-0.8438 J-0.2133 F60.0
G1 X63.5126 Y47.8835 Z-1.4675 F60.0
G1 X60.9671 Y47.8835 Z-1.4675 F60.0
G1 X50.0165 Y36.933 Z-1.4675 F60.0
G1 X50.0165 Y39.4785 Z-1.4675 F60.0
G1 X58.4215 Y47.8835 Z-1.4675 F60.0
G1 X55.8759 Y47.8835 Z-1.4675 F60.0
G1 X50.0165 Y42.0241 Z-1.4675 F60.0
G1 X50.0165 Y43.4412 Z-1.4675 F60.0
G3 X49.6236 Y44.1768 Z-1.4675 I-0.87 J0.008 F60.0
G1 X53.3303 Y47.8835 Z-1.4675 F60.0
G1 X50.7847 Y47.8835 Z-1.4675 F60.0
G1 X47.2424 Y44.3412 Z-1.4675 F60.0
G1 X44.6968 Y44.3412 Z-1.4675 F60.0
G1 X48.2391 Y47.8835 Z-1.4675 F60.0
G1 X45.6935 Y47.8835 Z-1.4675 F60.0
G1 X42.1513 Y44.3412 Z-1.4675 F60.0
G1 X40.1064 Y44.3412 Z-1.4675 F60.0
G3 X39.2064 Y43.4412 Z-1.4675 I-0 J-0.9 F60.0
G1 X39.2064 Y41.3964 Z-1.4675 F60.0
G1 X14.8185 Y17.0085 Z-1.4675 F60.0
G1 X14.8185 Y19.5541 Z-1.4675 F60.0
G1 X43.148 Y47.8835 Z-1.4675 F60.0
G1 X40.6024 Y47.8835 Z-1.4675 F60.0
G1 X14.8185 Y22.0997 Z-1.4675 F60.0
G1 X14.8185 Y24.6452 Z-1.4675 F60.0
G1 X38.0568 Y47.8835 Z-1.4675 F60.0
G1 X35.5112 Y47.8835 Z-1.4675 F60.0
G1 X14.8185 Y27.1908 Z-1.4675 F60.0
G1 X14.8185 Y29.7364 Z-1.4675 F60.0
G1 X32.9656 Y47.8835 Z-1.4675 F60.0
G1 X30.42 Y47.8835 Z-1.4675 F60.0
G1 X14.8185 Y32.282 Z-1.4675 F60.0
G1 X14.8185 Y34.8276 Z-1.4675 F60.0
G1 X27.8745 Y47.8835 Z-1.4675 F60.0
G1 X25.3289 Y47.8835 Z-1.4675 F60.0
G1 X14.8185 Y37.3732 Z-1.4675 F60.0
G1 X14.8185 Y39.9187 Z-1.4675 F60.0
G1 X22.7833 Y47.8835 Z-1.4675 F60.0
G1 X20.2377 Y47.8835 Z-1.4675 F60.0
G1 X14.8073 Y42.4531 Z-1.4675 F60.0
G3 X13.9185 Y43.2674 Z-1.4675 I-0.8828 J-0.0713 F60.0
G1 X13.076 Y43.2674 Z-1.4675 F60.0
G1 X17.6921 Y47.8835 Z-1.4675 F60.0
G1 X15.1465 Y47.8835 Z-1.4675 F60.0
G1 X10.5304 Y43.2674 Z-1.4675 F60.0
G1 X7.9848 Y43.2674 Z-1.4675 F60.0
G1 X12.6009 Y47.8835 Z-1.4675 F60.0
G1 X10.0554 Y47.8835 Z-1.4675 F60.0
G1 X5.4393 Y43.2674 Z-1.4675 F60.0
G1 X4.2205 Y43.2674 Z-1.4675 F60.0
G3 X3.3205 Y42.3674 Z-1.4675 I-0 J-0.9 F60.0
G1 X3.3205 Y41.1487 Z-1.4675 F60.0
G1 X0.389 Y38.2171 Z-1.4675 F60.0
G1 X0.389 Y40.7627 Z-1.4675 F60.0
G1 X7.5098 Y47.8835 Z-1.4675 F60.0
G1 X4.9642 Y47.8835 Z-1.4675 F60.0
G1 X0.389 Y43.3083 Z-1.4675 F60.0
G1 X0.389 Y45.8539 Z-1.4675 F60.0
G1 X0.389 Y47.8835 Z-1.4675 F60.0
G1 X2.4186 Y47.8835 Z-1.4675 F60.0
G1 X0.389 Y45.8539 Z-1.4675 F60.0
G0 X0.389 Y45.8539 Z16.0325
(Block-name: block)
(Block-expand: 1)
(Block-enable: 1)
G0 X3.5549 Y42.9731 Z16.0325
G0 X3.5549 Y42.9731 Z6.0325
G1 X3.5549 Y42.9731 Z-1.4675 F60.0
G3 X3.3205 Y42.3674 Z-1.4675 I0.6657 J-0.6057 F60.0
G1 X3.3205 Y4.7835 Z-1.4675 F60.0
G3 X4.2205 Y3.8835 Z-1.4675 I0.9 J-0 F60.0
G1 X30.932 Y3.8835 Z-1.4675 F60.0
G3 X31.832 Y4.7835 Z-1.4675 I0 J0.9 F60.0
G1 X31.832 Y11.2265 Z-1.4675 F60.0
G3 X30.932 Y12.1265 Z-1.4675 I-0.9 J-0 F60.0
G1 X14.8185 Y12.1265 Z-1.4675 F60.0
G1 X14.8185 Y42.3674 Z-1.4675 F60.0
G3 X13.9185 Y43.2674 Z-1.4675 I-0.9 J0 F60.0
G1 X4.2205 Y43.2674 Z-1.4675 F60.0
G3 X3.5549 Y42.9731 Z-1.4675 I-0 J-0.9 F60.0
G0 X3.5549 Y42.9731 Z16.0325
(Block-name: block)
(Block-expand: 1)
(Block-enable: 1)
G0 X0.389 Y38.2171 Z16.0325
G0 X0.389 Y38.2171 Z6.0325
G1 X0.389 Y38.2171 Z-1.4675 F60.0
G1 X3.3205 Y41.1487 Z-1.4675 F60.0
G1 X3.3205 Y38.6031 Z-1.4675 F60.0
G1 X0.389 Y35.6716 Z-1.4675 F60.0
G1 X0.389 Y33.126 Z-1.4675 F60.0
G1 X3.3205 Y36.0575 Z-1.4675 F60.0
G1 X3.3205 Y33.5119 Z-1.4675 F60.0
G1 X0.389 Y30.5804 Z-1.4675 F60.0
G1 X0.389 Y28.0348 Z-1.4675 F60.0
G1 X3.3205 Y30.9663 Z-1.4675 F60.0
G1 X3.3205 Y28.4208 Z-1.4675 F60.0
G1 X0.389 Y25.4892 Z-1.4675 F60.0
G1 X0.389 Y22.9436 Z-1.4675 F60.0
G1 X3.3205 Y25.8752 Z-1.4675 F60.0
G1 X3.3205 Y23.3296 Z-1.4675 F60.0
G1 X0.389 Y20.398 Z-1.4675 F60.0
G1 X0.389 Y17.8525 Z-1.4675 F60.0
G1 X3.3205 Y20.784 Z-1.4675 F60.0
G1 X3.3205 Y18.2384 Z-1.4675 F60.0
G1 X0.389 Y15.3069 Z-1.4675 F60.0
G1 X0.389 Y12.7613 Z-1.4675 F60.0
G1 X3.3205 Y15.6928 Z-1.4675 F60.0
G1 X3.3205 Y13.1473 Z-1.4675 F60.0
G1 X0.389 Y10.2157 Z-1.4675 F60.0
G1 X0.389 Y7.6701 Z-1.4675 F60.0
G1 X3.3205 Y10.6017 Z-1.4675 F60.0
G1 X3.3205 Y8.0561 Z-1.4675 F60.0
G1 X0.389 Y5.1245 Z-1.4675 F60.0
G1 X0.389 Y2.579 Z-1.4675 F60.0
G1 X3.3205 Y5.5105 Z-1.4675 F60.0
G1 X3.3205 Y4.7835 Z-1.4675 F60.0
G3 X4.2391 Y3.8835 Z-1.4675 I0.9003 J0.0001 F60.0
G1 X0.389 Y0.0334 Z-1.4675 F60.0
G1 X0.389 Y-0.3165 Z-1.4675 F60.0
G1 X2.5847 Y-0.3165 Z-1.4675 F60.0
G1 X6.7847 Y3.8835 Z-1.4675 F60.0
G1 X9.3303 Y3.8835 Z-1.4675 F60.0
G1 X5.1303 Y-0.3165 Z-1.4675 F60.0
G1 X7.6759 Y-0.3165 Z-1.4675 F60.0
G1 X11.8759 Y3.8835 Z-1.4675 F60.0
G1 X14.4215 Y3.8835 Z-1.4675 F60.0
G1 X10.2215 Y-0.3165 Z-1.4675 F60.0
G1 X12.7671 Y-0.3165 Z-1.4675 F60.0
G1 X16.9671 Y3.8835 Z-1.4675 F60.0
G1 X19.5126 Y3.8835 Z-1.4675 F60.0
G1 X15.3126 Y-0.3165 Z-1.4675 F60.0
G1 X17.8582 Y-0.3165 Z-1.4675 F60.0
G1 X22.0582 Y3.8835 Z-1.4675 F60.0
G1 X24.6038 Y3.8835 Z-1.4675 F60.0
G1 X20.4038 Y-0.3165 Z-1.4675 F60.0
G1 X22.9494 Y-0.3165 Z-1.4675 F60.0
G1 X27.1494 Y3.8835 Z-1.4675 F60.0
G1 X29.695 Y3.8835 Z-1.4675 F60.0
G1 X25.495 Y-0.3165 Z-1.4675 F60.0
G1 X28.0406 Y-0.3165 Z-1.4675 F60.0
G1 X39.2064 Y10.8494 Z-1.4675 F60.0
G1 X39.2064 Y8.3038 Z-1.4675 F60.0
G1 X30.5861 Y-0.3165 Z-1.4675 F60.0
G1 X33.1317 Y-0.3165 Z-1.4675 F60.0
G1 X39.2064 Y5.7582 Z-1.4675 F60.0
G1 X39.2064 Y4.7835 Z-1.4675 F60.0
G3 X39.904 Y3.9102 Z-1.4675 I0.8907 J-0.0039 F60.0
G1 X35.6773 Y-0.3165 Z-1.4675 F60.0
G1 X38.2229 Y-0.3165 Z-1.4675 F60.0
G1 X42.4229 Y3.8835 Z-1.4675 F60.0
G1 X44.9685 Y3.8835 Z-1.4675 F60.0
G1 X40.7685 Y-0.3165 Z-1.4675 F60.0
G1 X43.3141 Y-0.3165 Z-1.4675 F60.0
G1 X47.5141 Y3.8835 Z-1.4675 F60.0
G1 X47.5141 Y3.8835 Z-1.4675 F60.0
G1 X49.1165 Y3.8835 Z-1.4675 F60.0
G3 X50.0165 Y4.7835 Z-1.4675 I-0 J0.9 F60.0
G1 X50.0165 Y32.703 Z-1.4675 F60.0
G3 X49.1165 Y33.603 Z-1.4675 I-0.9 J-0 F60.0
G1 X40.1064 Y33.603 Z-1.4675 F60.0
G3 X39.2064 Y32.703 Z-1.4675 I0 J-0.9 F60.0
G1 X39.2064 Y4.7835 Z-1.4675 F60.0
G3 X40.1064 Y3.8835 Z-1.4675 I0.9 J-0 F60.0
G1 X47.5141 Y3.8835 Z-1.4675 F60.0
G0 X47.5141 Y3.8835 Z16.0325
(Block-name: block)
(Block-expand: 1)
(Block-enable: 1)
G0 X31.832 Y6.0205 Z16.0325
G0 X31.832 Y6.0205 Z6.0325
G1 X31.832 Y6.0205 Z-1.4675 F60.0
G1 X39.2064 Y13.395 Z-1.4675 F60.0
G1 X39.2064 Y15.9406 Z-1.4675 F60.0
G1 X31.832 Y8.5661 Z-1.4675 F60.0
G1 X31.832 Y11.1116 Z-1.4675 F60.0
G1 X39.2064 Y18.4861 Z-1.4675 F60.0
G1 X39.2064 Y21.0317 Z-1.4675 F60.0
G1 X30.3012 Y12.1265 Z-1.4675 F60.0
G1 X27.7556 Y12.1265 Z-1.4675 F60.0
G1 X39.2064 Y23.5773 Z-1.4675 F60.0
G1 X39.2064 Y26.1229 Z-1.4675 F60.0
G1 X25.21 Y12.1265 Z-1.4675 F60.0
G1 X22.6644 Y12.1265 Z-1.4675 F60.0
G1 X39.2064 Y28.6685 Z-1.4675 F60.0
G1 X39.2064 Y31.2141 Z-1.4675 F60.0
G1 X20.1188 Y12.1265 Z-1.4675 F60.0
G0 X20.1188 Y12.1265 Z16.0325
(Block-name: block)
(Block-expand: 1)
(Block-enable: 1)
G0 X14.8185 Y17.0085 Z16.0325
G0 X14.8185 Y17.0085 Z6.0325
G1 X14.8185 Y17.0085 Z-1.4675 F60.0
G1 X39.2064 Y41.3964 Z-1.4675 F60.0
G1 X39.2064 Y38.8508 Z-1.4675 F60.0
G1 X14.8185 Y14.4629 Z-1.4675 F60.0
G1 X14.8185 Y12.1265 Z-1.4675 F60.0
G1 X15.0277 Y12.1265 Z-1.4675 F60.0
G1 X39.2064 Y36.3052 Z-1.4675 F60.0
G1 X39.2064 Y35.9244 Z-1.4675 F60.0
G3 X39.6564 Y35.145 Z-1.4675 I0.9 J0 F60.0
G3 X40.4712 Y35.0244 Z-1.4675 I0.5771 J1.0862 F60.0
G1 X17.5733 Y12.1265 Z-1.4675 F60.0
G1 X20.1188 Y12.1265 Z-1.4675 F60.0
G1 X39.2064 Y31.2141 Z-1.4675 F60.0
G1 X39.2064 Y32.703 Z-1.4675 F60.0
G2 X40.1064 Y33.603 Z-1.4675 I0.9 J0 F60.0
G1 X41.5953 Y33.603 Z-1.4675 F60.0
G1 X43.0168 Y35.0244 Z-1.4675 F60.0
G1 X45.5624 Y35.0244 Z-1.4675 F60.0
G1 X44.1409 Y33.603 Z-1.4675 F60.0
G1 X46.6865 Y33.603 Z-1.4675 F60.0
G1 X48.108 Y35.0244 Z-1.4675 F60.0
G1 X48.108 Y35.0244 Z-1.4675 F60.0
G1 X49.1165 Y35.0244 Z-1.4675 F60.0
G3 X50.0165 Y35.9244 Z-1.4675 I0 J0.9 F60.0
G1 X50.0165 Y43.4412 Z-1.4675 F60.0
G3 X49.1165 Y44.3412 Z-1.4675 I-0.9 J0 F60.0
G1 X40.1064 Y44.3412 Z-1.4675 F60.0
G3 X39.2064 Y43.4412 Z-1.4675 I0 J-0.9 F60.0
G1 X39.2064 Y35.9244 Z-1.4675 F60.0
G3 X40.1064 Y35.0244 Z-1.4675 I0.9 J-0 F60.0
G1 X48.108 Y35.0244 Z-1.4675 F60.0
G0 Z16.0325
(Block-name: block)
(Block-expand: 1)
(Block-enable: 1)
;end operation: Pocket_Shape
;begin postamble
M5 M25
G49 H0
G90 G80 G40 G49
M99
