(Block-name: Header)
(Block-expand: 0)
(Block-enable: 1)

;Exported by FreeCAD
;Post Processor: centroid_post
;CAM file: /home/vladimir/Documentos/SOFTWARE/arduino/CNC/Designs/Impresora3D/abrazadera_01.FCStd
;Output Time: 2020-04-28 23:02:35.826324
G90 G80 G40 G49
;T1=Default_Tool
;begin preamble
(Block-name: block)
(Block-expand: 1)
(Block-enable: 1)
G53 G00 G17
G21
;begin operation
;Endmill 3mm
M6 T1
M3 S0
;end operation: Endmill 3mm
;begin operation
;Profile_Edges
;Compensated Tool Path. Diameter: 3.0
G0 Z3
(Block-name: block)
(Block-expand: 0)
(Block-enable: 0)
(Block-X: G0 X24.2972 Y-34.2119)
(Block-X: G1 X24.2972 Y-34.2119 Z-1.7 F30.0)
(Block-X: G2 X23.9342 Y-35.8493 Z-1.7 I-0.7031 J-0.7031 F48.0)
(Block-X: G2 X22.6598 Y-35.2551 Z-1.7 I-0.3401 J0.9343 F48.0)
(Block-X: G2 X23.254 Y-33.9807 Z-1.7 I0.9343 J0.3401 F48.0)
(Block-X: G2 X24.2972 Y-34.2119 Z-1.7 I0.3401 J-0.9343 F48.0)
(Block-X: G1 X24.2972 Y-34.2119 Z-3.4 F30.0)
(Block-X: G2 X23.9342 Y-35.8493 Z-3.4 I-0.7031 J-0.7031 F48.0)
(Block-X: G2 X22.6598 Y-35.2551 Z-3.4 I-0.3401 J0.9343 F48.0)
(Block-X: G2 X23.254 Y-33.9807 Z-3.4 I0.9343 J0.3401 F48.0)
(Block-X: G2 X24.2972 Y-34.2119 Z-3.4 I0.3401 J-0.9343 F48.0)
(Block-X: G1 X24.2972 Y-34.2119 Z-5 F30.0)
(Block-X: G2 X23.9342 Y-35.8493 Z-5 I-0.7031 J-0.7031 F48.0)
(Block-X: G2 X22.6598 Y-35.2551 Z-5 I-0.3401 J0.9343 F48.0)
(Block-X: G2 X23.254 Y-33.9807 Z-5 I0.9343 J0.3401 F48.0)
(Block-X: G2 X24.2972 Y-34.2119 Z-5 I0.3401 J-0.9343 F48.0)
(Block-X: G0 Z3)
(Block-name: block)
(Block-expand: 0)
(Block-enable: 0)
(Block-X: G0 X49.2972 Y-34.2119)
(Block-X: G1 X49.2972 Y-34.2119 Z-1.7 F30.0)
(Block-X: G2 X48.9342 Y-35.8493 Z-1.7 I-0.7031 J-0.7031 F48.0)
(Block-X: G2 X47.6598 Y-35.2551 Z-1.7 I-0.3401 J0.9343 F48.0)
(Block-X: G2 X48.254 Y-33.9807 Z-1.7 I0.9343 J0.3401 F48.0)
(Block-X: G2 X49.2972 Y-34.2119 Z-1.7 I0.3401 J-0.9343 F48.0)
(Block-X: G1 X49.2972 Y-34.2119 Z-3.4 F30.0)
(Block-X: G2 X48.9342 Y-35.8493 Z-3.4 I-0.7031 J-0.7031 F48.0)
(Block-X: G2 X47.6598 Y-35.2551 Z-3.4 I-0.3401 J0.9343 F48.0)
(Block-X: G2 X48.254 Y-33.9807 Z-3.4 I0.9343 J0.3401 F48.0)
(Block-X: G2 X49.2972 Y-34.2119 Z-3.4 I0.3401 J-0.9343 F48.0)
(Block-X: G1 X49.2972 Y-34.2119 Z-5 F30.0)
(Block-X: G2 X48.9342 Y-35.8493 Z-5 I-0.7031 J-0.7031 F48.0)
(Block-X: G2 X47.6598 Y-35.2551 Z-5 I-0.3401 J0.9343 F48.0)
(Block-X: G2 X48.254 Y-33.9807 Z-5 I0.9343 J0.3401 F48.0)
(Block-X: G2 X49.2972 Y-34.2119 Z-5 I0.3401 J-0.9343 F48.0)
(Block-X: G0 Z3)
(Block-name: block)
(Block-expand: 0)
(Block-enable: 0)
(Block-X: G0 X49.2972 Y-11.2119)
(Block-X: G1 X49.2972 Y-11.2119 Z-1.7 F30.0)
(Block-X: G2 X48.9342 Y-12.8493 Z-1.7 I-0.7031 J-0.7031 F48.0)
(Block-X: G2 X47.6598 Y-12.2551 Z-1.7 I-0.3401 J0.9343 F48.0)
(Block-X: G2 X48.254 Y-10.9807 Z-1.7 I0.9343 J0.3401 F48.0)
(Block-X: G2 X49.2972 Y-11.2119 Z-1.7 I0.3401 J-0.9343 F48.0)
(Block-X: G1 X49.2972 Y-11.2119 Z-3.4 F30.0)
(Block-X: G2 X48.9342 Y-12.8493 Z-3.4 I-0.7031 J-0.7031 F48.0)
(Block-X: G2 X47.6598 Y-12.2551 Z-3.4 I-0.3401 J0.9343 F48.0)
(Block-X: G2 X48.254 Y-10.9807 Z-3.4 I0.9343 J0.3401 F48.0)
(Block-X: G2 X49.2972 Y-11.2119 Z-3.4 I0.3401 J-0.9343 F48.0)
(Block-X: G1 X49.2972 Y-11.2119 Z-5 F30.0)
(Block-X: G2 X48.9342 Y-12.8493 Z-5 I-0.7031 J-0.7031 F48.0)
(Block-X: G2 X47.6598 Y-12.2551 Z-5 I-0.3401 J0.9343 F48.0)
(Block-X: G2 X48.254 Y-10.9807 Z-5 I0.9343 J0.3401 F48.0)
(Block-X: G2 X49.2972 Y-11.2119 Z-5 I0.3401 J-0.9343 F48.0)
(Block-X: G0 Z3)
(Block-name: block)
(Block-expand: 0)
(Block-enable: 1)
G0 X24.2972 Y-11.2119
G1 X24.2972 Y-11.2119 Z-1.7 F30.0
G2 X23.9342 Y-12.8493 Z-1.7 I-0.7031 J-0.7031 F48.0
G2 X22.6598 Y-12.2551 Z-1.7 I-0.3401 J0.9343 F48.0
G2 X23.254 Y-10.9807 Z-1.7 I0.9343 J0.3401 F48.0
G2 X24.2972 Y-11.2119 Z-1.7 I0.3401 J-0.9343 F48.0
G1 X24.2972 Y-11.2119 Z-3.4 F30.0
G2 X23.9342 Y-12.8493 Z-3.4 I-0.7031 J-0.7031 F48.0
G2 X22.6598 Y-12.2551 Z-3.4 I-0.3401 J0.9343 F48.0
G2 X23.254 Y-10.9807 Z-3.4 I0.9343 J0.3401 F48.0
G2 X24.2972 Y-11.2119 Z-3.4 I0.3401 J-0.9343 F48.0
G1 X24.2972 Y-11.2119 Z-5 F30.0
G2 X23.9342 Y-12.8493 Z-5 I-0.7031 J-0.7031 F48.0
G2 X22.6598 Y-12.2551 Z-5 I-0.3401 J0.9343 F48.0
G2 X23.254 Y-10.9807 Z-5 I0.9343 J0.3401 F48.0
G2 X24.2972 Y-11.2119 Z-5 I0.3401 J-0.9343 F48.0
G0 Z3
(Block-name: block)
(Block-expand: 0)
(Block-enable: 1)
;end operation: Agujeros
;begin operation
;Pocket_3D
G0 Z3
G0 X41.0941 Y-6.665
G1 X41.0941 Y-6.665 Z-1.7 F30.0
G1 X31.0941 Y-6.665 Z-1.7 F48.0
G1 X31.0941 Y-8.165 Z-1.7 F48.0
G1 X41.0941 Y-8.165 Z-1.7 F48.0
G1 X41.0941 Y-6.665 Z-1.7 F48.0
G1 X41.0941 Y-6.665 Z-2.5 F30.0
G1 X31.0941 Y-6.665 Z-2.5 F48.0
G1 X31.0941 Y-8.165 Z-2.5 F48.0
G1 X41.0941 Y-8.165 Z-2.5 F48.0
G1 X41.0941 Y-6.665 Z-2.5 F48.0
G0 Z3
(Block-name: block)
(Block-expand: 0)
(Block-enable: 1)
G0 X41.0941 Y-15.665
G1 X41.0941 Y-15.665 Z-1.7 F30.0
G1 X31.0941 Y-15.665 Z-1.7 F48.0
G1 X31.0941 Y-18.665 Z-1.7 F48.0
G1 X41.0941 Y-18.665 Z-1.7 F48.0
G1 X41.0941 Y-15.665 Z-1.7 F48.0
G0 X41.0941 Y-15.665 Z3
(Block-name: block)
(Block-expand: 0)
(Block-enable: 1)
G0 X40.3441 Y-16.415 Z3
G0 X40.3441 Y-16.415 Z1.3
G1 X40.3441 Y-16.415 Z-1.7 F30.0
G1 X31.8441 Y-16.415 Z-1.7 F48.0
G1 X31.8441 Y-17.915 Z-1.7 F48.0
G1 X40.3441 Y-17.915 Z-1.7 F48.0
G1 X40.3441 Y-16.415 Z-1.7 F48.0
G1 X40.3441 Y-16.415 Z-2.5 F30.0
G1 X31.8441 Y-16.415 Z-2.5 F48.0
G1 X31.8441 Y-17.915 Z-2.5 F48.0
G1 X40.3441 Y-17.915 Z-2.5 F48.0
G1 X40.3441 Y-16.415 Z-2.5 F48.0
G0 X40.3441 Y-16.415 Z3
(Block-name: block)
(Block-expand: 0)
(Block-enable: 1)
G0 X40.3441 Y-15.665 Z3
G0 X40.3441 Y-15.665 Z0.5
G1 X40.3441 Y-15.665 Z-2.5 F30.0
G1 X31.0941 Y-15.665 Z-2.5 F48.0
G1 X31.0941 Y-18.665 Z-2.5 F48.0
G1 X41.0941 Y-18.665 Z-2.5 F48.0
G1 X41.0941 Y-15.665 Z-2.5 F48.0
G1 X40.3441 Y-15.665 Z-2.5 F48.0
G0 Z3
(Block-name: block)
(Block-expand: 0)
(Block-enable: 1)
G0 X41.0941 Y-29.665
G1 X41.0941 Y-29.665 Z-1.7 F30.0
G1 X31.0941 Y-29.665 Z-1.7 F48.0
G1 X31.0941 Y-31.165 Z-1.7 F48.0
G1 X41.0941 Y-31.165 Z-1.7 F48.0
G1 X41.0941 Y-29.665 Z-1.7 F48.0
G1 X41.0941 Y-29.665 Z-2.5 F30.0
G1 X31.0941 Y-29.665 Z-2.5 F48.0
G1 X31.0941 Y-31.165 Z-2.5 F48.0
G1 X41.0941 Y-31.165 Z-2.5 F48.0
G1 X41.0941 Y-29.665 Z-2.5 F48.0
G0 Z3
(Block-name: block)
(Block-expand: 0)
(Block-enable: 1)
G0 X41.0941 Y-38.665
G1 X41.0941 Y-38.665 Z-1.7 F30.0
G1 X31.0941 Y-38.665 Z-1.7 F48.0
G1 X31.0941 Y-41.665 Z-1.7 F48.0
G1 X41.0941 Y-41.665 Z-1.7 F48.0
G1 X41.0941 Y-38.665 Z-1.7 F48.0
G0 X41.0941 Y-38.665 Z3
(Block-name: block)
(Block-expand: 0)
(Block-enable: 1)
G0 X40.3441 Y-39.415 Z3
G0 X40.3441 Y-39.415 Z1.3
G1 X40.3441 Y-39.415 Z-1.7 F30.0
G1 X31.8441 Y-39.415 Z-1.7 F48.0
G1 X31.8441 Y-40.915 Z-1.7 F48.0
G1 X40.3441 Y-40.915 Z-1.7 F48.0
G1 X40.3441 Y-39.415 Z-1.7 F48.0
G1 X40.3441 Y-39.415 Z-2.5 F30.0
G1 X31.8441 Y-39.415 Z-2.5 F48.0
G1 X31.8441 Y-40.915 Z-2.5 F48.0
G1 X40.3441 Y-40.915 Z-2.5 F48.0
G1 X40.3441 Y-39.415 Z-2.5 F48.0
G0 X40.3441 Y-39.415 Z3
(Block-name: block)
(Block-expand: 0)
(Block-enable: 1)
G0 X41.0941 Y-39.415 Z3
G0 X41.0941 Y-39.415 Z0.5
G1 X41.0941 Y-39.415 Z-2.5 F30.0
G1 X41.0941 Y-38.665 Z-2.5 F48.0
G1 X31.0941 Y-38.665 Z-2.5 F48.0
G1 X31.0941 Y-41.665 Z-2.5 F48.0
G1 X41.0941 Y-41.665 Z-2.5 F48.0
G1 X41.0941 Y-39.415 Z-2.5 F48.0
G0 Z3
(Block-name: block)
(Block-expand: 0)
(Block-enable: 1)
;end operation: Ranuras
;begin operation
;Contour
;Compensated Tool Path. Diameter: 3.0
G0 Z3
G0 X57.1548 Y-23.8543
G1 X57.1548 Y-23.8543 Z-1.7 F30.0
G2 X57.5941 Y-24.915 Z-1.7 I-1.0607 J-1.0607 F48.0
G1 X57.5941 Y-38.915 Z-1.7 F48.0
G2 X55.6785 Y-40.3563 Z-1.7 I-1.5 J-0 F48.0
G3 X42.9066 Y-45.6412 Z-1.7 I-3.3589 J-9.9578 F48.0
G2 X41.5941 Y-46.415 Z-1.7 I-1.3125 J0.7262 F48.0
G1 X30.5941 Y-46.415 Z-1.7 F48.0
G2 X29.2816 Y-45.6412 Z-1.7 I0 J1.5 F48.0
G3 X16.5097 Y-40.3563 Z-1.7 I-9.413 J-4.6728 F48.0
G2 X14.5941 Y-38.915 Z-1.7 I-0.4156 J1.4413 F48.0
G1 X14.5941 Y-24.915 Z-1.7 F48.0
G2 X16.0941 Y-23.415 Z-1.7 I1.5 J-0 F48.0
G1 X56.0941 Y-23.415 Z-1.7 F48.0
G2 X57.1548 Y-23.8543 Z-1.7 I-0 J-1.5 F48.0
G1 X57.1548 Y-23.8543 Z-3.4 F30.0
G2 X57.5941 Y-24.915 Z-3.4 I-1.0607 J-1.0607 F48.0
G1 X57.5941 Y-38.915 Z-3.4 F48.0
G2 X55.6785 Y-40.3563 Z-3.4 I-1.5 J-0 F48.0
G3 X42.9066 Y-45.6412 Z-3.4 I-3.3589 J-9.9578 F48.0
G2 X41.5941 Y-46.415 Z-3.4 I-1.3125 J0.7262 F48.0
G1 X30.5941 Y-46.415 Z-3.4 F48.0
G2 X29.2816 Y-45.6412 Z-3.4 I0 J1.5 F48.0
G3 X16.5097 Y-40.3563 Z-3.4 I-9.413 J-4.6728 F48.0
G2 X14.5941 Y-38.915 Z-3.4 I-0.4156 J1.4413 F48.0
G1 X14.5941 Y-24.915 Z-3.4 F48.0
G2 X16.0941 Y-23.415 Z-3.4 I1.5 J-0 F48.0
G1 X56.0941 Y-23.415 Z-3.4 F48.0
G2 X57.1548 Y-23.8543 Z-3.4 I-0 J-1.5 F48.0
G1 X57.1548 Y-23.8543 Z-5 F30.0
G2 X57.5941 Y-24.915 Z-5 I-1.0607 J-1.0607 F48.0
G1 X57.5941 Y-38.915 Z-5 F48.0
G2 X55.6785 Y-40.3563 Z-5 I-1.5 J-0 F48.0
G3 X42.9066 Y-45.6412 Z-5 I-3.3589 J-9.9578 F48.0
G2 X41.5941 Y-46.415 Z-5 I-1.3125 J0.7262 F48.0
G1 X30.5941 Y-46.415 Z-5 F48.0
G2 X29.2816 Y-45.6412 Z-5 I0 J1.5 F48.0
G3 X16.5097 Y-40.3563 Z-5 I-9.413 J-4.6728 F48.0
G2 X14.5941 Y-38.915 Z-5 I-0.4156 J1.4413 F48.0
G1 X14.5941 Y-24.915 Z-5 F48.0
G2 X16.0941 Y-23.415 Z-5 I1.5 J-0 F48.0
G1 X56.0941 Y-23.415 Z-5 F48.0
G2 X57.1548 Y-23.8543 Z-5 I-0 J-1.5 F48.0
G0 Z3
(Block-name: block)
(Block-expand: 1)
(Block-enable: 1)
G0 X57.1548 Y-0.8543
G1 X57.1548 Y-0.8543 Z-1.7 F30.0
G2 X57.5941 Y-1.915 Z-1.7 I-1.0607 J-1.0607 F48.0
G1 X57.5941 Y-21.915 Z-1.7 F48.0
G2 X56.0941 Y-23.415 Z-1.7 I-1.5 J0 F48.0
G1 X16.0941 Y-23.415 Z-1.7 F200.0
G2 X14.5941 Y-21.915 Z-1.7 I0 J1.5 F48.0
G1 X14.5941 Y-1.915 Z-1.7 F48.0
G2 X16.0941 Y-0.415 Z-1.7 I1.5 J-0 F48.0
G1 X56.0941 Y-0.415 Z-1.7 F48.0
G2 X57.1548 Y-0.8543 Z-1.7 I-0 J-1.5 F48.0
G1 X57.1548 Y-0.8543 Z-3.4 F30.0
G2 X57.5941 Y-1.915 Z-3.4 I-1.0607 J-1.0607 F48.0
G1 X57.5941 Y-21.915 Z-3.4 F48.0
G2 X56.0941 Y-23.415 Z-3.4 I-1.5 J0 F48.0
G1 X16.0941 Y-23.415 Z-3.4 F200.0
G2 X14.5941 Y-21.915 Z-3.4 I0 J1.5 F48.0
G1 X14.5941 Y-1.915 Z-3.4 F48.0
G2 X16.0941 Y-0.415 Z-3.4 I1.5 J-0 F48.0
G1 X56.0941 Y-0.415 Z-3.4 F48.0
G2 X57.1548 Y-0.8543 Z-3.4 I-0 J-1.5 F48.0
G1 X57.1548 Y-0.8543 Z-5 F30.0
G2 X57.5941 Y-1.915 Z-5 I-1.0607 J-1.0607 F48.0
G1 X57.5941 Y-21.915 Z-5 F48.0
G2 X56.0941 Y-23.415 Z-5 I-1.5 J0 F48.0
G1 X16.0941 Y-23.415 Z-5 F200.0
G2 X14.5941 Y-21.915 Z-5 I0 J1.5 F48.0
G1 X14.5941 Y-1.915 Z-5 F48.0
G2 X16.0941 Y-0.415 Z-5 I1.5 J-0 F48.0
G1 X56.0941 Y-0.415 Z-5 F48.0
G2 X57.1548 Y-0.8543 Z-5 I-0 J-1.5 F48.0
G0 Z3
(Block-name: block)
(Block-expand: 0)
(Block-enable: 1)
;end operation: Contour
;begin postamble
M5 M25
G49 H0
G90 G80 G40 G49
M99
