(Block-name: Header)
(Block-expand: 0)
(Block-enable: 1)

;Exported by FreeCAD
;Post Processor: centroid_post
;CAM file: /home/vladimir/Documentos/SOFTWARE/arduino/CNC/Designs/Impresora3D/Soporte_Hot_end.FCStd
;Output Time: 2020-04-27 23:42:02.438131
G90 G80 G40 G49
;T2=Default_Tool
;begin preamble
(Block-name: block)
(Block-expand: 0)
(Block-enable: 1)
G53 G00 G17
G21
;begin operation
;Fresa 3mm
M6 T2
M3 S0
;end operation: Fresa 3mm
;begin operation
;Agujeros
;Compensated Tool Path. Diameter: 3.0
G0 Z3
(Block-name: block)
(Block-expand: 0)
(Block-enable: 1)
G0 X-11.8255 Y-43.6197
G1 X-11.8255 Y-43.6197 Z0 F79.8
G2 X-13.4629 Y-43.2567 Z0 I-0.7031 J0.7031 F100.2
G2 X-12.8687 Y-41.9823 Z0 I0.9343 J0.3401 F100.2
G2 X-11.5943 Y-42.5765 Z0 I0.3401 J-0.9343 F100.2
G2 X-11.8255 Y-43.6197 Z0 I-0.9343 J-0.3401 F100.2
G1 X-11.8255 Y-43.6197 Z-1.5 F79.8
G2 X-13.4629 Y-43.2567 Z-1.5 I-0.7031 J0.7031 F100.2
G2 X-12.8687 Y-41.9823 Z-1.5 I0.9343 J0.3401 F100.2
G2 X-11.5943 Y-42.5765 Z-1.5 I0.3401 J-0.9343 F100.2
G2 X-11.8255 Y-43.6197 Z-1.5 I-0.9343 J-0.3401 F100.2
G1 X-11.8255 Y-43.6197 Z-3 F79.8
G2 X-13.4629 Y-43.2567 Z-3 I-0.7031 J0.7031 F100.2
G2 X-12.8687 Y-41.9823 Z-3 I0.9343 J0.3401 F100.2
G2 X-11.5943 Y-42.5765 Z-3 I0.3401 J-0.9343 F100.2
G2 X-11.8255 Y-43.6197 Z-3 I-0.9343 J-0.3401 F100.2
G1 X-11.8255 Y-43.6197 Z-4.5 F79.8
G2 X-13.4629 Y-43.2567 Z-4.5 I-0.7031 J0.7031 F100.2
G2 X-12.8687 Y-41.9823 Z-4.5 I0.9343 J0.3401 F100.2
G2 X-11.5943 Y-42.5765 Z-4.5 I0.3401 J-0.9343 F100.2
G2 X-11.8255 Y-43.6197 Z-4.5 I-0.9343 J-0.3401 F100.2
G1 X-11.8255 Y-43.6197 Z-5.5 F79.8
G2 X-13.4629 Y-43.2567 Z-5.5 I-0.7031 J0.7031 F100.2
G2 X-12.8687 Y-41.9823 Z-5.5 I0.9343 J0.3401 F100.2
G2 X-11.5943 Y-42.5765 Z-5.5 I0.3401 J-0.9343 F100.2
G2 X-11.8255 Y-43.6197 Z-5.5 I-0.9343 J-0.3401 F100.2
G0 Z3
(Block-name: block)
(Block-expand: 0)
(Block-enable: 1)
G0 X11.1745 Y-25.6197
G1 X11.1745 Y-25.6197 Z0 F79.8
G2 X10.8115 Y-25.8509 Z0 I-0.7031 J0.7031 F100.2
G2 X10.1313 Y-23.9823 Z0 I-0.3401 J0.9343 F100.2
G2 X11.1745 Y-25.6197 Z0 I0.3401 J-0.9343 F100.2
G1 X11.1745 Y-25.6197 Z-1.5 F79.8
G2 X10.8115 Y-25.8509 Z-1.5 I-0.7031 J0.7031 F100.2
G2 X10.1313 Y-23.9823 Z-1.5 I-0.3401 J0.9343 F100.2
G2 X11.1745 Y-25.6197 Z-1.5 I0.3401 J-0.9343 F100.2
G1 X11.1745 Y-25.6197 Z-3 F79.8
G2 X10.8115 Y-25.8509 Z-3 I-0.7031 J0.7031 F100.2
G2 X10.1313 Y-23.9823 Z-3 I-0.3401 J0.9343 F100.2
G2 X11.1745 Y-25.6197 Z-3 I0.3401 J-0.9343 F100.2
G1 X11.1745 Y-25.6197 Z-4.5 F79.8
G2 X10.8115 Y-25.8509 Z-4.5 I-0.7031 J0.7031 F100.2
G2 X10.1313 Y-23.9823 Z-4.5 I-0.3401 J0.9343 F100.2
G2 X11.1745 Y-25.6197 Z-4.5 I0.3401 J-0.9343 F100.2
G1 X11.1745 Y-25.6197 Z-5.5 F79.8
G2 X10.8115 Y-25.8509 Z-5.5 I-0.7031 J0.7031 F100.2
G2 X10.1313 Y-23.9823 Z-5.5 I-0.3401 J0.9343 F100.2
G2 X11.1745 Y-25.6197 Z-5.5 I0.3401 J-0.9343 F100.2
G0 Z3
(Block-name: block)
(Block-expand: 0)
(Block-enable: 1)
G0 X19.6745 Y-47.1197
G1 X19.6745 Y-47.1197 Z0 F79.8
G2 X19.3115 Y-47.3509 Z0 I-0.7031 J0.7031 F100.2
G2 X18.0371 Y-46.7567 Z0 I-0.3401 J0.9343 F100.2
G2 X18.6313 Y-45.4823 Z0 I0.9343 J0.3401 F100.2
G2 X19.6745 Y-47.1197 Z0 I0.3401 J-0.9343 F100.2
G1 X19.6745 Y-47.1197 Z-1.5 F79.8
G2 X19.3115 Y-47.3509 Z-1.5 I-0.7031 J0.7031 F100.2
G2 X18.0371 Y-46.7567 Z-1.5 I-0.3401 J0.9343 F100.2
G2 X18.6313 Y-45.4823 Z-1.5 I0.9343 J0.3401 F100.2
G2 X19.6745 Y-47.1197 Z-1.5 I0.3401 J-0.9343 F100.2
G1 X19.6745 Y-47.1197 Z-3 F79.8
G2 X19.3115 Y-47.3509 Z-3 I-0.7031 J0.7031 F100.2
G2 X18.0371 Y-46.7567 Z-3 I-0.3401 J0.9343 F100.2
G2 X18.6313 Y-45.4823 Z-3 I0.9343 J0.3401 F100.2
G2 X19.6745 Y-47.1197 Z-3 I0.3401 J-0.9343 F100.2
G1 X19.6745 Y-47.1197 Z-4.5 F79.8
G2 X19.3115 Y-47.3509 Z-4.5 I-0.7031 J0.7031 F100.2
G2 X18.0371 Y-46.7567 Z-4.5 I-0.3401 J0.9343 F100.2
G2 X18.6313 Y-45.4823 Z-4.5 I0.9343 J0.3401 F100.2
G2 X19.6745 Y-47.1197 Z-4.5 I0.3401 J-0.9343 F100.2
G1 X19.6745 Y-47.1197 Z-5.5 F79.8
G2 X19.3115 Y-47.3509 Z-5.5 I-0.7031 J0.7031 F100.2
G2 X18.0371 Y-46.7567 Z-5.5 I-0.3401 J0.9343 F100.2
G2 X18.6313 Y-45.4823 Z-5.5 I0.9343 J0.3401 F100.2
G2 X19.6745 Y-47.1197 Z-5.5 I0.3401 J-0.9343 F100.2
G0 Z3
(Block-name: block)
(Block-expand: 0)
(Block-enable: 1)
G0 X19.6745 Y-22.1197
G1 X19.6745 Y-22.1197 Z0 F79.8
G2 X18.0371 Y-21.7567 Z0 I-0.7031 J0.7031 F100.2
G2 X18.6313 Y-20.4823 Z0 I0.9343 J0.3401 F100.2
G2 X19.9057 Y-21.0765 Z0 I0.3401 J-0.9343 F100.2
G2 X19.6745 Y-22.1197 Z0 I-0.9343 J-0.3401 F100.2
G1 X19.6745 Y-22.1197 Z-1.5 F79.8
G2 X18.0371 Y-21.7567 Z-1.5 I-0.7031 J0.7031 F100.2
G2 X18.6313 Y-20.4823 Z-1.5 I0.9343 J0.3401 F100.2
G2 X19.9057 Y-21.0765 Z-1.5 I0.3401 J-0.9343 F100.2
G2 X19.6745 Y-22.1197 Z-1.5 I-0.9343 J-0.3401 F100.2
G1 X19.6745 Y-22.1197 Z-3 F79.8
G2 X18.0371 Y-21.7567 Z-3 I-0.7031 J0.7031 F100.2
G2 X18.6313 Y-20.4823 Z-3 I0.9343 J0.3401 F100.2
G2 X19.9057 Y-21.0765 Z-3 I0.3401 J-0.9343 F100.2
G2 X19.6745 Y-22.1197 Z-3 I-0.9343 J-0.3401 F100.2
G1 X19.6745 Y-22.1197 Z-4.5 F79.8
G2 X18.0371 Y-21.7567 Z-4.5 I-0.7031 J0.7031 F100.2
G2 X18.6313 Y-20.4823 Z-4.5 I0.9343 J0.3401 F100.2
G2 X19.9057 Y-21.0765 Z-4.5 I0.3401 J-0.9343 F100.2
G2 X19.6745 Y-22.1197 Z-4.5 I-0.9343 J-0.3401 F100.2
G1 X19.6745 Y-22.1197 Z-5.5 F79.8
G2 X18.0371 Y-21.7567 Z-5.5 I-0.7031 J0.7031 F100.2
G2 X18.6313 Y-20.4823 Z-5.5 I0.9343 J0.3401 F100.2
G2 X19.9057 Y-21.0765 Z-5.5 I0.3401 J-0.9343 F100.2
G2 X19.6745 Y-22.1197 Z-5.5 I-0.9343 J-0.3401 F100.2
G0 Z3
(Block-name: block)
(Block-expand: 0)
(Block-enable: 1)
G0 X51.1745 Y-25.1197
G1 X51.1745 Y-25.1197 Z0 F79.8
G2 X49.5371 Y-24.7567 Z0 I-0.7031 J0.7031 F100.2
G2 X50.1313 Y-23.4823 Z0 I0.9343 J0.3401 F100.2
G2 X51.4057 Y-24.0765 Z0 I0.3401 J-0.9343 F100.2
G2 X51.1745 Y-25.1197 Z0 I-0.9343 J-0.3401 F100.2
G1 X51.1745 Y-25.1197 Z-1.5 F79.8
G2 X49.5371 Y-24.7567 Z-1.5 I-0.7031 J0.7031 F100.2
G2 X50.1313 Y-23.4823 Z-1.5 I0.9343 J0.3401 F100.2
G2 X51.4057 Y-24.0765 Z-1.5 I0.3401 J-0.9343 F100.2
G2 X51.1745 Y-25.1197 Z-1.5 I-0.9343 J-0.3401 F100.2
G1 X51.1745 Y-25.1197 Z-3 F79.8
G2 X49.5371 Y-24.7567 Z-3 I-0.7031 J0.7031 F100.2
G2 X50.1313 Y-23.4823 Z-3 I0.9343 J0.3401 F100.2
G2 X51.4057 Y-24.0765 Z-3 I0.3401 J-0.9343 F100.2
G2 X51.1745 Y-25.1197 Z-3 I-0.9343 J-0.3401 F100.2
G1 X51.1745 Y-25.1197 Z-4.5 F79.8
G2 X49.5371 Y-24.7567 Z-4.5 I-0.7031 J0.7031 F100.2
G2 X50.1313 Y-23.4823 Z-4.5 I0.9343 J0.3401 F100.2
G2 X51.4057 Y-24.0765 Z-4.5 I0.3401 J-0.9343 F100.2
G2 X51.1745 Y-25.1197 Z-4.5 I-0.9343 J-0.3401 F100.2
G1 X51.1745 Y-25.1197 Z-5.5 F79.8
G2 X49.5371 Y-24.7567 Z-5.5 I-0.7031 J0.7031 F100.2
G2 X50.1313 Y-23.4823 Z-5.5 I0.9343 J0.3401 F100.2
G2 X51.4057 Y-24.0765 Z-5.5 I0.3401 J-0.9343 F100.2
G2 X51.1745 Y-25.1197 Z-5.5 I-0.9343 J-0.3401 F100.2
G0 Z3
(Block-name: block)
(Block-expand: 0)
(Block-enable: 1)
G0 X51.1745 Y-44.1197
G1 X51.1745 Y-44.1197 Z0 F79.8
G2 X49.5371 Y-43.7567 Z0 I-0.7031 J0.7031 F100.2
G2 X50.1313 Y-42.4823 Z0 I0.9343 J0.3401 F100.2
G2 X51.4057 Y-43.0765 Z0 I0.3401 J-0.9343 F100.2
G2 X51.1745 Y-44.1197 Z0 I-0.9343 J-0.3401 F100.2
G1 X51.1745 Y-44.1197 Z-1.5 F79.8
G2 X49.5371 Y-43.7567 Z-1.5 I-0.7031 J0.7031 F100.2
G2 X50.1313 Y-42.4823 Z-1.5 I0.9343 J0.3401 F100.2
G2 X51.4057 Y-43.0765 Z-1.5 I0.3401 J-0.9343 F100.2
G2 X51.1745 Y-44.1197 Z-1.5 I-0.9343 J-0.3401 F100.2
G1 X51.1745 Y-44.1197 Z-3 F79.8
G2 X49.5371 Y-43.7567 Z-3 I-0.7031 J0.7031 F100.2
G2 X50.1313 Y-42.4823 Z-3 I0.9343 J0.3401 F100.2
G2 X51.4057 Y-43.0765 Z-3 I0.3401 J-0.9343 F100.2
G2 X51.1745 Y-44.1197 Z-3 I-0.9343 J-0.3401 F100.2
G1 X51.1745 Y-44.1197 Z-4.5 F79.8
G2 X49.5371 Y-43.7567 Z-4.5 I-0.7031 J0.7031 F100.2
G2 X50.1313 Y-42.4823 Z-4.5 I0.9343 J0.3401 F100.2
G2 X51.4057 Y-43.0765 Z-4.5 I0.3401 J-0.9343 F100.2
G2 X51.1745 Y-44.1197 Z-4.5 I-0.9343 J-0.3401 F100.2
G1 X51.1745 Y-44.1197 Z-5.5 F79.8
G2 X49.5371 Y-43.7567 Z-5.5 I-0.7031 J0.7031 F100.2
G2 X50.1313 Y-42.4823 Z-5.5 I0.9343 J0.3401 F100.2
G2 X51.4057 Y-43.0765 Z-5.5 I0.3401 J-0.9343 F100.2
G2 X51.1745 Y-44.1197 Z-5.5 I-0.9343 J-0.3401 F100.2
G0 Z3
(Block-name: block)
(Block-expand: 0)
(Block-enable: 1)
G0 X28.1745 Y-62.1197
G1 X28.1745 Y-62.1197 Z0 F79.8
G2 X26.5371 Y-61.7567 Z0 I-0.7031 J0.7031 F100.2
G2 X28.4057 Y-61.0765 Z0 I0.9343 J0.3401 F100.2
G2 X28.1745 Y-62.1197 Z0 I-0.9343 J-0.3401 F100.2
G1 X28.1745 Y-62.1197 Z-1.5 F79.8
G2 X26.5371 Y-61.7567 Z-1.5 I-0.7031 J0.7031 F100.2
G2 X28.4057 Y-61.0765 Z-1.5 I0.9343 J0.3401 F100.2
G2 X28.1745 Y-62.1197 Z-1.5 I-0.9343 J-0.3401 F100.2
G1 X28.1745 Y-62.1197 Z-3 F79.8
G2 X26.5371 Y-61.7567 Z-3 I-0.7031 J0.7031 F100.2
G2 X28.4057 Y-61.0765 Z-3 I0.9343 J0.3401 F100.2
G2 X28.1745 Y-62.1197 Z-3 I-0.9343 J-0.3401 F100.2
G1 X28.1745 Y-62.1197 Z-4.5 F79.8
G2 X26.5371 Y-61.7567 Z-4.5 I-0.7031 J0.7031 F100.2
G2 X28.4057 Y-61.0765 Z-4.5 I0.9343 J0.3401 F100.2
G2 X28.1745 Y-62.1197 Z-4.5 I-0.9343 J-0.3401 F100.2
G1 X28.1745 Y-62.1197 Z-5.5 F79.8
G2 X26.5371 Y-61.7567 Z-5.5 I-0.7031 J0.7031 F100.2
G2 X28.4057 Y-61.0765 Z-5.5 I0.9343 J0.3401 F100.2
G2 X28.1745 Y-62.1197 Z-5.5 I-0.9343 J-0.3401 F100.2
G0 Z3
(Block-name: block)
(Block-expand: 0)
(Block-enable: 1)
G0 X28.1745 Y-7.1197
G1 X28.1745 Y-7.1197 Z0 F79.8
G2 X26.5371 Y-6.7567 Z0 I-0.7031 J0.7031 F100.2
G2 X27.1313 Y-5.4823 Z0 I0.9343 J0.3401 F100.2
G2 X28.4057 Y-6.0765 Z0 I0.3401 J-0.9343 F100.2
G2 X28.1745 Y-7.1197 Z0 I-0.9343 J-0.3401 F100.2
G1 X28.1745 Y-7.1197 Z-1.5 F79.8
G2 X26.5371 Y-6.7567 Z-1.5 I-0.7031 J0.7031 F100.2
G2 X27.1313 Y-5.4823 Z-1.5 I0.9343 J0.3401 F100.2
G2 X28.4057 Y-6.0765 Z-1.5 I0.3401 J-0.9343 F100.2
G2 X28.1745 Y-7.1197 Z-1.5 I-0.9343 J-0.3401 F100.2
G1 X28.1745 Y-7.1197 Z-3 F79.8
G2 X26.5371 Y-6.7567 Z-3 I-0.7031 J0.7031 F100.2
G2 X27.1313 Y-5.4823 Z-3 I0.9343 J0.3401 F100.2
G2 X28.4057 Y-6.0765 Z-3 I0.3401 J-0.9343 F100.2
G2 X28.1745 Y-7.1197 Z-3 I-0.9343 J-0.3401 F100.2
G1 X28.1745 Y-7.1197 Z-4.5 F79.8
G2 X26.5371 Y-6.7567 Z-4.5 I-0.7031 J0.7031 F100.2
G2 X27.1313 Y-5.4823 Z-4.5 I0.9343 J0.3401 F100.2
G2 X28.4057 Y-6.0765 Z-4.5 I0.3401 J-0.9343 F100.2
G2 X28.1745 Y-7.1197 Z-4.5 I-0.9343 J-0.3401 F100.2
G1 X28.1745 Y-7.1197 Z-5.5 F79.8
G2 X26.5371 Y-6.7567 Z-5.5 I-0.7031 J0.7031 F100.2
G2 X27.1313 Y-5.4823 Z-5.5 I0.9343 J0.3401 F100.2
G2 X28.4057 Y-6.0765 Z-5.5 I0.3401 J-0.9343 F100.2
G2 X28.1745 Y-7.1197 Z-5.5 I-0.9343 J-0.3401 F100.2
G0 Z3
(Block-name: block)
(Block-expand: 0)
(Block-enable: 1)
;end operation: Agujeros
;begin operation
;Contour
;Compensated Tool Path. Diameter: 3.0
G0 Z3
G0 X57.0321 Y-67.4773
G1 X57.0321 Y-67.4773 Z-1.5 F79.8
G2 X55.9714 Y-67.9166 Z-1.5 I-1.0607 J1.0607 F100.2
G1 X10.4714 Y-67.9166 Z-1.5 F100.2
G2 X9.7198 Y-67.7147 Z-1.5 I-0 J1.5 F100.2
G1 X-18.7802 Y-51.2147 Z-1.5 F100.2
G2 X-19.5286 Y-49.9166 Z-1.5 I0.7516 J1.2981 F100.2
G1 X-19.5286 Y-17.9166 Z-1.5 F100.2
G2 X-18.7802 Y-16.6185 Z-1.5 I1.5 J0 F100.2
G1 X9.7198 Y-0.1185 Z-1.5 F100.2
G2 X10.4714 Y0.0834 Z-1.5 I0.7516 J-1.2981 F100.2
G1 X55.9714 Y0.0834 Z-1.5 F100.2
G2 X57.4714 Y-1.4166 Z-1.5 I0 J-1.5 F100.2
G1 X57.4714 Y-66.4166 Z-1.5 F100.2
G2 X57.0321 Y-67.4773 Z-1.5 I-1.5 J0 F100.2
G1 X57.0321 Y-67.4773 Z-3 F79.8
G2 X55.9714 Y-67.9166 Z-3 I-1.0607 J1.0607 F100.2
G1 X10.4714 Y-67.9166 Z-3 F100.2
G2 X9.7198 Y-67.7147 Z-3 I-0 J1.5 F100.2
G1 X-18.7802 Y-51.2147 Z-3 F100.2
G2 X-19.5286 Y-49.9166 Z-3 I0.7516 J1.2981 F100.2
G1 X-19.5286 Y-17.9166 Z-3 F100.2
G2 X-18.7802 Y-16.6185 Z-3 I1.5 J0 F100.2
G1 X9.7198 Y-0.1185 Z-3 F100.2
G2 X10.4714 Y0.0834 Z-3 I0.7516 J-1.2981 F100.2
G1 X55.9714 Y0.0834 Z-3 F100.2
G2 X57.4714 Y-1.4166 Z-3 I0 J-1.5 F100.2
G1 X57.4714 Y-66.4166 Z-3 F100.2
G2 X57.0321 Y-67.4773 Z-3 I-1.5 J0 F100.2
G1 X57.0321 Y-67.4773 Z-4.5 F79.8
G2 X55.9714 Y-67.9166 Z-4.5 I-1.0607 J1.0607 F100.2
G1 X10.4714 Y-67.9166 Z-4.5 F100.2
G2 X9.7198 Y-67.7147 Z-4.5 I-0 J1.5 F100.2
G1 X-18.7802 Y-51.2147 Z-4.5 F100.2
G2 X-19.5286 Y-49.9166 Z-4.5 I0.7516 J1.2981 F100.2
G1 X-19.5286 Y-17.9166 Z-4.5 F100.2
G2 X-18.7802 Y-16.6185 Z-4.5 I1.5 J0 F100.2
G1 X9.7198 Y-0.1185 Z-4.5 F100.2
G2 X10.4714 Y0.0834 Z-4.5 I0.7516 J-1.2981 F100.2
G1 X55.9714 Y0.0834 Z-4.5 F100.2
G2 X57.4714 Y-1.4166 Z-4.5 I0 J-1.5 F100.2
G1 X57.4714 Y-66.4166 Z-4.5 F100.2
G2 X57.0321 Y-67.4773 Z-4.5 I-1.5 J0 F100.2
G1 X57.0321 Y-67.4773 Z-5.5 F79.8
G2 X55.9714 Y-67.9166 Z-5.5 I-1.0607 J1.0607 F100.2
G1 X10.4714 Y-67.9166 Z-5.5 F100.2
G2 X9.7198 Y-67.7147 Z-5.5 I-0 J1.5 F100.2
G1 X-18.7802 Y-51.2147 Z-5.5 F100.2
G2 X-19.5286 Y-49.9166 Z-5.5 I0.7516 J1.2981 F100.2
G1 X-19.5286 Y-17.9166 Z-5.5 F100.2
G2 X-18.7802 Y-16.6185 Z-5.5 I1.5 J0 F100.2
G1 X9.7198 Y-0.1185 Z-5.5 F100.2
G2 X10.4714 Y0.0834 Z-5.5 I0.7516 J-1.2981 F100.2
G1 X55.9714 Y0.0834 Z-5.5 F100.2
G2 X57.4714 Y-1.4166 Z-5.5 I0 J-1.5 F100.2
G1 X57.4714 Y-66.4166 Z-5.5 F100.2
G2 X57.0321 Y-67.4773 Z-5.5 I-1.5 J0 F100.2
G0 Z3
(Block-name: block)
(Block-expand: 0)
(Block-enable: 1)
;end operation: Contour
;begin postamble
M5 M25
G49 H0
G90 G80 G40 G49
M99
