;FLAVOR:Marlin
;TIME:3071
;Filament used: 7.20707m
;Layer height: 0.4
;MINX:50.534
;MINY:10.024
;MINZ:0.3
;MAXX:156.676
;MAXY:60.807
;MAXZ:16.7
;Generated with Cura_SteamEngine 4.3.0
M140 S60
M105
M190 S60
M104 S210
M105
M109 S210
M82 ;absolute extrusion mode
M201 X500.00 Y500.00 Z100.00 E5000.00 ;Setup machine max acceleration
M203 X500.00 Y500.00 Z10.00 E50.00 ;Setup machine max feedrate
M204 P500.00 R1000.00 T500.00 ;Setup Print/Retract/Travel acceleration
M205 X8.00 Y8.00 Z0.40 E5.00 ;Setup Jerk
M220 S100 ;Reset Feedrate
M221 S100 ;Reset Flowrate

G28 ;Home

G92 E0 ;Reset Extruder
G1 Z2.0 F3000 ;Move Z Axis up
G1 X10.1 Y20 Z0.28 F5000.0 ;Move to start position
G1 X10.1 Y200.0 Z0.28 F1500.0 E15 ;Draw the first line
G1 X10.4 Y200.0 Z0.28 F5000.0 ;Move to side a little
G1 X10.4 Y20 Z0.28 F1500.0 E30 ;Draw the second line
G92 E0 ;Reset Extruder
G1 Z2.0 F3000 ;Move Z Axis up

G92 E0
G92 E0
G1 F3000 E-8
;LAYER_COUNT:42
;LAYER:0
M107
;MESH:SoporteRollo.stl(1)
G0 F6000 X78.455 Y49.181 Z0.3
;TYPE:WALL-INNER
G1 F3000 E0
G1 F1200 X80.878 Y48.455 E0.25239
G1 X83.137 Y47.32 E0.50464
G1 X85.164 Y45.81 E0.75685
G1 X86.899 Y43.971 E1.00912
G1 X88.289 Y41.858 E1.26149
G1 X89.29 Y39.536 E1.51379
G1 X89.871 Y37.076 E1.766
G1 X90.018 Y34.552 E2.01827
G1 X89.723 Y32.019 E2.27272
G1 X89.001 Y29.617 E2.52299
G1 X87.855 Y27.34 E2.77734
G1 X86.355 Y25.332 E3.02743
G1 X84.516 Y23.598 E3.27964
G1 X82.404 Y22.209 E3.53186
G1 X80.081 Y21.209 E3.78422
G1 X77.622 Y20.626 E4.03638
G1 X75.099 Y20.479 E4.28855
G1 X72.588 Y20.771 E4.54079
G1 X70.165 Y21.497 E4.79318
G1 X67.907 Y22.632 E5.04534
G1 X65.878 Y24.141 E5.29765
G1 X64.143 Y25.981 E5.54999
G1 X62.754 Y28.094 E5.8023
G1 X61.754 Y30.415 E6.05447
G1 X61.171 Y32.876 E6.30683
G1 X61.025 Y35.398 E6.5589
G1 X61.316 Y37.909 E6.81112
G1 X62.042 Y40.332 E7.06351
G1 X63.178 Y42.591 E7.31581
G1 X64.687 Y44.619 E7.56804
G1 X66.527 Y46.354 E7.82038
G1 X68.639 Y47.743 E8.07261
G1 X70.96 Y48.743 E8.32478
G1 X73.42 Y49.326 E8.57704
G1 X75.944 Y49.473 E8.82931
G1 X78.455 Y49.181 E9.08155
G0 F6000 X78.321 Y48.794
G0 X78.252 Y48.198
;TYPE:WALL-OUTER
G1 F1200 X80.507 Y47.522 E9.31645
G1 X82.61 Y46.466 E9.55125
G1 X84.497 Y45.06 E9.78606
G1 X86.112 Y43.348 E10.0209
G1 X87.405 Y41.382 E10.25569
G1 X88.337 Y39.221 E10.49051
G1 X88.878 Y36.931 E10.7253
G1 X89.015 Y34.581 E10.96018
G1 X88.74 Y32.223 E11.19706
G1 X88.068 Y29.989 E11.42983
G1 X87.001 Y27.868 E11.66674
G1 X85.606 Y26 E11.89937
G1 X83.894 Y24.386 E12.13414
G1 X81.928 Y23.093 E12.36893
G1 X79.766 Y22.162 E12.6038
G1 X77.476 Y21.619 E12.83864
G1 X75.128 Y21.482 E13.07332
G1 X72.791 Y21.754 E13.30808
G1 X70.536 Y22.43 E13.54298
G1 X68.434 Y23.486 E13.7777
G1 X66.545 Y24.891 E14.0126
G1 X64.931 Y26.603 E14.24737
G1 X63.638 Y28.57 E14.48225
G1 X62.707 Y30.731 E14.71703
G1 X62.164 Y33.021 E14.95186
G1 X62.028 Y35.369 E15.18654
G1 X62.299 Y37.706 E15.42129
G1 X62.975 Y39.961 E15.65619
G1 X64.032 Y42.064 E15.89104
G1 X65.437 Y43.952 E16.12586
G1 X67.149 Y45.566 E16.36063
G1 X69.115 Y46.859 E16.59542
G1 X71.276 Y47.79 E16.83021
G1 X73.566 Y48.333 E17.06504
G1 X75.915 Y48.47 E17.29983
G1 X78.252 Y48.198 E17.53459
G0 F6000 X78.474 Y49.275
G1 F3000 E9.53459
G0 F6000 X77.425 Y49.794
G0 X77.117 Y47.158
G0 X77.129 Y47.234
G0 X79.47 Y60.724
G0 X79.485 Y60.803
G0 X78.994 Y58.176
G0 X78.472 Y58.792
;TYPE:WALL-INNER
G1 F3000 E17.53459
G1 F1200 X75.521 Y58.973 E17.82959
G1 X72.571 Y58.792 E18.1245
G1 X69.669 Y58.249 E18.41909
G1 X66.858 Y57.354 E18.71344
G1 X64.165 Y56.117 E19.00914
G1 X61.657 Y54.563 E19.30354
G1 X59.354 Y52.709 E19.59854
G1 X57.298 Y50.589 E19.89321
G1 X55.516 Y48.231 E20.18813
G1 X54.04 Y45.671 E20.48298
G1 X52.89 Y42.956 E20.77719
G1 X52.079 Y40.105 E21.07294
G1 X51.627 Y37.197 E21.36659
G1 X51.536 Y34.235 E21.66228
G1 X51.809 Y31.29 E21.95739
G1 X52.44 Y28.411 E22.25148
G1 X53.421 Y25.624 E22.54629
G1 X54.741 Y22.976 E22.84152
G1 X56.372 Y20.514 E23.13619
G1 X58.291 Y18.273 E23.43058
G1 X60.482 Y16.276 E23.72639
G1 X62.884 Y14.576 E24.02001
G1 X65.5 Y13.171 E24.3163
G1 X68.239 Y12.11 E24.60939
G1 X71.12 Y11.386 E24.90579
G1 X74.039 Y11.024 E25.19928
G1 X77.004 Y11.024 E25.49513
G1 X79.923 Y11.386 E25.78862
G1 X82.804 Y12.11 E26.08503
G1 X85.542 Y13.171 E26.37802
G1 X88.159 Y14.576 E26.6744
G1 X90.561 Y16.277 E26.96808
G1 X92.752 Y18.273 E27.26382
G1 X94.671 Y20.514 E27.55821
G1 X96.302 Y22.976 E27.85288
G1 X97.621 Y25.624 E28.14807
G1 X98.603 Y28.411 E28.44291
G1 X99.234 Y31.289 E28.7369
G1 X99.506 Y34.237 E29.0323
G1 X99.416 Y37.197 E29.32779
G1 X98.964 Y40.105 E29.62143
G1 X98.153 Y42.956 E29.91719
G1 X97.003 Y45.671 E30.2114
G1 X95.526 Y48.231 E30.5063
G1 X93.745 Y50.59 E30.80123
G1 X91.689 Y52.709 E31.09584
G1 X89.383 Y54.565 E31.3912
G1 X86.881 Y56.115 E31.68487
G1 X84.185 Y57.354 E31.98093
G1 X81.374 Y58.249 E32.27529
G1 X78.472 Y58.792 E32.56987
G0 F6000 X78.527 Y59.19
G0 X78.597 Y59.786
;TYPE:WALL-OUTER
G1 F1200 X75.521 Y59.975 E32.87738
G1 X72.446 Y59.786 E33.18478
G1 X69.425 Y59.221 E33.49144
G1 X66.492 Y58.287 E33.79858
G1 X63.694 Y57.001 E34.10584
G1 X61.079 Y55.381 E34.41278
G1 X58.679 Y53.45 E34.72014
G1 X56.536 Y51.24 E35.02731
G1 X54.682 Y48.786 E35.33419
G1 X53.142 Y46.116 E35.64175
G1 X51.945 Y43.288 E35.94816
G1 X51.101 Y40.322 E36.25586
G1 X50.629 Y37.285 E36.56253
G1 X50.534 Y34.206 E36.8699
G1 X50.819 Y31.137 E37.17744
G1 X51.475 Y28.14 E37.48357
G1 X52.499 Y25.232 E37.79119
G1 X53.874 Y22.474 E38.09869
G1 X55.572 Y19.911 E38.40546
G1 X57.572 Y17.575 E38.7123
G1 X59.852 Y15.497 E39.02011
G1 X62.356 Y13.724 E39.32625
G1 X65.078 Y12.263 E39.63451
G1 X67.941 Y11.154 E39.94086
G1 X70.931 Y10.402 E40.2485
G1 X73.981 Y10.024 E40.55515
G1 X77.062 Y10.024 E40.86258
G1 X80.112 Y10.402 E41.16924
G1 X83.102 Y11.154 E41.47687
G1 X85.964 Y12.263 E41.78313
G1 X88.686 Y13.724 E42.09138
G1 X91.191 Y15.497 E42.39761
G1 X93.471 Y17.575 E42.70542
G1 X95.471 Y19.911 E43.01226
G1 X97.169 Y22.474 E43.31903
G1 X98.543 Y25.232 E43.62649
G1 X99.568 Y28.14 E43.93414
G1 X100.224 Y31.136 E44.24017
G1 X100.508 Y34.208 E44.548
G1 X100.414 Y37.285 E44.85517
G1 X99.942 Y40.322 E45.16184
G1 X99.098 Y43.288 E45.46954
G1 X97.901 Y46.116 E45.77595
G1 X96.36 Y48.786 E46.08355
G1 X94.507 Y51.24 E46.39038
G1 X92.364 Y53.45 E46.69754
G1 X89.964 Y55.381 E47.00491
G1 X87.348 Y57.001 E47.31193
G1 X84.551 Y58.287 E47.6191
G1 X81.618 Y59.221 E47.92624
G1 X78.597 Y59.786 E48.2329
G0 F6000 X78.462 Y58.695
G0 X78.35 Y57.808
;TYPE:SKIN
G1 F1200 X75.521 Y57.981 E48.51571
G1 X72.693 Y57.808 E48.79841
G1 X69.911 Y57.287 E49.08083
G1 X67.212 Y56.427 E49.36348
G1 X64.64 Y55.247 E49.64583
G1 X62.229 Y53.753 E49.92884
G1 X60.023 Y51.976 E50.21149
G1 X58.048 Y49.941 E50.49445
G1 X56.347 Y47.69 E50.77597
G1 X54.924 Y45.221 E51.06032
G1 X53.827 Y42.629 E51.34116
G1 X53.047 Y39.892 E51.62513
G1 X52.615 Y37.107 E51.90634
G1 X52.528 Y34.264 E52.19015
G1 X52.79 Y31.441 E52.47304
G1 X53.393 Y28.685 E52.75454
G1 X54.335 Y26.01 E53.03752
G1 X55.601 Y23.47 E53.3207
G1 X57.163 Y21.113 E53.60284
G1 X59.002 Y18.964 E53.88506
G1 X61.106 Y17.047 E54.16907
G1 X63.405 Y15.42 E54.4501
G1 X65.915 Y14.071 E54.73443
G1 X68.541 Y13.055 E55.01538
G1 X71.304 Y12.36 E55.29966
G1 X74.097 Y12.014 E55.58048
G1 X76.946 Y12.014 E55.86475
G1 X79.739 Y12.36 E56.14557
G1 X82.502 Y13.055 E56.42985
G1 X85.12 Y14.069 E56.70999
G1 X87.644 Y15.424 E56.99583
G1 X89.937 Y17.048 E57.2762
G1 X92.041 Y18.965 E57.56021
G1 X93.876 Y21.108 E57.84172
G1 X95.441 Y23.47 E58.12444
G1 X96.71 Y26.017 E58.40837
G1 X97.65 Y28.685 E58.69063
G1 X98.253 Y31.44 E58.97203
G1 X98.514 Y34.266 E59.25521
G1 X98.428 Y37.107 E59.53881
G1 X97.996 Y39.892 E59.82003
G1 X97.216 Y42.629 E60.104
G1 X96.116 Y45.227 E60.38551
G1 X94.699 Y47.684 E60.66852
G1 X92.995 Y49.942 E60.95078
G1 X91.021 Y51.975 E61.23352
G1 X88.81 Y53.756 E61.51681
G1 X86.409 Y55.243 E61.79861
G1 X83.828 Y56.428 E62.08199
G1 X81.132 Y57.287 E62.36432
G1 X78.35 Y57.808 E62.64673
G1 F3000 E54.64673
G0 F6000 X78.386 Y58.386
G0 X80.106 Y57.968
G0 X80.597 Y60.595
G0 X80.582 Y60.517
G0 X78.03 Y47.13
G0 X78.016 Y47.052
G0 X78.554 Y49.663
G0 X78.537 Y49.584
G0 X78.655 Y50.155
G1 F3000 E62.64673
G1 F1200 X81.245 Y49.378 E62.91654
G1 X83.659 Y48.166 E63.18607
G1 X85.825 Y46.552 E63.4556
G1 X87.679 Y44.587 E63.72516
G1 X89.164 Y42.329 E63.99482
G1 X90.234 Y39.849 E64.26433
G1 X90.855 Y37.22 E64.53387
G1 X91.012 Y34.524 E64.80333
G1 X90.697 Y31.817 E65.07526
G1 X89.924 Y29.249 E65.34285
G1 X88.7 Y26.817 E65.61452
G1 X87.097 Y24.671 E65.88179
G1 X85.132 Y22.818 E66.15129
G1 X82.875 Y21.334 E66.42081
G1 X80.394 Y20.266 E66.69033
G1 X77.766 Y19.642 E66.95984
G1 X75.071 Y19.485 E67.22921
G1 X72.388 Y19.797 E67.49872
G1 X69.798 Y20.574 E67.76853
G1 X67.386 Y21.786 E68.03788
G1 X65.217 Y23.398 E68.30753
G1 X63.363 Y25.365 E68.57724
G1 X61.879 Y27.623 E68.84685
G1 X60.811 Y30.102 E69.11618
G1 X60.187 Y32.732 E69.38589
G1 X60.031 Y35.426 E69.65515
G1 X60.342 Y38.109 E69.92465
G1 X61.119 Y40.699 E70.19446
G1 X62.332 Y43.113 E70.46403
G1 X63.945 Y45.28 E70.73358
G1 X65.911 Y47.134 E71.00322
G1 X68.168 Y48.618 E71.27274
G1 X70.647 Y49.686 E71.54207
G1 X73.276 Y50.31 E71.81168
G1 X75.972 Y50.467 E72.08115
G1 X78.655 Y50.155 E72.35066
G1 F3000 E64.35066
G0 F6000 X78.537 Y49.584
G0 X75.959 Y49.966
G0 X75.881 Y47.302
G0 X75.825 Y47.371
G0 X66.281 Y59.36
G0 X66.229 Y59.426
G0 X67.039 Y56.876
G0 X64.217 Y55.665
G0 X64.732 Y54.832
G1 F3000 E72.35066
G1 F1200 X55.743 Y45.843 E73.61911
G0 F6000 X54.895 Y46.331
G0 X53.592 Y43.559
G0 X54.493 Y43.18
G1 F1200 X67.371 Y56.058 E75.43633
G0 F6000 X67.073 Y56.991
G0 X69.151 Y57.653
G0 X69.448 Y56.72
G1 F1200 X53.798 Y41.07 E77.64472
G0 F6000 X52.856 Y41.337
G0 X52.377 Y39.349
G0 X53.343 Y39.201
G1 F1200 X71.278 Y57.136 E80.17554
G0 F6000 X71.098 Y58.099
G0 X72.919 Y58.401
G0 X72.98 Y57.424
G1 F1200 X53.083 Y37.527 E82.98322
G0 F6000 X52.117 Y37.675
G0 X52.002 Y36.04
G0 X52.98 Y36.01
G1 F1200 X74.486 Y57.516 E86.01795
G0 F6000 X74.425 Y58.494
G0 X75.997 Y58.533
G0 X75.938 Y57.553
G1 F1200 X66.163 Y47.778 E87.39731
G0 F6000 X66.701 Y46.96
G0 X69.758 Y48.673
G0 X69.371 Y49.572
G1 F1200 X77.271 Y57.472 E88.51208
G0 F6000 X77.33 Y58.451
G0 X78.751 Y58.323
G0 X78.572 Y57.359
G1 F1200 X71.517 Y50.304 E89.50762
G0 F6000 X71.743 Y49.351
G0 X73.398 Y49.737
G0 X73.342 Y50.715
G1 F1200 X79.763 Y57.136 E90.41369
G0 F6000 X79.942 Y58.1
G0 X81.134 Y57.877
G0 X80.954 Y56.912
G1 F1200 X74.844 Y50.802 E91.27588
G0 F6000 X74.901 Y49.825
G0 X76.176 Y49.859
G0 X76.289 Y50.833
G1 F1200 X82.034 Y56.579 E92.08663
G0 F6000 X82.33 Y57.514
G0 X83.404 Y57.172
G0 X83.106 Y56.236
G1 F1200 X77.556 Y50.686 E92.8698
G0 F6000 X77.444 Y49.711
G0 X78.538 Y49.585
G0 X78.81 Y50.526
G1 F1200 X84.131 Y55.847 E93.62065
G0 F6000 X84.54 Y56.739
G0 X85.509 Y56.293
G0 X85.101 Y55.402
G1 F1200 X79.898 Y50.199 E94.35485
G0 F6000 X79.617 Y49.261
G0 X80.707 Y48.935
G0 X80.986 Y49.873
G1 F1200 X86.07 Y54.957 E95.07225
G0 F6000 X86.478 Y55.848
G0 X87.473 Y55.265
G0 X86.958 Y54.431
G1 F1200 X81.982 Y49.455 E95.77442
G0 F6000 X81.544 Y48.58
G0 X82.485 Y48.107
G0 X82.923 Y48.982
G1 F1200 X87.831 Y53.89 E96.46699
G0 F6000 X88.346 Y54.724
G0 X89.305 Y54.1
G0 X88.691 Y53.336
G1 F1200 X83.864 Y48.509 E97.14813
G0 F6000 X83.354 Y47.671
G0 X84.092 Y47.121
G0 X84.676 Y47.906
G1 F1200 X89.475 Y52.705 E97.82532
G0 F6000 X90.089 Y53.469
G0 X90.872 Y52.839
G0 X90.257 Y52.074
G1 F1200 X85.487 Y47.303 E98.49849
G0 F6000 X84.903 Y46.516
G0 X85.554 Y45.995
G0 X86.264 Y46.666
G1 F1200 X91.009 Y51.411 E99.16806
G0 F6000 X91.706 Y50.694
G1 F1200 X86.951 Y45.939 E99.83905
G0 F6000 X86.241 Y45.268
G0 X86.928 Y44.54
G0 X87.638 Y45.211
G1 F1200 X92.403 Y49.976 E100.51144
G0 F6000 X93.105 Y50.659
G0 X93.828 Y49.799
G0 X93.048 Y49.208
G1 F1200 X88.263 Y44.423 E101.18665
G0 F6000 X87.447 Y43.887
G0 X88.009 Y43.033
G0 X88.825 Y43.57
G1 F1200 X93.657 Y48.402 E101.8685
G0 F6000 X94.437 Y48.993
G0 X95.045 Y48.186
G0 X94.265 Y47.596
G1 F1200 X89.386 Y42.717 E102.55698
G0 F6000 X88.57 Y42.179
G0 X88.946 Y41.374
G0 X89.844 Y41.761
G1 F1200 X94.797 Y46.714 E103.2559
G0 F6000 X95.644 Y47.203
G0 X96.162 Y46.305
G0 X95.314 Y45.816
G1 F1200 X90.27 Y40.773 E103.9676
G0 F6000 X89.372 Y40.385
G0 X89.714 Y39.528
G0 X90.667 Y39.755
G1 F1200 X95.817 Y44.906 E104.69439
G0 F6000 X96.719 Y45.288
G0 X97.14 Y44.294
G0 X96.238 Y43.912
G1 F1200 X90.936 Y38.61 E105.44256
G0 F6000 X89.984 Y38.384
G0 X90.255 Y37.24
G0 X91.206 Y37.466
G1 F1200 X96.658 Y42.918 E106.21189
G0 F6000 X97.561 Y43.3
G0 X97.96 Y42.132
G0 X97.017 Y41.862
G1 F1200 X91.316 Y36.162 E107.01629
G0 F6000 X90.34 Y36.105
G0 X90.418 Y34.768
G0 X91.394 Y34.825
G1 F1200 X97.331 Y40.762 E107.85407
G0 F6000 X98.273 Y41.031
G0 X98.596 Y39.797
G0 X97.628 Y39.646
G1 F1200 X91.27 Y33.287 E108.75132
G0 F6000 X90.297 Y33.4
G0 X90.127 Y31.935
G0 X91.07 Y31.673
G1 F1200 X97.819 Y38.422 E109.70368
G0 F6000 X98.786 Y38.573
G0 X98.976 Y37.349
G0 X98.009 Y37.198
G1 F1200 X90.461 Y29.65 E110.76878
G0 F6000 X89.524 Y29.93
G0 X88.378 Y27.466
G0 X89.253 Y27.028
G1 F1200 X98.065 Y35.84 E112.01225
G0 F6000 X99.044 Y35.871
G0 X99.086 Y34.497
G0 X98.106 Y34.467
G1 F1200 X76.053 Y12.413 E115.12424
G0 F6000 X76.053 Y11.434
G0 X74.639 Y11.434
G0 X74.639 Y12.413
G1 F1200 X83.476 Y21.251 E116.37131
G0 F6000 X82.938 Y22.068
G0 X80.441 Y20.916
G0 X80.829 Y20.018
G1 F1200 X73.324 Y12.512 E117.43041
G0 F6000 X73.204 Y11.541
G0 X71.945 Y11.697
G0 X72.066 Y12.669
G1 F1200 X78.896 Y19.499 E118.3942
G0 F6000 X78.669 Y20.452
G0 X77.133 Y20.185
G0 X77.19 Y19.207
G1 F1200 X70.866 Y12.883 E119.28658
G0 F6000 X70.629 Y11.932
G0 X69.498 Y12.216
G0 X69.736 Y13.168
G1 F1200 X75.688 Y19.12 E120.12648
G0 F6000 X75.631 Y20.098
G0 X74.435 Y20.143
G0 X74.322 Y19.168
G1 F1200 X68.611 Y13.457 E120.93236
G0 F6000 X68.258 Y12.543
G0 X67.237 Y12.938
G0 X67.591 Y13.851
G1 F1200 X73.056 Y19.316 E121.70353
G0 F6000 X73.168 Y20.291
G0 X72.144 Y20.476
G0 X71.862 Y19.536
G1 F1200 X66.571 Y14.245 E122.45015
G0 F6000 X66.218 Y13.333
G0 X65.141 Y13.829
G0 X65.603 Y14.692
G1 F1200 X70.774 Y19.862 E123.17976
G0 F6000 X71.055 Y20.802
G0 X70.012 Y21.113
G0 X69.686 Y20.189
G1 F1200 X64.684 Y15.186 E123.88567
G0 F6000 X64.221 Y14.324
G0 X63.3 Y14.818
G0 X63.764 Y15.681
G1 F1200 X68.739 Y20.656 E124.58769
G0 F6000 X69.178 Y21.533
G0 X68.237 Y22.006
G0 X67.798 Y21.129
G1 F1200 X62.921 Y16.252 E125.27589
G0 F6000 X62.357 Y15.453
G0 X61.528 Y16.039
G0 X62.093 Y16.838
G1 F1200 X66.902 Y21.647 E125.95449
G0 F6000 X67.486 Y22.433
G0 X66.675 Y23.037
G0 X66.09 Y22.249
G1 F1200 X61.275 Y17.434 E126.63394
G0 F6000 X60.617 Y16.71
G0 X59.876 Y17.385
G0 X60.534 Y18.108
G1 F1200 X65.278 Y22.852 E127.30337
G0 F6000 X65.864 Y23.641
G0 X65.255 Y24.203
G0 X64.542 Y23.53
G1 F1200 X59.795 Y18.782 E127.9733
G0 F6000 X59.136 Y18.059
G0 X58.34 Y18.847
G0 X59.081 Y19.483
G1 F1200 X63.856 Y24.258 E128.6471
G0 F6000 X64.569 Y24.931
G0 X63.881 Y25.66
G0 X63.17 Y24.987
G1 F1200 X58.429 Y20.245 E129.31618
G0 F6000 X57.688 Y19.609
G0 X57.035 Y20.372
G0 X57.777 Y21.008
G1 F1200 X62.587 Y25.817 E129.99485
G0 F6000 X63.405 Y26.355
G0 X62.844 Y27.209
G0 X62.025 Y26.67
G1 F1200 X57.173 Y21.818 E130.67952
G0 F6000 X56.359 Y21.277
G0 X55.795 Y22.129
G0 X56.61 Y22.669
G1 F1200 X61.479 Y27.538 E131.36659
G0 F6000 X62.378 Y27.925
G0 X61.953 Y28.914
G0 X61.053 Y28.526
G1 F1200 X56.046 Y23.519 E132.07313
G0 F6000 X55.231 Y22.979
G0 X54.684 Y24.009
G0 X55.559 Y24.446
G1 F1200 X60.628 Y29.516 E132.78849
G0 F6000 X61.526 Y29.904
G0 X61.238 Y30.812
G0 X60.285 Y30.586
G1 F1200 X55.089 Y25.39 E133.5217
G0 F6000 X54.213 Y24.954
G0 X53.714 Y26.027
G0 X54.637 Y26.353
G1 F1200 X60.013 Y31.729 E134.28031
G0 F6000 X60.967 Y31.955
G0 X60.754 Y32.961
G0 X59.775 Y32.905
G1 F1200 X54.269 Y27.398 E135.05734
G0 F6000 X53.346 Y27.073
G0 X52.977 Y28.12
G0 X53.901 Y28.445
G1 F1200 X59.698 Y34.242 E135.87536
G0 F6000 X60.676 Y34.298
G0 X60.623 Y35.493
G0 X59.647 Y35.606
G1 F1200 X53.608 Y29.566 E136.7276
G0 F6000 X52.653 Y29.356
G0 X52.399 Y30.518
G0 X53.354 Y30.727
G1 F1200 X59.833 Y37.205 E137.64178
G0 F6000 X60.809 Y37.092
G0 X61.121 Y38.687
G0 X60.181 Y38.968
G1 F1200 X53.146 Y31.932 E138.63457
