;FLAVOR:Marlin
;TIME:567
;Filament used: 0.149559m
;Layer height: 0.2
;MINX:94.528
;MINY:94.526
;MINZ:0.2
;MAXX:125.488
;MAXY:125.474
;MAXZ:10
;Generated with Cura_SteamEngine 4.3.0
M140 S60
M105
M190 S60
M104 S200
M105
M109 S200
M82 ;absolute extrusion mode
M201 X500.00 Y500.00 Z100.00 E5000.00 ;Setup machine max acceleration
M203 X500.00 Y500.00 Z10.00 E50.00 ;Setup machine max feedrate
M204 P500.00 R1000.00 T500.00 ;Setup Print/Retract/Travel acceleration
M205 X8.00 Y8.00 Z0.40 E5.00 ;Setup Jerk
M220 S100 ;Reset Feedrate
M221 S100 ;Reset Flowrate

G28 ;Home

G92 E0 ;Reset Extruder
G1 Z2.0 F3000 ;Move Z Axis up
G1 X10.1 Y20 Z0.28 F5000.0 ;Move to start position
G1 X10.1 Y200.0 Z0.28 F1500.0 E15 ;Draw the first line
G1 X10.4 Y200.0 Z0.28 F5000.0 ;Move to side a little
G1 X10.4 Y20 Z0.28 F1500.0 E30 ;Draw the second line
G92 E0 ;Reset Extruder
G1 Z2.0 F3000 ;Move Z Axis up

G92 E0
G92 E0
G1 F2700 E-5
;LAYER_COUNT:50
;LAYER:0
M107
G1 F300 Z0.4
G0 F6000 X98.863 Y99.256 Z0.4
;TYPE:SKIRT
G1 F300 Z0.2
G1 F2700 E0
G1 F1200 X99.244 Y98.881 E0.01778
G1 X99.467 Y98.668 E0.02804
G1 X99.74 Y98.414 E0.04044
G1 X100.453 Y97.805 E0.07163
G1 X101.256 Y97.232 E0.10444
G1 X101.735 Y96.922 E0.12341
G1 X102.038 Y96.734 E0.13527
G1 X102.317 Y96.566 E0.14611
G1 X103.14 Y96.116 E0.1773
G1 X103.948 Y95.759 E0.20668
G1 X104.449 Y95.561 E0.2246
G1 X104.803 Y95.428 E0.23718
G1 X105.157 Y95.302 E0.24968
G1 X106.054 Y95.025 E0.2809
G1 X106.955 Y94.829 E0.31157
G1 X107.511 Y94.732 E0.33034
G1 X107.896 Y94.672 E0.3433
G1 X108.236 Y94.625 E0.35472
G1 X109.169 Y94.536 E0.38589
G1 X110.068 Y94.526 E0.41579
G1 X110.608 Y94.542 E0.43376
G1 X110.976 Y94.559 E0.44601
G1 X111.34 Y94.582 E0.45815
G1 X112.272 Y94.681 E0.48932
G1 X113.192 Y94.859 E0.52048
G1 X113.751 Y94.992 E0.5396
G1 X114.064 Y95.071 E0.55033
G1 X114.391 Y95.159 E0.5616
G1 X115.285 Y95.441 E0.59277
G1 X116.207 Y95.824 E0.62598
G1 X116.699 Y96.055 E0.64406
G1 X116.992 Y96.198 E0.6549
G1 X117.316 Y96.362 E0.66698
G1 X118.134 Y96.82 E0.69816
G1 X118.901 Y97.341 E0.729
G1 X119.323 Y97.654 E0.74648
G1 X119.588 Y97.857 E0.75758
G1 X119.883 Y98.09 E0.77008
G1 X120.594 Y98.702 E0.80128
G1 X121.284 Y99.412 E0.83421
G1 X121.686 Y99.864 E0.85433
G1 X121.914 Y100.128 E0.86593
G1 X122.105 Y100.357 E0.87585
G1 X122.675 Y101.103 E0.90708
G1 X123.144 Y101.834 E0.93597
G1 X123.427 Y102.316 E0.95456
G1 X123.626 Y102.67 E0.96806
G1 X123.794 Y102.982 E0.97985
G1 X124.203 Y103.826 E1.01104
G1 X124.539 Y104.701 E1.04222
G1 X124.717 Y105.232 E1.06084
G1 X124.816 Y105.544 E1.07173
G1 X124.917 Y105.878 E1.08334
G1 X125.15 Y106.787 E1.11455
G1 X125.309 Y107.747 E1.14691
G1 X125.381 Y108.345 E1.16695
G1 X125.418 Y108.695 E1.17865
G1 X125.446 Y109.013 E1.18927
G1 X125.488 Y109.95 E1.22047
G1 X125.452 Y110.871 E1.25112
G1 X125.413 Y111.35 E1.26711
G1 X125.38 Y111.683 E1.27824
G1 X125.334 Y112.093 E1.29196
G1 X125.19 Y113.02 E1.32316
G1 X124.962 Y113.952 E1.35507
G1 X124.794 Y114.527 E1.375
G1 X124.688 Y114.867 E1.38684
G1 X124.592 Y115.16 E1.3971
G1 X124.262 Y116.038 E1.42829
G1 X123.849 Y116.904 E1.46021
G1 X123.586 Y117.398 E1.47882
G1 X123.441 Y117.661 E1.48881
G1 X123.261 Y117.978 E1.50093
G1 X122.764 Y118.773 E1.53212
G1 X122.164 Y119.567 E1.56522
G1 X121.839 Y119.959 E1.58215
G1 X121.624 Y120.21 E1.59315
G1 X121.372 Y120.496 E1.60582
G1 X120.723 Y121.173 E1.63702
G1 X120.026 Y121.785 E1.66787
G1 X119.56 Y122.161 E1.68778
G1 X119.27 Y122.388 E1.70003
G1 X119.015 Y122.58 E1.71065
G1 X118.242 Y123.111 E1.74184
G1 X117.425 Y123.576 E1.77311
G1 X116.917 Y123.837 E1.7921
G1 X116.595 Y123.996 E1.80405
G1 X116.297 Y124.137 E1.81501
G1 X115.433 Y124.502 E1.84621
G1 X114.552 Y124.788 E1.87701
G1 X113.983 Y124.947 E1.89666
G1 X113.683 Y125.027 E1.90699
G1 X113.374 Y125.104 E1.91758
G1 X112.455 Y125.291 E1.94877
G1 X111.457 Y125.405 E1.98218
G1 X110.896 Y125.443 E2.00089
G1 X110.584 Y125.46 E2.01128
G1 X110.227 Y125.474 E2.02316
G1 X109.289 Y125.47 E2.05436
G1 X108.352 Y125.387 E2.08565
G1 X107.846 Y125.32 E2.10262
G1 X107.491 Y125.267 E2.11456
G1 X107.111 Y125.204 E2.12737
G1 X106.193 Y125.011 E2.15857
G1 X105.289 Y124.739 E2.18997
G1 X104.721 Y124.541 E2.20998
G1 X104.398 Y124.423 E2.22142
G1 X104.109 Y124.312 E2.23171
G1 X103.249 Y123.938 E2.2629
G1 X102.402 Y123.481 E2.29491
G1 X101.911 Y123.187 E2.31395
G1 X101.637 Y123.017 E2.32467
G1 X101.357 Y122.838 E2.33573
G1 X100.589 Y122.3 E2.36691
G1 X99.857 Y121.686 E2.39869
G1 X99.446 Y121.31 E2.41722
G1 X99.183 Y121.062 E2.42924
G1 X98.921 Y120.806 E2.44143
G1 X98.279 Y120.122 E2.47263
G1 X97.698 Y119.388 E2.50376
G1 X97.394 Y118.968 E2.52101
G1 X97.217 Y118.716 E2.53125
G1 X97.009 Y118.411 E2.54353
G1 X96.514 Y117.614 E2.57473
G1 X96.066 Y116.726 E2.60781
G1 X95.81 Y116.157 E2.62857
G1 X95.676 Y115.849 E2.63974
G1 X95.561 Y115.571 E2.64974
G1 X95.24 Y114.69 E2.68093
G1 X94.996 Y113.79 E2.71195
G1 X94.886 Y113.303 E2.72855
G1 X94.813 Y112.949 E2.74057
G1 X94.735 Y112.542 E2.75436
G1 X94.598 Y111.615 E2.78552
G1 X94.54 Y110.676 E2.81681
G1 X94.53 Y110.138 E2.83471
G1 X94.528 Y109.84 E2.84462
G1 X94.531 Y109.488 E2.85633
G1 X94.579 Y108.552 E2.8875
G1 X94.716 Y107.573 E2.92038
G1 X94.823 Y106.997 E2.93987
G1 X94.894 Y106.648 E2.95171
G1 X94.964 Y106.329 E2.96258
G1 X95.204 Y105.423 E2.99375
G1 X95.51 Y104.564 E3.02408
G1 X95.717 Y104.052 E3.04245
G1 X95.868 Y103.696 E3.05531
G1 X96.008 Y103.382 E3.06674
G1 X96.426 Y102.542 E3.09795
G1 X96.913 Y101.743 E3.12907
G1 X97.267 Y101.214 E3.15024
G1 X97.484 Y100.903 E3.16285
G1 X97.654 Y100.667 E3.17253
G1 X98.234 Y99.93 E3.20372
G1 X98.863 Y99.256 E3.23438
G0 F6000 X99.143 Y99.541
G1 F1200 X99.524 Y99.166 E3.25217
G1 X99.74 Y98.96 E3.26209
G1 X100.013 Y98.706 E3.2745
G1 X100.713 Y98.109 E3.30509
G1 X101.474 Y97.568 E3.33615
G1 X101.953 Y97.258 E3.35513
G1 X102.244 Y97.076 E3.36654
G1 X102.523 Y96.908 E3.37737
G1 X103.332 Y96.468 E3.408
G1 X104.095 Y96.131 E3.43575
G1 X104.596 Y95.933 E3.45366
G1 X104.938 Y95.805 E3.46581
G1 X105.292 Y95.679 E3.47831
G1 X106.171 Y95.408 E3.5089
G1 X107.024 Y95.223 E3.53793
G1 X107.58 Y95.126 E3.5567
G1 X107.951 Y95.068 E3.56919
G1 X108.291 Y95.021 E3.58061
G1 X109.207 Y94.935 E3.61121
G1 X110.056 Y94.926 E3.63945
G1 X110.596 Y94.942 E3.65742
G1 X110.95 Y94.958 E3.6692
G1 X111.314 Y94.981 E3.68133
G1 X112.23 Y95.079 E3.71197
G1 X113.1 Y95.248 E3.74145
G1 X113.659 Y95.381 E3.76056
G1 X113.96 Y95.457 E3.77089
G1 X114.287 Y95.545 E3.78215
G1 X115.164 Y95.823 E3.81275
G1 X116.037 Y96.186 E3.8442
G1 X116.529 Y96.417 E3.86227
G1 X116.811 Y96.555 E3.87272
G1 X117.135 Y96.719 E3.8848
G1 X117.938 Y97.17 E3.91543
G1 X118.663 Y97.662 E3.94457
G1 X119.085 Y97.975 E3.96204
G1 X119.34 Y98.171 E3.97274
G1 X119.635 Y98.404 E3.98524
G1 X120.332 Y99.005 E4.01585
G1 X120.986 Y99.678 E4.04707
G1 X121.388 Y100.13 E4.06719
G1 X121.607 Y100.385 E4.07837
G1 X121.798 Y100.614 E4.08828
G1 X122.357 Y101.346 E4.11892
G1 X122.799 Y102.036 E4.14617
G1 X123.082 Y102.518 E4.16476
G1 X123.274 Y102.86 E4.17781
G1 X123.442 Y103.172 E4.18959
G1 X123.843 Y104 E4.22019
G1 X124.159 Y104.828 E4.24967
G1 X124.337 Y105.359 E4.2683
G1 X124.433 Y105.66 E4.2788
G1 X124.534 Y105.994 E4.29041
G1 X124.762 Y106.886 E4.32103
G1 X124.912 Y107.795 E4.35167
G1 X124.984 Y108.393 E4.37171
G1 X125.019 Y108.73 E4.38298
G1 X125.047 Y109.048 E4.39359
G1 X125.088 Y109.968 E4.42422
G1 X125.053 Y110.838 E4.45318
G1 X125.014 Y111.317 E4.46917
G1 X124.983 Y111.639 E4.47993
G1 X124.937 Y112.049 E4.49365
G1 X124.795 Y112.958 E4.52425
G1 X124.578 Y113.84 E4.55446
G1 X124.41 Y114.415 E4.57438
G1 X124.308 Y114.742 E4.58578
G1 X124.212 Y115.035 E4.59603
G1 X123.888 Y115.897 E4.62666
G1 X123.496 Y116.716 E4.65686
G1 X123.233 Y117.21 E4.67547
G1 X123.094 Y117.463 E4.68507
G1 X122.914 Y117.78 E4.6972
G1 X122.425 Y118.56 E4.72782
G1 X121.856 Y119.311 E4.75916
G1 X121.531 Y119.703 E4.77609
G1 X121.324 Y119.946 E4.78671
G1 X121.072 Y120.232 E4.79939
G1 X120.434 Y120.895 E4.82999
G1 X119.775 Y121.474 E4.85917
G1 X119.309 Y121.85 E4.87908
G1 X119.029 Y122.068 E4.89089
G1 X118.774 Y122.26 E4.9015
G1 X118.015 Y122.781 E4.93212
G1 X117.242 Y123.22 E4.96169
G1 X116.734 Y123.481 E4.98069
G1 X116.424 Y123.635 E4.9922
G1 X116.126 Y123.776 E5.00316
G1 X115.277 Y124.133 E5.0338
G1 X114.445 Y124.403 E5.06289
G1 X113.876 Y124.562 E5.08254
G1 X113.586 Y124.638 E5.09251
G1 X113.277 Y124.715 E5.1031
G1 X112.375 Y124.899 E5.13372
G1 X111.43 Y125.006 E5.16535
G1 X110.869 Y125.044 E5.18405
G1 X110.568 Y125.06 E5.19408
G1 X110.211 Y125.074 E5.20596
G1 X109.291 Y125.07 E5.23656
G1 X108.405 Y124.99 E5.26615
G1 X107.899 Y124.923 E5.28313
G1 X107.556 Y124.872 E5.29466
G1 X107.176 Y124.809 E5.30747
G1 X106.275 Y124.619 E5.3381
G1 X105.421 Y124.361 E5.36777
G1 X104.853 Y124.163 E5.38778
G1 X104.541 Y124.049 E5.39882
G1 X104.252 Y123.938 E5.40912
G1 X103.408 Y123.571 E5.43973
G1 X102.608 Y123.137 E5.47
G1 X102.117 Y122.843 E5.48904
G1 X101.853 Y122.68 E5.49936
G1 X101.573 Y122.501 E5.51041
G1 X100.819 Y121.972 E5.54105
G1 X100.127 Y121.391 E5.5711
G1 X99.716 Y121.015 E5.58963
G1 X99.463 Y120.776 E5.6012
G1 X99.201 Y120.52 E5.61338
G1 X98.571 Y119.848 E5.64402
G1 X98.022 Y119.153 E5.67348
G1 X97.718 Y118.733 E5.69072
G1 X97.548 Y118.49 E5.70059
G1 X97.34 Y118.185 E5.71287
G1 X96.854 Y117.403 E5.74349
G1 X96.43 Y116.562 E5.77482
G1 X96.174 Y115.993 E5.79557
G1 X96.046 Y115.696 E5.80632
G1 X95.931 Y115.418 E5.81633
G1 X95.616 Y114.553 E5.84695
G1 X95.386 Y113.701 E5.8763
G1 X95.276 Y113.214 E5.89291
G1 X95.205 Y112.874 E5.90446
G1 X95.127 Y112.467 E5.91824
G1 X94.994 Y111.556 E5.94886
G1 X94.94 Y110.669 E5.97842
G1 X94.93 Y110.131 E5.99632
G1 X94.928 Y109.844 E6.00586
G1 X94.931 Y109.492 E6.01757
G1 X94.979 Y108.572 E6.04821
G1 X95.109 Y107.646 E6.07931
G1 X95.216 Y107.07 E6.0988
G1 X95.284 Y106.734 E6.1102
G1 X95.354 Y106.415 E6.12106
G1 X95.591 Y105.525 E6.1517
G1 X95.881 Y104.714 E6.18034
G1 X96.088 Y104.202 E6.19871
G1 X96.234 Y103.858 E6.21114
G1 X96.374 Y103.544 E6.22257
G1 X96.785 Y102.721 E6.25317
G1 X97.246 Y101.966 E6.28259
G1 X97.6 Y101.437 E6.30376
G1 X97.808 Y101.136 E6.31593
G1 X97.978 Y100.9 E6.32561
G1 X98.548 Y100.178 E6.3562
G1 X99.143 Y99.541 E6.38519
G0 F6000 X99.424 Y99.826
G1 F1200 X99.805 Y99.451 E6.40297
G1 X100.012 Y99.253 E6.4125
G1 X100.285 Y98.999 E6.4249
G1 X100.973 Y98.414 E6.45494
G1 X101.691 Y97.904 E6.48423
G1 X102.17 Y97.594 E6.50321
G1 X102.45 Y97.419 E6.51419
G1 X102.729 Y97.251 E6.52502
G1 X103.523 Y96.82 E6.55507
G1 X104.242 Y96.503 E6.58121
G1 X104.743 Y96.305 E6.59913
G1 X105.072 Y96.182 E6.61081
G1 X105.426 Y96.056 E6.62331
G1 X106.289 Y95.791 E6.65333
G1 X107.093 Y95.617 E6.68069
G1 X107.649 Y95.52 E6.69946
G1 X108.005 Y95.464 E6.71145
G1 X108.345 Y95.417 E6.72287
G1 X109.244 Y95.333 E6.7529
G1 X110.044 Y95.325 E6.77951
G1 X110.584 Y95.341 E6.79747
G1 X110.925 Y95.357 E6.80883
G1 X111.289 Y95.38 E6.82096
G1 X112.187 Y95.477 E6.851
G1 X113.007 Y95.637 E6.87879
G1 X113.566 Y95.77 E6.8979
G1 X113.856 Y95.843 E6.90785
G1 X114.183 Y95.931 E6.91911
G1 X115.043 Y96.204 E6.94912
G1 X115.867 Y96.548 E6.97882
G1 X116.359 Y96.779 E6.9969
G1 X116.63 Y96.911 E7.00692
G1 X116.954 Y97.075 E7.019
G1 X117.741 Y97.519 E7.04905
G1 X118.424 Y97.984 E7.07654
G1 X118.846 Y98.297 E7.09401
G1 X119.092 Y98.485 E7.10431
G1 X119.387 Y98.718 E7.11681
G1 X120.07 Y99.308 E7.14683
G1 X120.687 Y99.943 E7.17628
G1 X121.089 Y100.395 E7.1964
G1 X121.3 Y100.641 E7.20718
G1 X121.491 Y100.87 E7.2171
G1 X122.038 Y101.588 E7.24712
G1 X122.454 Y102.239 E7.27281
G1 X122.737 Y102.721 E7.2914
G1 X122.922 Y103.049 E7.30393
G1 X123.09 Y103.361 E7.31571
G1 X123.482 Y104.175 E7.34576
G1 X123.78 Y104.955 E7.37354
G1 X123.958 Y105.486 E7.39216
G1 X124.05 Y105.776 E7.40228
G1 X124.151 Y106.11 E7.41389
G1 X124.374 Y106.985 E7.44392
G1 X124.515 Y107.843 E7.47284
G1 X124.587 Y108.441 E7.49287
G1 X124.621 Y108.765 E7.50371
G1 X124.649 Y109.083 E7.51433
G1 X124.688 Y109.986 E7.54439
G1 X124.654 Y110.806 E7.57169
G1 X124.615 Y111.285 E7.58767
G1 X124.585 Y111.594 E7.598
G1 X124.539 Y112.004 E7.61172
G1 X124.399 Y112.896 E7.64175
G1 X124.194 Y113.728 E7.67025
G1 X124.026 Y114.303 E7.69017
G1 X123.928 Y114.618 E7.70115
G1 X123.832 Y114.911 E7.7114
G1 X123.513 Y115.756 E7.74144
G1 X123.143 Y116.528 E7.76991
G1 X122.88 Y117.022 E7.78853
G1 X122.746 Y117.265 E7.79776
G1 X122.566 Y117.582 E7.80988
G1 X122.086 Y118.347 E7.83992
G1 X121.548 Y119.056 E7.86952
G1 X121.223 Y119.448 E7.88646
G1 X121.024 Y119.681 E7.89665
G1 X120.772 Y119.967 E7.90933
G1 X120.146 Y120.618 E7.93937
G1 X119.524 Y121.162 E7.96685
G1 X119.058 Y121.538 E7.98677
G1 X118.788 Y121.748 E7.99814
G1 X118.533 Y121.94 E8.00876
G1 X117.789 Y122.451 E8.03878
G1 X117.059 Y122.865 E8.06669
G1 X116.551 Y123.126 E8.08569
G1 X116.252 Y123.273 E8.09677
G1 X115.954 Y123.414 E8.10773
G1 X115.122 Y123.764 E8.13776
G1 X114.337 Y124.018 E8.1652
G1 X113.768 Y124.177 E8.18485
G1 X113.489 Y124.25 E8.19444
G1 X113.18 Y124.327 E8.20503
G1 X112.295 Y124.507 E8.23507
G1 X111.403 Y124.607 E8.26492
G1 X110.842 Y124.645 E8.28363
G1 X110.553 Y124.66 E8.29325
G1 X110.196 Y124.674 E8.30513
G1 X109.293 Y124.67 E8.33517
G1 X108.457 Y124.594 E8.36309
G1 X107.951 Y124.527 E8.38006
G1 X107.622 Y124.478 E8.39113
G1 X107.242 Y124.415 E8.40394
G1 X106.358 Y124.228 E8.43399
G1 X105.553 Y123.984 E8.46197
G1 X104.985 Y123.786 E8.48198
G1 X104.685 Y123.676 E8.4926
G1 X104.396 Y123.565 E8.5029
G1 X103.568 Y123.204 E8.53294
G1 X102.813 Y122.794 E8.56152
G1 X102.322 Y122.5 E8.58055
G1 X102.068 Y122.343 E8.59048
G1 X101.788 Y122.164 E8.60154
G1 X101.049 Y121.644 E8.63159
G1 X100.397 Y121.096 E8.65992
G1 X99.986 Y120.72 E8.67845
G1 X99.743 Y120.49 E8.68958
G1 X99.481 Y120.234 E8.70176
G1 X98.863 Y119.574 E8.73183
G1 X98.346 Y118.919 E8.75959
G1 X98.042 Y118.499 E8.77683
G1 X97.878 Y118.265 E8.78633
G1 X97.67 Y117.96 E8.79861
G1 X97.195 Y117.192 E8.82865
G1 X96.795 Y116.398 E8.85822
G1 X96.539 Y115.829 E8.87897
G1 X96.416 Y115.543 E8.88933
G1 X96.301 Y115.265 E8.89933
G1 X95.993 Y114.416 E8.92937
G1 X95.777 Y113.613 E8.95703
G1 X95.667 Y113.126 E8.97363
G1 X95.598 Y112.799 E8.98475
G1 X95.52 Y112.392 E8.99853
G1 X95.39 Y111.498 E9.02858
G1 X95.34 Y110.662 E9.05643
G1 X95.33 Y110.124 E9.07433
G1 X95.328 Y109.847 E9.08354
G1 X95.331 Y109.495 E9.09525
G1 X95.379 Y108.593 E9.1253
G1 X95.503 Y107.719 E9.15466
G1 X95.61 Y107.143 E9.17414
G1 X95.675 Y106.82 E9.1851
G1 X95.745 Y106.501 E9.19596
G1 X95.977 Y105.628 E9.22601
G1 X96.252 Y104.864 E9.25301
G1 X96.459 Y104.352 E9.27138
G1 X96.599 Y104.021 E9.28333
G1 X96.739 Y103.707 E9.29477
G1 X97.143 Y102.9 E9.32479
G1 X97.578 Y102.188 E9.35254
G1 X97.932 Y101.659 E9.37371
G1 X98.133 Y101.37 E9.38542
G1 X98.303 Y101.134 E9.39509
G1 X98.862 Y100.426 E9.42509
G1 X99.424 Y99.826 E9.45244
G1 F2700 E4.45244
G1 F300 Z0.4
;MESH:coupling.stl
G0 F6000 X112.79 Y107.299 Z0.4
;TYPE:WALL-INNER
G1 F300 Z0.2
G1 F2700 E9.45244
G1 F1200 X112.657 Y107.196 E9.45803
G1 X112.035 Y106.713 E9.48422
G1 X112.019 Y106.701 E9.48489
G1 X111.329 Y106.377 E9.51024
G1 X111.261 Y106.345 E9.51274
G1 X110.576 Y106.189 E9.53611
G1 X110.444 Y106.158 E9.54062
G1 X109.792 Y106.155 E9.5623
G1 X109.606 Y106.153 E9.56849
G1 X109.024 Y106.277 E9.58828
G1 X108.787 Y106.328 E9.59635
G1 X108.298 Y106.55 E9.61421
G1 X108.024 Y106.675 E9.62423
G1 X107.648 Y106.958 E9.63988
G1 X107.305 Y107.216 E9.65415
G1 X107.617 Y106.918 E9.6551
G1 X108.019 Y106.668 E9.65629
G1 X108.277 Y106.507 E9.65705
G1 X108.784 Y106.318 E9.65841
G1 X109.014 Y106.231 E9.65906
G1 X109.604 Y106.14 E9.66057
G1 X109.792 Y106.111 E9.66111
G1 X110.446 Y106.141 E9.66281
G1 X110.585 Y106.148 E9.66322
G1 X111.267 Y106.323 E9.6651
G1 X111.345 Y106.343 E9.66539
G1 X112.031 Y106.678 E9.66738
G1 X112.054 Y106.689 E9.66752
G1 X112.677 Y107.168 E9.66957
G1 X112.79 Y107.299 E9.66992
G0 F6000 X112.85 Y107.369
G1 F1200 X113.189 Y107.763 E9.68721
G1 X113.245 Y107.863 E9.69102
G1 X113.578 Y108.459 E9.71373
G1 X113.816 Y109.212 E9.74
G1 X113.896 Y109.993 E9.76611
G1 X113.819 Y110.775 E9.79224
G1 X113.584 Y111.528 E9.81848
G1 X113.246 Y112.142 E9.84179
G1 X113.204 Y112.218 E9.84468
G1 X112.959 Y112.505 E9.85723
