;FLAVOR:Marlin
;TIME:6031
;Filament used: 15.5658m
;Layer height: 0.4
;MINX:8.713
;MINY:9.869
;MINZ:0.3
;MAXX:210.299
;MAXY:206.321
;MAXZ:14.7
;Generated with Cura_SteamEngine 4.3.0
M140 S60
M105
M190 S60
M104 S210
M105
M109 S210
M82 ;absolute extrusion mode
M201 X500.00 Y500.00 Z100.00 E5000.00 ;Setup machine max acceleration
M203 X500.00 Y500.00 Z10.00 E50.00 ;Setup machine max feedrate
M204 P500.00 R1000.00 T500.00 ;Setup Print/Retract/Travel acceleration
M205 X8.00 Y8.00 Z0.40 E5.00 ;Setup Jerk
M220 S100 ;Reset Feedrate
M221 S100 ;Reset Flowrate

G28 ;Home

G92 E0 ;Reset Extruder
G1 Z2.0 F3000 ;Move Z Axis up
G1 X10.1 Y20 Z0.28 F5000.0 ;Move to start position
G1 X10.1 Y200.0 Z0.28 F1500.0 E15 ;Draw the first line
G1 X10.4 Y200.0 Z0.28 F5000.0 ;Move to side a little
G1 X10.4 Y20 Z0.28 F1500.0 E30 ;Draw the second line
G92 E0 ;Reset Extruder
G1 Z2.0 F3000 ;Move Z Axis up

G92 E0
G92 E0
G1 F3000 E-8
;LAYER_COUNT:37
;LAYER:0
M107
;MESH:Visera_sin_agujero.stl
G0 F6000 X59.345 Y69.595 Z0.3
;TYPE:WALL-OUTER
G1 F3000 E0
G1 F1200 X60.059 Y70.311 E0.10089
G1 X60.166 Y70.399 E0.11472
G1 X60.297 Y70.466 E0.1294
G1 X60.434 Y70.51 E0.14376
G1 X60.586 Y70.53 E0.15905
G1 X60.747 Y70.519 E0.17516
G1 X60.905 Y70.475 E0.19152
G1 X61.045 Y70.401 E0.20732
G1 X61.148 Y70.321 E0.22034
G1 X62.337 Y69.115 E0.38932
G1 X63.339 Y68.139 E0.52889
G1 X64.38 Y67.162 E0.67134
G1 X65.691 Y65.984 E0.84721
G1 X66.811 Y65.019 E0.99472
G1 X67.97 Y64.058 E1.14495
G1 X69.148 Y63.122 E1.29508
G1 X70.366 Y62.189 E1.44817
G1 X71.615 Y61.272 E1.60278
G1 X72.535 Y60.619 E1.71535
G1 X73.837 Y59.728 E1.87277
G1 X75.155 Y58.862 E2.03013
G1 X76.521 Y58.007 E2.19092
G1 X77.902 Y57.178 E2.35164
G1 X78.886 Y56.608 E2.46511
G1 X80.309 Y55.816 E2.62761
G1 X80.584 Y55.669 E2.65872
G1 X82.594 Y54.619 E2.885
G1 X84.894 Y53.503 E3.14008
G1 X87.236 Y52.451 E3.39626
G1 X89.603 Y51.473 E3.65181
G1 X92.002 Y50.567 E3.90768
G1 X92.603 Y50.359 E3.97114
G1 X94.403 Y49.742 E4.161
G1 X96.842 Y48.985 E4.41582
G1 X99.404 Y48.271 E4.6812
G1 X99.532 Y48.206 E4.69552
G1 X99.65 Y48.123 E4.70992
G1 X99.744 Y48.038 E4.72256
G1 X99.834 Y47.928 E4.73674
G1 X99.903 Y47.821 E4.74945
G1 X99.959 Y47.69 E4.76366
G1 X99.999 Y47.569 E4.77638
G1 X100.018 Y47.421 E4.79127
G1 X100.022 Y47.303 E4.80305
G1 X100.004 Y47.15 E4.81842
G1 X99.972 Y47.03 E4.83081
G1 X99.917 Y46.895 E4.84536
G1 X99.852 Y46.785 E4.85811
G1 X99.764 Y46.672 E4.8724
G1 X99.671 Y46.582 E4.88531
G1 X99.554 Y46.498 E4.89968
G1 X99.445 Y46.437 E4.91215
G1 X99.306 Y46.385 E4.92695
G1 X99.185 Y46.357 E4.93935
G1 X99.045 Y46.345 E4.95337
G1 X96.868 Y46.38 E5.17062
G1 X94.549 Y46.432 E5.40207
G1 X91.744 Y46.522 E5.68209
G1 X88.864 Y46.65 E5.96974
G1 X87.026 Y46.753 E6.15343
G1 X85.921 Y46.821 E6.26389
G1 X84.057 Y46.955 E6.45037
G1 X81.048 Y47.209 E6.75167
G1 X78.004 Y47.525 E7.05704
G1 X74.939 Y47.91 E7.36527
G1 X71.865 Y48.367 E7.67536
G1 X69.05 Y48.859 E7.9605
G1 X66.248 Y49.422 E8.24567
G1 X63.468 Y50.062 E8.53032
G1 X62.085 Y50.411 E8.67264
G1 X60.711 Y50.781 E8.81462
G1 X59.346 Y51.173 E8.95633
G1 X57.993 Y51.584 E9.09742
G1 X56.648 Y52.019 E9.23847
G1 X55.316 Y52.475 E9.37895
G1 X53.996 Y52.954 E9.51907
G1 X52.69 Y53.456 E9.65868
G1 X51.399 Y53.982 E9.79777
G1 X50.121 Y54.534 E9.93668
G1 X48.634 Y55.216 E10.09991
G1 X47.146 Y55.945 E10.26525
G1 X47.024 Y56.024 E10.27975
G1 X46.893 Y56.157 E10.29838
G1 X46.799 Y56.318 E10.31698
G1 X46.742 Y56.491 E10.33516
G1 X46.726 Y56.68 E10.35408
G1 X46.756 Y56.872 E10.37347
G1 X46.831 Y57.046 E10.39238
G1 X46.923 Y57.173 E10.40803
G1 X47.521 Y57.775 E10.49269
G1 X49.598 Y56.759 E10.7234
G1 X51.394 Y55.948 E10.92003
G1 X53.201 Y55.196 E11.11533
G1 X55.034 Y54.493 E11.31121
G1 X56.879 Y53.841 E11.50646
G1 X58.771 Y53.229 E11.70488
G1 X60.674 Y52.662 E11.90301
G1 X62.588 Y52.141 E12.10094
G1 X64.527 Y51.658 E12.30033
G1 X66.491 Y51.212 E12.50128
G1 X68.459 Y50.805 E12.70181
G1 X70.432 Y50.436 E12.90209
G1 X72.435 Y50.099 E13.10476
G1 X74.433 Y49.796 E13.3064
G1 X76.457 Y49.525 E13.51016
G1 X78.458 Y49.285 E13.71125
G1 X78.696 Y49.268 E13.73505
G1 X78.914 Y49.272 E13.75681
G1 X79.12 Y49.293 E13.77747
G1 X79.336 Y49.335 E13.79943
G1 X79.547 Y49.395 E13.82132
G1 X79.742 Y49.469 E13.84213
G1 X79.934 Y49.563 E13.86346
G1 X80.123 Y49.675 E13.88538
G1 X80.306 Y49.805 E13.90778
G1 X80.464 Y49.94 E13.92851
G1 X80.613 Y50.093 E13.94982
G1 X80.749 Y50.258 E13.97116
G1 X80.875 Y50.44 E13.99325
G1 X80.98 Y50.625 E14.01447
G1 X81.07 Y50.821 E14.03599
G1 X81.145 Y51.031 E14.05824
G1 X81.198 Y51.23 E14.07879
G1 X81.236 Y51.451 E14.10117
G1 X81.254 Y51.655 E14.1216
G1 X81.254 Y51.878 E14.14385
G1 X81.236 Y52.086 E14.16468
G1 X81.198 Y52.307 E14.18706
G1 X81.145 Y52.507 E14.2077
G1 X81.07 Y52.716 E14.22986
G1 X80.983 Y52.904 E14.25053
G1 X80.874 Y53.096 E14.27256
G1 X80.748 Y53.278 E14.29465
G1 X80.612 Y53.443 E14.31598
G1 X80.458 Y53.599 E14.33785
G1 X80.307 Y53.728 E14.35767
G1 X80.118 Y53.863 E14.38085
G1 X79.931 Y53.974 E14.40254
G1 X78.306 Y54.866 E14.58751
G1 X76.741 Y55.77 E14.76785
G1 X75.243 Y56.677 E14.94258
G1 X73.808 Y57.586 E15.11207
G1 X72.438 Y58.495 E15.27613
G1 X71.131 Y59.4 E15.43475
G1 X69.885 Y60.297 E15.58794
G1 X68.701 Y61.184 E15.73556
G1 X67.578 Y62.058 E15.87755
G1 X66.516 Y62.916 E16.01378
G1 X65.511 Y63.755 E16.14441
G1 X64.566 Y64.572 E16.26905
G1 X63.678 Y65.363 E16.38771
G1 X62.846 Y66.127 E16.50042
G1 X62.071 Y66.86 E16.60686
G1 X61.35 Y67.56 E16.70713
G1 X60.507 Y68.401 E16.82595
G1 X59.345 Y69.595 E16.99219
G1 F3000 E8.99219
G0 F6000 X59.098 Y69.84
G0 X60.325 Y70.99
G0 X55.634 Y76.868
G0 X53.531 Y79.79
G0 X51.577 Y82.815
G0 X49.783 Y85.91
G0 X48.137 Y89.101
G0 X46.65 Y92.356
G0 X45.32 Y95.678
G0 X43.71 Y100.474
G0 X42.683 Y104.229
G0 X41.904 Y107.736
G0 X41.281 Y111.284
G0 X40.816 Y114.871
G0 X40.509 Y118.495
G0 X40.359 Y122.15
G0 X40.402 Y126.913
G0 X40.643 Y130.973
G0 X41.028 Y134.579
G0 X41.575 Y138.155
G0 X42.273 Y141.674
G0 X43.132 Y145.159
G0 X44.149 Y148.604
G0 X45.32 Y151.975
G0 X46.65 Y155.296
G0 X48.137 Y158.551
G0 X49.783 Y161.743
G0 X51.577 Y164.837
G0 X53.531 Y167.862
G0 X55.634 Y170.784
G0 X57.877 Y173.599
G0 X60.644 Y176.819
G0 X60.127 Y176.946
G0 X59.661 Y177.33
G0 X59.435 Y177.703
G0 X59.375 Y178.129
G0 X59.481 Y178.534
G0 X59.596 Y178.729
G0 X62.65 Y181.739
G0 X65.989 Y184.665
G0 X68.522 Y186.696
G0 X72.273 Y189.395
G0 X80.631 Y194.713
G0 X80.866 Y196.545
G0 X79.628 Y197.917
G0 X76.524 Y197.855
G0 X62.62 Y195.238
G0 X51.635 Y191.494
G0 X47.906 Y189.782
G0 X47.401 Y189.791
G0 X46.968 Y190.025
G0 X46.61 Y190.414
G0 X46.442 Y190.874
G0 X46.443 Y191.269
G0 X46.895 Y191.507
G0 X55.471 Y194.744
G0 X59.474 Y196.036
G0 X63.58 Y197.144
G0 X69.13 Y198.34
G0 X75.006 Y199.286
G0 X81.093 Y199.983
G0 X82.782 Y200.112
G0 X99.304 Y201.268
G0 X99.534 Y201.168
G1 F3000 E16.99219
G1 F1200 X99.652 Y201.085 E17.00659
G1 X99.747 Y200.999 E17.01937
G1 X99.835 Y200.889 E17.03343
G1 X99.906 Y200.781 E17.04633
G1 X99.963 Y200.644 E17.06113
G1 X99.999 Y200.525 E17.07354
G1 X100.018 Y200.382 E17.08793
G1 X100.022 Y200.264 E17.09971
G1 X100.004 Y200.107 E17.11548
G1 X99.968 Y199.984 E17.12827
G1 X99.915 Y199.856 E17.14209
G1 X99.851 Y199.745 E17.15488
G1 X99.759 Y199.631 E17.16949
G1 X99.667 Y199.542 E17.18226
G1 X99.55 Y199.459 E17.19658
G1 X99.443 Y199.4 E17.20877
G1 X99.314 Y199.352 E17.2225
G1 X96.839 Y198.666 E17.47877
G1 X94.404 Y197.911 E17.73315
G1 X92.008 Y197.088 E17.98593
G1 X89.603 Y196.179 E18.24247
G1 X87.243 Y195.204 E18.49726
G1 X84.901 Y194.154 E18.75336
G1 X82.58 Y193.026 E19.01085
G1 X82.305 Y192.885 E19.04168
G1 X80.305 Y191.835 E19.26708
G1 X78.879 Y191.041 E19.42993
G1 X77.481 Y190.227 E19.59135
G1 X76.521 Y189.646 E19.70331
G1 X75.156 Y188.79 E19.86408
G1 X73.83 Y187.919 E20.02238
G1 X72.536 Y187.034 E20.1788
G1 X71.273 Y186.134 E20.33355
G1 X70.051 Y185.226 E20.48546
G1 X68.844 Y184.293 E20.63768
G1 X67.685 Y183.36 E20.78614
G1 X66.543 Y182.406 E20.93462
G1 X65.442 Y181.45 E21.08011
G1 X64.381 Y180.491 E21.22281
G1 X63.14 Y179.321 E21.393
G1 X62.338 Y178.539 E21.50476
G1 X61.085 Y177.274 E21.68243
G1 X60.897 Y177.177 E21.70353
G1 X60.729 Y177.13 E21.72094
G1 X60.563 Y177.122 E21.73752
G1 X60.398 Y177.148 E21.75419
G1 X60.252 Y177.206 E21.76987
G1 X60.116 Y177.289 E21.78576
G1 X59.878 Y177.522 E21.819
G1 X59.785 Y177.645 E21.83438
G1 X59.709 Y177.798 E21.85143
G1 X59.673 Y177.956 E21.8676
G1 X59.665 Y178.111 E21.88308
G1 X59.69 Y178.269 E21.89905
G1 X59.742 Y178.407 E21.91376
G1 X59.828 Y178.552 E21.93058
G1 X60.796 Y179.541 E22.06867
G1 X61.351 Y180.094 E22.14684
G1 X62.071 Y180.792 E22.2469
G1 X62.846 Y181.525 E22.35334
G1 X63.677 Y182.289 E22.46598
G1 X64.566 Y183.081 E22.58478
G1 X65.511 Y183.897 E22.70936
G1 X66.516 Y184.736 E22.83999
G1 X67.578 Y185.595 E22.97628
G1 X68.701 Y186.468 E23.11821
G1 X69.885 Y187.356 E23.26588
G1 X71.131 Y188.253 E23.41908
G1 X72.438 Y189.157 E23.57764
G1 X73.808 Y190.066 E23.7417
G1 X75.243 Y190.975 E23.91119
G1 X76.741 Y191.883 E24.08598
G1 X78.306 Y192.786 E24.26626
G1 X79.931 Y193.678 E24.45123
G1 X80.116 Y193.788 E24.4727
G1 X80.303 Y193.921 E24.4956
G1 X80.461 Y194.056 E24.51634
G1 X80.614 Y194.212 E24.53814
G1 X80.748 Y194.373 E24.55904
G1 X80.874 Y194.556 E24.58121
G1 X80.98 Y194.742 E24.60257
G1 X81.072 Y194.941 E24.62445
G1 X81.141 Y195.133 E24.64481
G1 X81.2 Y195.358 E24.66802
G1 X81.236 Y195.559 E24.68839
G1 X81.254 Y195.773 E24.70982
G1 X81.255 Y195.992 E24.73167
G1 X81.236 Y196.202 E24.75271
G1 X81.198 Y196.426 E24.77538
G1 X81.147 Y196.618 E24.7952
G1 X81.071 Y196.83 E24.81767
G1 X80.983 Y197.024 E24.83893
G1 X80.876 Y197.212 E24.86051
G1 X80.75 Y197.394 E24.8826
G1 X80.619 Y197.553 E24.90316
G1 X80.46 Y197.716 E24.92588
G1 X80.307 Y197.846 E24.94591
G1 X80.128 Y197.975 E24.96793
G1 X79.941 Y198.086 E24.98963
G1 X79.741 Y198.182 E25.01176
G1 X79.544 Y198.258 E25.03283
G1 X79.336 Y198.317 E25.0544
G1 X79.12 Y198.359 E25.07636
G1 X78.915 Y198.38 E25.09692
G1 X78.695 Y198.384 E25.11888
G1 X78.458 Y198.368 E25.14258
G1 X76.457 Y198.129 E25.34366
G1 X74.433 Y197.855 E25.54746
G1 X72.435 Y197.554 E25.74907
G1 X70.432 Y197.216 E25.95175
G1 X68.459 Y196.848 E26.15201
G1 X66.491 Y196.441 E26.35254
G1 X64.527 Y195.994 E26.55352
G1 X62.588 Y195.512 E26.75288
G1 X60.7 Y194.998 E26.94812
G1 X58.823 Y194.441 E27.14348
G1 X56.964 Y193.839 E27.33846
G1 X55.124 Y193.192 E27.53307
G1 X53.326 Y192.506 E27.72509
G1 X51.529 Y191.763 E27.91912
G1 X49.782 Y190.98 E28.11014
G1 X48.003 Y190.118 E28.30739
G1 X47.847 Y190.067 E28.32377
G1 X47.68 Y190.047 E28.34055
G1 X47.474 Y190.073 E28.36127
G1 X47.304 Y190.141 E28.37954
G1 X47.156 Y190.246 E28.39765
G1 X46.941 Y190.459 E28.42784
G1 X46.854 Y190.571 E28.442
G1 X46.774 Y190.729 E28.45967
G1 X46.732 Y190.908 E28.47801
G1 X46.729 Y191.098 E28.49697
G1 X46.776 Y191.29 E28.5167
G1 X46.867 Y191.459 E28.53585
G1 X46.989 Y191.598 E28.5543
G1 X47.119 Y191.692 E28.57031
G1 X48.632 Y192.436 E28.73854
G1 X50.122 Y193.119 E28.90209
G1 X51.398 Y193.669 E29.04073
G1 X52.689 Y194.195 E29.17983
G1 X53.995 Y194.698 E29.31948
G1 X55.315 Y195.178 E29.45962
G1 X56.647 Y195.632 E29.60004
G1 X57.991 Y196.067 E29.74099
G1 X59.346 Y196.479 E29.88231
G1 X60.71 Y196.871 E30.02392
G1 X62.084 Y197.24 E30.16587
G1 X63.467 Y197.591 E30.30825
G1 X66.247 Y198.23 E30.59287
G1 X69.05 Y198.793 E30.87814
G1 X71.865 Y199.286 E31.1633
G1 X74.937 Y199.742 E31.47318
G1 X75.675 Y199.837 E31.54743
G1 X78.003 Y200.126 E31.7815
G1 X78.744 Y200.205 E31.85585
G1 X81.046 Y200.442 E32.08676
G1 X81.79 Y200.508 E32.16129
G1 X84.057 Y200.699 E32.38829
G1 X85.921 Y200.83 E32.57474
G1 X87.025 Y200.899 E32.68512
G1 X88.862 Y201.001 E32.86869
G1 X89.937 Y201.053 E32.97608
G1 X91.743 Y201.13 E33.15645
G1 X94.549 Y201.22 E33.43658
G1 X95.549 Y201.245 E33.53639
G1 X97.733 Y201.289 E33.75436
G1 X99.027 Y201.308 E33.88348
G1 X99.163 Y201.3 E33.89708
G1 X99.286 Y201.273 E33.90964
G1 X99.421 Y201.226 E33.92391
G1 X99.534 Y201.168 E33.93658
G1 F3000 E25.93658
G0 F6000 X99.304 Y201.268
G0 X99.458 Y201.4
G0 X99.445 Y202.983
G0 X112.006 Y203.473
G1 F3000 E33.93658
G1 F1200 X118.931 Y203.474 E34.62756
G1 X118.931 Y201.673 E34.80726
G1 X101.947 Y201.684 E36.50194
G1 X98.987 Y201.658 E36.7973
G1 X95.817 Y201.602 E37.11365
G1 X94.719 Y201.575 E37.22324
G1 X92.639 Y201.512 E37.43088
G1 X90.493 Y201.429 E37.64517
G1 X88.68 Y201.344 E37.82627
G1 X86.828 Y201.239 E38.01136
G1 X84.945 Y201.115 E38.19965
G1 X83.03 Y200.969 E38.39129
G1 X81.103 Y200.801 E38.58429
G1 X79.145 Y200.604 E38.78065
G1 X77.177 Y200.382 E38.97826
G1 X75.206 Y200.131 E39.17652
G1 X72.531 Y199.743 E39.44622
G1 X69.871 Y199.299 E39.71531
G1 X67.05 Y198.757 E40.00194
G1 X64.266 Y198.144 E40.28638
G1 X62.871 Y197.804 E40.42965
G1 X61.497 Y197.448 E40.57128
G1 X60.125 Y197.069 E40.7133
G1 X58.753 Y196.667 E40.85596
G1 X57.408 Y196.248 E40.99652
G1 X56.057 Y195.802 E41.13848
G1 X54.735 Y195.339 E41.27825
G1 X53.41 Y194.848 E41.41924
G1 X52.106 Y194.337 E41.55899
G1 X50.821 Y193.803 E41.69784
G1 X49.55 Y193.245 E41.83634
G1 X48.307 Y192.668 E41.97308
G1 X47.118 Y192.086 E42.10517
G1 X45.965 Y191.49 E42.23468
G1 X44.81 Y190.864 E42.36576
G1 X43.695 Y190.226 E42.49394
G1 X42.069 Y189.241 E42.68364
G1 X40.497 Y188.217 E42.87083
G1 X38.975 Y187.157 E43.0559
G1 X37.468 Y186.032 E43.24355
G1 X36.014 Y184.872 E43.42914
G1 X34.614 Y183.679 E43.61267
G1 X33.243 Y182.429 E43.7978
G1 X31.905 Y181.125 E43.98422
G1 X30.886 Y180.069 E44.13065
G1 X29.925 Y179.021 E44.27252
G1 X28.825 Y177.753 E44.44002
G1 X27.761 Y176.452 E44.60772
G1 X26.742 Y175.13 E44.77427
G1 X25.741 Y173.751 E44.94429
G1 X24.784 Y172.353 E45.11334
G1 X23.862 Y170.924 E45.28303
G1 X22.975 Y169.464 E45.45349
G1 X22.124 Y167.976 E45.62453
G1 X21.307 Y166.459 E45.79645
G1 X20.532 Y164.925 E45.96794
G1 X19.78 Y163.342 E46.14281
G1 X19.068 Y161.745 E46.31728
G1 X18.395 Y160.134 E46.49148
G1 X17.749 Y158.477 E46.66894
G1 X17.142 Y156.808 E46.84615
G1 X16.57 Y155.116 E47.02436
G1 X16.163 Y153.833 E47.15867
G1 X15.775 Y152.538 E47.29356
G1 X15.349 Y151.021 E47.45078
G1 X14.945 Y149.473 E47.61041
G1 X14.569 Y147.921 E47.76975
G1 X14.218 Y146.356 E47.92979
G1 X13.893 Y144.776 E48.09074
G1 X13.592 Y143.184 E48.25241
G1 X13.318 Y141.58 E48.41477
G1 X13.068 Y139.963 E48.57803
G1 X12.843 Y138.335 E48.74202
G1 X12.643 Y136.695 E48.90687
G1 X12.468 Y135.044 E49.07253
G1 X12.319 Y133.383 E49.23893
G1 X12.194 Y131.712 E49.40613
G1 X12.092 Y130.03 E49.57427
G1 X12.016 Y128.346 E49.74247
G1 X11.964 Y126.638 E49.91298
G1 X11.938 Y124.767 E50.09968
G1 X11.93 Y123.83 E50.19318
G1 X11.938 Y122.883 E50.28768
G1 X11.964 Y121.014 E50.47418
G1 X12.017 Y119.313 E50.64399
G1 X12.093 Y117.614 E50.81369
G1 X12.194 Y115.94 E50.98103
G1 X12.319 Y114.269 E51.14822
G1 X12.468 Y112.608 E51.31463
G1 X12.643 Y110.958 E51.48019
G1 X12.843 Y109.317 E51.64514
G1 X13.068 Y107.689 E51.80912
G1 X13.318 Y106.072 E51.97239
G1 X13.592 Y104.469 E52.13465
G1 X13.893 Y102.876 E52.29642
G1 X14.218 Y101.297 E52.45727
G1 X14.569 Y99.731 E52.61741
G1 X14.945 Y98.179 E52.77674
G1 X15.35 Y96.632 E52.93631
G1 X15.775 Y95.115 E53.0935
G1 X16.163 Y93.819 E53.22849
G1 X16.57 Y92.536 E53.36279
G1 X17.142 Y90.845 E53.54091
G1 X17.749 Y89.175 E53.71821
G1 X18.396 Y87.518 E53.89571
G1 X19.067 Y85.907 E54.06984
G1 X19.78 Y84.31 E54.24435
G1 X20.532 Y82.728 E54.41913
G1 X21.307 Y81.194 E54.59061
G1 X22.124 Y79.676 E54.76263
G1 X22.975 Y78.188 E54.93367
G1 X23.862 Y76.729 E55.10404
G1 X24.784 Y75.299 E55.27381
G1 X25.741 Y73.901 E55.44286
G1 X26.742 Y72.523 E55.6128
G1 X27.761 Y71.2 E55.77943
G1 X28.825 Y69.899 E55.94713
G1 X29.925 Y68.631 E56.11462
G1 X30.886 Y67.583 E56.2565
G1 X31.905 Y66.527 E56.40293
G1 X33.244 Y65.222 E56.58949
G1 X34.614 Y63.973 E56.77447
G1 X36.014 Y62.78 E56.95801
G1 X37.468 Y61.62 E57.1436
G1 X38.975 Y60.496 E57.33119
G1 X40.497 Y59.435 E57.51631
G1 X42.069 Y58.412 E57.70346
G1 X43.695 Y57.426 E57.8932
G1 X44.811 Y56.788 E58.02147
G1 X45.966 Y56.161 E58.1526
G1 X47.118 Y55.567 E58.28193
G1 X48.307 Y54.985 E58.41402
G1 X49.55 Y54.408 E58.55075
G1 X50.821 Y53.85 E58.68926
G1 X52.116 Y53.312 E58.82918
G1 X53.41 Y52.804 E58.96789
G1 X54.735 Y52.313 E59.10889
