;FLAVOR:Marlin
;TIME:2950
;Filament used: 7.78145m
;Layer height: 0.4
;MINX:39.271
;MINY:27.505
;MINZ:0.3
;MAXX:180.728
;MAXY:192.495
;MAXZ:14.7
;Generated with Cura_SteamEngine 4.3.0
M140 S60
M105
M190 S60
M104 S210
M105
M109 S210
M82 ;absolute extrusion mode
M201 X500.00 Y500.00 Z100.00 E5000.00 ;Setup machine max acceleration
M203 X500.00 Y500.00 Z10.00 E50.00 ;Setup machine max feedrate
M204 P500.00 R1000.00 T500.00 ;Setup Print/Retract/Travel acceleration
M205 X8.00 Y8.00 Z0.40 E5.00 ;Setup Jerk
M220 S100 ;Reset Feedrate
M221 S100 ;Reset Flowrate

G28 ;Home

G92 E0 ;Reset Extruder
G1 Z2.0 F3000 ;Move Z Axis up
G1 X10.1 Y20 Z0.28 F5000.0 ;Move to start position
G1 X10.1 Y200.0 Z0.28 F1500.0 E15 ;Draw the first line
G1 X10.4 Y200.0 Z0.28 F5000.0 ;Move to side a little
G1 X10.4 Y20 Z0.28 F1500.0 E30 ;Draw the second line
G92 E0 ;Reset Extruder
G1 Z2.0 F3000 ;Move Z Axis up

G92 E0
G92 E0
G1 F3000 E-8
;LAYER_COUNT:37
;LAYER:0
M107
;MESH:Visera_sin_agujero.stl
G0 F6000 X89.903 Y55.769 Z0.3
;TYPE:WALL-OUTER
G1 F3000 E0
G1 F1200 X90.618 Y56.486 E0.10104
G1 X90.718 Y56.568 E0.11394
G1 X90.894 Y56.658 E0.13366
G1 X91.062 Y56.696 E0.15085
G1 X91.221 Y56.704 E0.16674
G1 X91.39 Y56.675 E0.18384
G1 X91.54 Y56.612 E0.20008
G1 X91.673 Y56.525 E0.21594
G1 X92.895 Y55.289 E0.38936
G1 X93.897 Y54.313 E0.52893
G1 X94.938 Y53.336 E0.67139
G1 X96.249 Y52.158 E0.84725
G1 X97.369 Y51.193 E0.99476
G1 X98.528 Y50.232 E1.14499
G1 X99.705 Y49.295 E1.2951
G1 X100.924 Y48.363 E1.44821
G1 X101.832 Y47.692 E1.56087
G1 X102.174 Y47.446 E1.6029
G1 X103.1 Y46.788 E1.71625
G1 X104.395 Y45.902 E1.87282
G1 X105.713 Y45.036 E2.03018
G1 X107.071 Y44.186 E2.19003
G1 X108.467 Y43.347 E2.35255
G1 X109.436 Y42.786 E2.46427
G1 X110.865 Y41.99 E2.62748
G1 X111.142 Y41.843 E2.65877
G1 X113.152 Y40.793 E2.88505
G1 X115.452 Y39.677 E3.14013
G1 X117.794 Y38.625 E3.39631
G1 X120.161 Y37.647 E3.65186
G1 X122.56 Y36.741 E3.90773
G1 X123.161 Y36.533 E3.97119
G1 X124.961 Y35.916 E4.16105
G1 X127.4 Y35.159 E4.41587
G1 X129.962 Y34.445 E4.68125
G1 X130.09 Y34.38 E4.69557
G1 X130.208 Y34.297 E4.70997
G1 X130.302 Y34.212 E4.72261
G1 X130.393 Y34.1 E4.73701
G1 X130.461 Y33.993 E4.74966
G1 X130.517 Y33.865 E4.7636
G1 X130.557 Y33.743 E4.77641
G1 X130.576 Y33.595 E4.7913
G1 X130.58 Y33.477 E4.80308
G1 X130.562 Y33.324 E4.81846
G1 X130.53 Y33.205 E4.83075
G1 X130.475 Y33.067 E4.84557
G1 X130.407 Y32.955 E4.85865
G1 X130.321 Y32.847 E4.87242
G1 X130.232 Y32.758 E4.88498
G1 X130.112 Y32.672 E4.89971
G1 X130.003 Y32.611 E4.91218
G1 X129.868 Y32.561 E4.92654
G1 X129.744 Y32.53 E4.9393
G1 X129.6 Y32.519 E4.95371
G1 X127.426 Y32.553 E5.17065
G1 X125.107 Y32.605 E5.4021
G1 X122.301 Y32.696 E5.68223
G1 X120.496 Y32.773 E5.8625
G1 X119.421 Y32.824 E5.96989
G1 X117.584 Y32.927 E6.15347
G1 X116.479 Y32.995 E6.26394
G1 X114.615 Y33.129 E6.45041
G1 X111.606 Y33.383 E6.75171
G1 X108.562 Y33.699 E7.05708
G1 X105.496 Y34.084 E7.36541
G1 X102.423 Y34.541 E7.67541
G1 X99.608 Y35.033 E7.96054
G1 X96.806 Y35.596 E8.24572
G1 X94.026 Y36.236 E8.53036
G1 X92.643 Y36.585 E8.67268
G1 X91.269 Y36.955 E8.81467
G1 X89.904 Y37.347 E8.95637
G1 X88.551 Y37.758 E9.09747
G1 X87.206 Y38.193 E9.23852
G1 X85.874 Y38.648 E9.37896
G1 X84.554 Y39.128 E9.51911
G1 X83.248 Y39.63 E9.65872
G1 X81.957 Y40.156 E9.79782
G1 X80.679 Y40.708 E9.93672
G1 X79.192 Y41.39 E10.09996
G1 X77.704 Y42.119 E10.26529
G1 X77.582 Y42.198 E10.2798
G1 X77.455 Y42.328 E10.29793
G1 X77.355 Y42.49 E10.31693
G1 X77.299 Y42.67 E10.33573
G1 X77.284 Y42.854 E10.35416
G1 X77.314 Y43.047 E10.37364
G1 X77.389 Y43.218 E10.39228
G1 X77.48 Y43.346 E10.40795
G1 X78.079 Y43.947 E10.49261
G1 X80.156 Y42.932 E10.72328
G1 X81.952 Y42.122 E10.91987
G1 X83.759 Y41.37 E11.11516
G1 X85.592 Y40.667 E11.31105
G1 X87.437 Y40.015 E11.5063
G1 X89.329 Y39.403 E11.70472
G1 X91.232 Y38.836 E11.90285
G1 X93.146 Y38.315 E12.10078
G1 X95.085 Y37.832 E12.30016
G1 X97.049 Y37.385 E12.50114
G1 X99.017 Y36.979 E12.70165
G1 X100.99 Y36.61 E12.90193
G1 X102.993 Y36.273 E13.10459
G1 X104.991 Y35.97 E13.30624
G1 X107.014 Y35.698 E13.50991
G1 X109.016 Y35.458 E13.7111
G1 X109.252 Y35.442 E13.7347
G1 X109.472 Y35.446 E13.75666
G1 X109.678 Y35.467 E13.77732
G1 X109.894 Y35.509 E13.79927
G1 X110.105 Y35.569 E13.82116
G1 X110.296 Y35.642 E13.84156
G1 X110.498 Y35.739 E13.86392
G1 X110.683 Y35.849 E13.8854
G1 X110.862 Y35.977 E13.90736
G1 X111.022 Y36.114 E13.92837
G1 X111.171 Y36.267 E13.94968
G1 X111.307 Y36.432 E13.97102
G1 X111.433 Y36.614 E13.99311
G1 X111.541 Y36.804 E14.01491
G1 X111.627 Y36.992 E14.03554
G1 X111.701 Y37.198 E14.05738
G1 X111.757 Y37.406 E14.07888
G1 X111.794 Y37.625 E14.10104
G1 X111.812 Y37.829 E14.12147
G1 X111.812 Y38.052 E14.14372
G1 X111.794 Y38.259 E14.16446
G1 X111.756 Y38.481 E14.18693
G1 X111.703 Y38.681 E14.20757
G1 X111.628 Y38.89 E14.22973
G1 X111.536 Y39.087 E14.25142
G1 X111.431 Y39.271 E14.27256
G1 X111.31 Y39.447 E14.29387
G1 X111.17 Y39.617 E14.31585
G1 X111.016 Y39.773 E14.33772
G1 X110.865 Y39.902 E14.35754
G1 X110.676 Y40.037 E14.38071
G1 X110.489 Y40.148 E14.40241
G1 X108.864 Y41.04 E14.58738
G1 X107.299 Y41.944 E14.76771
G1 X105.801 Y42.851 E14.94245
G1 X104.366 Y43.76 E15.11194
G1 X102.996 Y44.669 E15.27599
G1 X101.688 Y45.573 E15.43464
G1 X100.443 Y46.47 E15.58776
G1 X99.259 Y47.358 E15.73543
G1 X98.136 Y48.232 E15.87742
G1 X97.074 Y49.09 E16.01365
G1 X96.069 Y49.929 E16.14428
G1 X95.124 Y50.745 E16.26886
G1 X94.235 Y51.537 E16.38766
G1 X93.404 Y52.301 E16.5003
G1 X92.629 Y53.034 E16.60674
G1 X91.908 Y53.734 E16.70701
G1 X91.065 Y54.575 E16.82582
G1 X89.903 Y55.769 E16.99206
G1 F3000 E8.99206
G0 F6000 X89.656 Y56.014
G0 X90.886 Y57.159
G0 X86.192 Y63.042
G0 X84.089 Y65.964
G0 X82.135 Y68.989
G0 X80.337 Y72.092
G0 X78.695 Y75.275
G0 X77.208 Y78.53
G0 X75.878 Y81.85
G0 X74.707 Y85.224
G0 X73.69 Y88.667
G0 X72.831 Y92.152
G0 X72.133 Y95.671
G0 X71.586 Y99.247
G0 X71.201 Y102.853
G0 X70.971 Y106.913
G0 X70.917 Y111.676
G0 X71.067 Y115.331
G0 X71.374 Y118.955
G0 X71.839 Y122.542
G0 X72.462 Y126.09
G0 X73.241 Y129.597
G0 X74.177 Y133.057
G0 X75.272 Y136.467
G0 X76.524 Y139.818
G0 X77.932 Y143.107
G0 X79.497 Y146.327
G0 X81.217 Y149.471
G0 X83.091 Y152.53
G0 X85.116 Y155.501
G0 X87.293 Y158.374
G0 X89.614 Y161.145
G0 X91.361 Y163.016
G0 X90.782 Y163.075
G0 X90.453 Y163.272
G0 X90.026 Y163.799
G0 X89.943 Y164.402
G0 X90.094 Y164.814
G0 X93.208 Y167.913
G0 X96.888 Y171.131
G0 X100.275 Y173.765
G0 X104.212 Y176.485
G0 X111.184 Y180.878
G0 X111.424 Y182.718
G0 X110.188 Y184.09
G0 X107.081 Y184.029
G0 X93.178 Y181.411
G0 X82.192 Y177.668
G0 X78.474 Y175.959
G0 X77.958 Y175.966
G0 X77.526 Y176.2
G0 X77.168 Y176.588
G0 X77 Y177.048
G0 X77.001 Y177.443
G0 X77.453 Y177.681
G0 X86.029 Y180.918
G0 X90.032 Y182.21
G0 X94.13 Y183.315
G0 X96.907 Y183.955
G0 X100.073 Y184.549
G0 X112.348 Y186.682
G1 F3000 E16.99206
G1 F1200 X114.615 Y186.872 E17.21906
G1 X116.479 Y187.004 E17.40552
G1 X117.583 Y187.073 E17.51589
G1 X119.42 Y187.175 E17.69947
G1 X120.495 Y187.227 E17.80686
G1 X122.3 Y187.304 E17.98712
G1 X125.107 Y187.394 E18.26735
G1 X126.107 Y187.419 E18.36716
G1 X128.291 Y187.463 E18.58513
G1 X129.585 Y187.482 E18.71426
G1 X129.721 Y187.474 E18.72785
G1 X129.844 Y187.447 E18.74042
G1 X129.979 Y187.4 E18.75468
G1 X130.092 Y187.342 E18.76735
G1 X130.212 Y187.257 E18.78203
G1 X130.306 Y187.171 E18.79474
G1 X130.392 Y187.064 E18.80844
G1 X130.463 Y186.957 E18.82125
G1 X130.521 Y186.818 E18.83628
G1 X130.557 Y186.699 E18.84868
G1 X130.576 Y186.556 E18.86308
G1 X130.58 Y186.438 E18.87486
G1 X130.562 Y186.281 E18.89063
G1 X130.526 Y186.158 E18.90342
G1 X130.473 Y186.03 E18.91724
G1 X130.409 Y185.919 E18.93002
G1 X130.317 Y185.805 E18.94464
G1 X130.227 Y185.718 E18.95713
G1 X130.11 Y185.634 E18.9715
G1 X129.998 Y185.571 E18.98432
G1 X129.869 Y185.525 E18.99799
G1 X127.397 Y184.84 E19.25394
G1 X124.962 Y184.085 E19.50832
G1 X122.566 Y183.262 E19.7611
G1 X120.161 Y182.353 E20.01764
G1 X117.801 Y181.378 E20.27243
G1 X115.459 Y180.328 E20.52853
G1 X113.138 Y179.2 E20.78602
G1 X112.867 Y179.06 E20.81645
G1 X110.863 Y178.008 E21.04229
G1 X109.437 Y177.215 E21.2051
G1 X108.039 Y176.401 E21.36652
G1 X107.079 Y175.82 E21.47848
G1 X105.714 Y174.964 E21.63925
G1 X104.388 Y174.093 E21.79755
G1 X103.093 Y173.208 E21.95405
G1 X101.831 Y172.308 E22.10872
G1 X100.609 Y171.4 E22.26063
G1 X99.402 Y170.467 E22.41285
G1 X98.243 Y169.534 E22.56131
G1 X97.101 Y168.58 E22.70979
G1 X96 Y167.623 E22.85534
G1 X94.939 Y166.665 E22.99798
G1 X93.698 Y165.495 E23.16816
G1 X92.896 Y164.712 E23.28
G1 X91.722 Y163.522 E23.4468
G1 X91.624 Y163.439 E23.45961
G1 X91.497 Y163.367 E23.47418
G1 X91.354 Y163.319 E23.48923
G1 X91.202 Y163.296 E23.50457
G1 X91.037 Y163.304 E23.52105
G1 X90.882 Y163.348 E23.53713
G1 X90.757 Y163.409 E23.55101
G1 X90.641 Y163.492 E23.56524
G1 X90.442 Y163.691 E23.59332
G1 X90.36 Y163.791 E23.60623
G1 X90.292 Y163.916 E23.62042
G1 X90.245 Y164.056 E23.63516
G1 X90.225 Y164.202 E23.64986
G1 X90.23 Y164.36 E23.66564
G1 X90.272 Y164.515 E23.68166
G1 X90.34 Y164.659 E23.69755
G1 X90.423 Y164.766 E23.71106
G1 X91.354 Y165.715 E23.84371
G1 X91.909 Y166.267 E23.92182
G1 X92.629 Y166.966 E24.02195
G1 X93.404 Y167.699 E24.12839
G1 X94.235 Y168.463 E24.24102
G1 X95.124 Y169.255 E24.35982
G1 X96.069 Y170.071 E24.4844
G1 X97.074 Y170.91 E24.61503
G1 X98.136 Y171.768 E24.75126
G1 X99.259 Y172.642 E24.89325
G1 X100.443 Y173.53 E25.04093
G1 X101.688 Y174.427 E25.19404
G1 X102.996 Y175.331 E25.35269
G1 X104.366 Y176.24 E25.51674
G1 X105.801 Y177.149 E25.68624
G1 X107.299 Y178.056 E25.86097
G1 X108.864 Y178.96 E26.04131
G1 X110.489 Y179.852 E26.22627
G1 X110.674 Y179.962 E26.24775
G1 X110.855 Y180.09 E26.26987
G1 X111.024 Y180.236 E26.29215
G1 X111.169 Y180.383 E26.31275
G1 X111.308 Y180.551 E26.33451
G1 X111.431 Y180.728 E26.35602
G1 X111.538 Y180.916 E26.3776
G1 X111.628 Y181.112 E26.39912
G1 X111.701 Y181.316 E26.42074
G1 X111.757 Y181.527 E26.44252
G1 X111.794 Y181.733 E26.46341
G1 X111.812 Y181.947 E26.48484
G1 X111.813 Y182.166 E26.50669
G1 X111.794 Y182.376 E26.52773
G1 X111.756 Y182.6 E26.5504
G1 X111.705 Y182.792 E26.57022
G1 X111.627 Y183.01 E26.59332
G1 X111.539 Y183.201 E26.61431
G1 X111.437 Y183.382 E26.63504
G1 X111.308 Y183.568 E26.65762
G1 X111.177 Y183.727 E26.67818
G1 X111.018 Y183.89 E26.7009
G1 X110.865 Y184.02 E26.72093
G1 X110.689 Y184.147 E26.74259
G1 X110.499 Y184.26 E26.76465
G1 X110.297 Y184.357 E26.787
G1 X110.106 Y184.43 E26.80741
G1 X109.897 Y184.489 E26.82908
G1 X109.673 Y184.533 E26.85185
G1 X109.473 Y184.554 E26.87192
G1 X109.252 Y184.558 E26.89398
G1 X109.016 Y184.542 E26.91758
G1 X107.014 Y184.303 E27.11876
G1 X104.991 Y184.029 E27.32246
G1 X102.993 Y183.727 E27.52408
G1 X100.99 Y183.39 E27.72675
G1 X99.017 Y183.022 E27.92701
G1 X97.049 Y182.615 E28.12753
G1 X95.085 Y182.168 E28.32852
G1 X93.146 Y181.685 E28.5279
G1 X91.258 Y181.171 E28.72314
G1 X89.381 Y180.615 E28.91848
G1 X87.522 Y180.013 E29.11345
G1 X85.681 Y179.366 E29.30816
G1 X83.873 Y178.675 E29.50129
G1 X82.087 Y177.937 E29.69411
G1 X80.34 Y177.154 E29.88514
G1 X78.561 Y176.292 E30.08239
G1 X78.409 Y176.243 E30.09832
G1 X78.238 Y176.219 E30.11555
G1 X78.029 Y176.248 E30.13661
G1 X77.862 Y176.315 E30.15456
G1 X77.714 Y176.42 E30.17267
G1 X77.499 Y176.633 E30.20286
G1 X77.412 Y176.745 E30.21701
G1 X77.332 Y176.903 E30.23469
G1 X77.29 Y177.082 E30.25303
G1 X77.287 Y177.272 E30.27199
G1 X77.334 Y177.464 E30.29172
G1 X77.425 Y177.633 E30.31087
G1 X77.547 Y177.772 E30.32932
G1 X77.677 Y177.866 E30.34533
G1 X79.19 Y178.61 E30.51356
G1 X80.68 Y179.293 E30.67711
G1 X81.956 Y179.843 E30.81575
G1 X83.247 Y180.369 E30.95485
G1 X84.553 Y180.872 E31.0945
G1 X85.873 Y181.352 E31.23464
G1 X87.205 Y181.806 E31.37506
G1 X88.549 Y182.241 E31.51601
G1 X89.904 Y182.653 E31.65733
G1 X91.268 Y183.044 E31.79891
G1 X92.642 Y183.414 E31.94089
G1 X94.026 Y183.764 E32.08334
G1 X96.805 Y184.404 E32.36788
G1 X99.608 Y184.967 E32.65315
G1 X102.423 Y185.46 E32.93831
G1 X105.495 Y185.915 E33.24818
G1 X106.233 Y186.01 E33.32243
G1 X108.56 Y186.3 E33.55641
G1 X109.302 Y186.379 E33.63087
G1 X111.604 Y186.616 E33.86178
G1 X112.348 Y186.682 E33.9363
G1 F3000 E25.9363
G0 F6000 X112.433 Y187.524
G0 X112.354 Y188.361
G0 X112.316 Y188.841
G1 F3000 E33.9363
G1 F1200 X114.648 Y189.032 E34.16977
G1 X116.943 Y189.19 E34.39931
G1 X119.192 Y189.318 E34.62408
G1 X121.389 Y189.42 E34.84353
G1 X123.529 Y189.499 E35.05721
G1 X125.166 Y189.548 E35.22062
G1 X126.795 Y189.586 E35.38321
G1 X128.375 Y189.615 E35.54089
G1 X129.905 Y189.637 E35.69357
G1 X132.809 Y189.66 E35.98334
G1 X142.564 Y189.647 E36.9567
G1 X149.487 Y189.648 E37.64748
G1 X149.49 Y187.847 E37.82718
G1 X132.505 Y187.858 E39.52195
G1 X129.545 Y187.832 E39.81731
G1 X126.375 Y187.776 E40.13367
G1 X125.277 Y187.749 E40.24326
G1 X123.197 Y187.686 E40.4509
G1 X121.051 Y187.603 E40.66519
G1 X119.238 Y187.518 E40.84629
G1 X117.386 Y187.413 E41.03138
G1 X115.503 Y187.289 E41.21967
G1 X113.588 Y187.142 E41.41131
G1 X111.661 Y186.974 E41.60432
G1 X109.703 Y186.778 E41.80066
G1 X107.735 Y186.555 E41.99829
G1 X105.764 Y186.305 E42.19653
G1 X103.089 Y185.917 E42.46624
G1 X100.429 Y185.473 E42.73532
G1 X97.608 Y184.931 E43.02195
G1 X94.824 Y184.317 E43.30642
G1 X93.429 Y183.978 E43.44966
G1 X92.055 Y183.622 E43.59129
G1 X90.683 Y183.243 E43.73331
G1 X89.311 Y182.84 E43.876
G1 X87.965 Y182.421 E44.01666
G1 X86.615 Y181.976 E44.15849
G1 X85.293 Y181.513 E44.29826
G1 X83.968 Y181.022 E44.43925
G1 X82.664 Y180.511 E44.579
G1 X81.379 Y179.977 E44.71785
G1 X80.108 Y179.419 E44.85635
G1 X78.865 Y178.841 E44.99313
G1 X77.676 Y178.259 E45.12522
G1 X76.523 Y177.665 E45.25464
G1 X75.369 Y177.038 E45.38568
G1 X74.253 Y176.4 E45.51395
G1 X72.627 Y175.414 E45.70369
G1 X71.055 Y174.391 E45.89084
G1 X69.533 Y173.331 E46.0759
G1 X68.026 Y172.206 E46.26355
G1 X66.572 Y171.046 E46.44915
G1 X65.172 Y169.853 E46.63268
G1 X63.801 Y168.603 E46.8178
G1 X62.463 Y167.299 E47.00422
G1 X61.444 Y166.243 E47.15065
G1 X60.483 Y165.195 E47.29253
G1 X59.383 Y163.927 E47.46002
G1 X58.319 Y162.626 E47.62772
G1 X57.3 Y161.303 E47.79435
G1 X56.299 Y159.925 E47.96429
G1 X55.342 Y158.527 E48.13334
G1 X54.42 Y157.098 E48.30303
G1 X53.533 Y155.638 E48.47349
G1 X52.682 Y154.15 E48.64453
G1 X51.865 Y152.632 E48.81654
G1 X51.09 Y151.099 E48.98794
G1 X50.338 Y149.516 E49.16281
G1 X49.626 Y147.919 E49.33727
G1 X48.953 Y146.308 E49.51148
G1 X48.307 Y144.651 E49.68894
G1 X47.7 Y142.982 E49.86615
G1 X47.128 Y141.29 E50.04436
G1 X46.721 Y140.007 E50.17867
G1 X46.333 Y138.712 E50.31356
G1 X45.907 Y137.194 E50.47087
G1 X45.503 Y135.647 E50.63041
G1 X45.127 Y134.095 E50.78975
G1 X44.776 Y132.529 E50.94988
G1 X44.451 Y130.95 E51.11074
G1 X44.15 Y129.357 E51.2725
G1 X43.876 Y127.754 E51.43477
G1 X43.626 Y126.137 E51.59803
G1 X43.401 Y124.509 E51.76202
G1 X43.201 Y122.868 E51.92697
G1 X43.026 Y121.218 E52.09253
G1 X42.877 Y119.557 E52.25893
G1 X42.752 Y117.886 E52.42613
G1 X42.65 Y116.204 E52.59427
G1 X42.574 Y114.52 E52.76247
G1 X42.522 Y112.812 E52.93297
G1 X42.496 Y110.941 E53.11968
G1 X42.488 Y110.004 E53.21318
G1 X42.496 Y109.057 E53.30767
G1 X42.522 Y107.188 E53.49418
G1 X42.575 Y105.48 E53.66469
G1 X42.65 Y103.796 E53.83289
G1 X42.752 Y102.114 E54.00103
G1 X42.877 Y100.443 E54.16822
G1 X43.026 Y98.782 E54.33462
G1 X43.201 Y97.132 E54.50019
G1 X43.401 Y95.491 E54.66514
G1 X43.626 Y93.863 E54.82912
G1 X43.876 Y92.246 E54.99239
G1 X44.15 Y90.643 E55.15465
G1 X44.451 Y89.05 E55.31642
G1 X44.776 Y87.471 E55.47727
G1 X45.127 Y85.905 E55.6374
G1 X45.503 Y84.353 E55.79674
G1 X45.908 Y82.806 E55.95631
G1 X46.333 Y81.288 E56.1136
G1 X46.721 Y79.993 E56.24849
G1 X47.128 Y78.71 E56.38279
G1 X47.7 Y77.018 E56.56101
G1 X48.307 Y75.349 E56.73821
G1 X48.954 Y73.692 E56.91571
G1 X49.625 Y72.081 E57.08984
G1 X50.338 Y70.484 E57.26435
G1 X51.09 Y68.901 E57.43922
G1 X51.865 Y67.368 E57.61062
G1 X52.682 Y65.85 E57.78263
G1 X53.533 Y64.362 E57.95367
G1 X54.42 Y62.902 E58.12412
G1 X55.342 Y61.473 E58.29381
G1 X56.299 Y60.075 E58.46286
G1 X57.3 Y58.697 E58.63281
G1 X58.319 Y57.374 E58.79943
G1 X59.383 Y56.073 E58.96713
