;FLAVOR:Marlin
;TIME:2579
;Filament used: 4.52171m
;Layer height: 0.4
;MINX:70.369
;MINY:80.224
;MINZ:0.3
;MAXX:149.631
;MAXY:139.915
;MAXZ:25.9
;Generated with Cura_SteamEngine 4.3.0
M140 S60
M105
M190 S60
M104 S210
M105
M109 S210
M82 ;absolute extrusion mode
M201 X500.00 Y500.00 Z100.00 E5000.00 ;Setup machine max acceleration
M203 X500.00 Y500.00 Z10.00 E50.00 ;Setup machine max feedrate
M204 P500.00 R1000.00 T500.00 ;Setup Print/Retract/Travel acceleration
M205 X8.00 Y8.00 Z0.40 E5.00 ;Setup Jerk
M220 S100 ;Reset Feedrate
M221 S100 ;Reset Flowrate

G28 ;Home

G92 E0 ;Reset Extruder
G1 Z2.0 F3000 ;Move Z Axis up
G1 X10.1 Y20 Z0.28 F5000.0 ;Move to start position
G1 X10.1 Y200.0 Z0.28 F1500.0 E15 ;Draw the first line
G1 X10.4 Y200.0 Z0.28 F5000.0 ;Move to side a little
G1 X10.4 Y20 Z0.28 F1500.0 E30 ;Draw the second line
G92 E0 ;Reset Extruder
G1 Z2.0 F3000 ;Move Z Axis up

G92 E0
G92 E0
G1 F3000 E-8
;LAYER_COUNT:65
;LAYER:0
M107
;MESH:minimal_front.stl
G0 F6000 X80.651 Y131.849 Z0.3
;TYPE:WALL-OUTER
G1 F3000 E0
G1 F1200 X139.349 Y131.849 E5.85691
G1 X139.35 Y125.2 E6.52035
G1 X139.349 Y88.151 E10.21711
G1 X80.65 Y88.15 E16.07412
G1 X80.651 Y131.849 E20.43443
G1 F3000 E12.43443
G0 F6000 X80.651 Y132.199
G0 X97 Y132.339
G0 X97 Y136.971
G0 X97 Y137.131
G0 X97 Y137.481
G1 F3000 E20.43443
G1 F1200 X73.092 Y137.482 E22.81998
G1 X72.853 Y137.391 E22.8455
G1 X72.769 Y137.163 E22.86974
G1 X72.768 Y82.766 E28.2975
G1 X72.773 Y82.705 E28.3036
G1 X72.783 Y82.679 E28.30638
G1 X72.96 Y82.561 E28.32761
G1 X73.083 Y82.519 E28.34058
G1 X123 Y82.519 E33.32132
G1 X146.983 Y82.518 E35.71435
G1 X147.045 Y82.523 E35.72056
G1 X147.071 Y82.533 E35.72333
G1 X147.189 Y82.71 E35.74456
G1 X147.231 Y82.833 E35.75753
G1 X147.232 Y137.233 E41.18558
G1 X147.227 Y137.295 E41.19179
G1 X147.217 Y137.321 E41.19457
G1 X147.04 Y137.439 E41.2158
G1 X146.917 Y137.481 E41.22876
G1 X97 Y137.481 E46.2095
G0 F6000 X97 Y136.381
G0 X97 Y136.491
;TYPE:SKIN
G1 F1200 X73.759 Y136.492 E48.5285
G1 X73.758 Y83.509 E53.81516
G1 X123 Y83.509 E58.72855
G1 X146.241 Y83.508 E61.04755
G1 X146.242 Y136.491 E66.33421
G1 X97 Y136.491 E71.2476
G1 F3000 E63.2476
G0 F6000 X96.999 Y137.072
G0 X80.285 Y136.971
G0 X80.213 Y136.971
G0 X80.211 Y132.339
G0 X80.211 Y132.259
G0 X79.661 Y132.839
G1 F3000 E71.2476
G1 F1200 X140.339 Y132.839 E77.30207
G1 X140.34 Y125.2 E78.0643
G1 X140.339 Y87.161 E81.85984
G1 X79.66 Y87.16 E87.91442
G1 X79.661 Y132.839 E92.47229
G1 F3000 E84.47229
G0 F6000 X80.211 Y132.259
G0 X80.155 Y132.345
G0 X80.155 Y136.972
G0 X75.279 Y137.072
G0 X75.279 Y136.09
G1 F3000 E92.47229
G1 F1200 X74.158 Y134.969 E92.63047
G0 F6000 X73.178 Y134.969
G0 X73.178 Y133.555
G0 X74.158 Y133.555
G1 F1200 X76.693 Y136.09 E92.98819
G0 F6000 X76.693 Y137.072
G0 X78.107 Y137.072
G0 X78.107 Y136.09
G1 F1200 X74.158 Y132.141 E93.54544
G0 F6000 X73.178 Y132.141
G0 X73.178 Y130.727
G0 X74.158 Y130.727
G1 F1200 X79.521 Y136.09 E94.30221
G0 F6000 X79.521 Y137.072
G0 X80.936 Y137.072
G0 X80.936 Y136.09
G1 F1200 X74.158 Y129.312 E95.25866
G0 F6000 X73.178 Y129.312
G0 X73.178 Y127.898
G0 X74.158 Y127.898
G1 F1200 X79.261 Y133.001 E95.97875
G0 F6000 X79.498 Y133.238
G1 F1200 X82.35 Y136.09 E96.3812
G0 F6000 X82.35 Y137.072
G0 X83.764 Y137.072
G0 X83.764 Y136.09
G1 F1200 X80.912 Y133.238 E96.78365
G0 F6000 X80.912 Y132.259
G0 X82.327 Y132.259
G0 X82.327 Y133.238
G1 F1200 X85.178 Y136.09 E97.18602
G0 F6000 X85.178 Y137.072
G0 X86.593 Y137.072
G0 X86.593 Y136.09
G1 F1200 X83.741 Y133.238 E97.58847
G0 F6000 X83.741 Y132.259
G0 X85.155 Y132.259
G0 X85.155 Y133.238
G1 F1200 X88.007 Y136.09 E97.99092
G0 F6000 X88.007 Y137.072
G0 X89.421 Y137.072
G0 X89.421 Y136.09
G1 F1200 X86.569 Y133.238 E98.39337
G0 F6000 X86.569 Y132.259
G0 X87.983 Y132.259
G0 X87.983 Y133.238
G1 F1200 X90.835 Y136.09 E98.79582
G0 F6000 X90.835 Y137.072
G0 X92.249 Y137.072
G0 X92.249 Y136.09
G1 F1200 X89.398 Y133.238 E99.19819
G0 F6000 X89.398 Y132.259
G0 X90.812 Y132.259
G0 X90.812 Y133.238
G1 F1200 X93.664 Y136.09 E99.60064
G0 F6000 X93.664 Y137.072
G0 X95.078 Y137.072
G0 X95.078 Y136.09
G1 F1200 X92.226 Y133.238 E100.00309
G0 F6000 X92.226 Y132.259
G0 X93.64 Y132.259
G0 X93.64 Y133.238
G1 F1200 X96.492 Y136.09 E100.40554
G0 F6000 X96.492 Y137.072
G0 X97.906 Y137.071
G0 X97.906 Y136.09
G1 F1200 X95.054 Y133.238 E100.80799
G0 F6000 X95.054 Y132.259
G0 X96.469 Y132.259
G0 X96.469 Y133.238
G1 F1200 X99.32 Y136.09 E101.21036
G0 F6000 X99.32 Y137.071
G0 X100.735 Y137.071
G0 X100.735 Y136.09
G1 F1200 X97.883 Y133.238 E101.61281
G0 F6000 X97.883 Y132.259
G0 X99.297 Y132.259
G0 X99.297 Y133.238
G1 F1200 X102.149 Y136.09 E102.01526
G0 F6000 X102.149 Y137.071
G0 X103.563 Y137.071
G0 X103.563 Y136.09
G1 F1200 X100.711 Y133.238 E102.41771
G0 F6000 X100.711 Y132.259
G0 X102.126 Y132.259
G0 X102.126 Y133.238
G1 F1200 X104.977 Y136.09 E102.82008
G0 F6000 X104.977 Y137.071
G0 X106.391 Y137.071
G0 X106.391 Y136.09
G1 F1200 X103.54 Y133.238 E103.22246
G0 F6000 X103.54 Y132.259
G0 X104.954 Y132.259
G0 X104.954 Y133.238
G1 F1200 X107.806 Y136.09 E103.62491
G0 F6000 X107.806 Y137.071
G0 X109.22 Y137.071
G0 X109.22 Y136.09
G1 F1200 X106.368 Y133.238 E104.02736
G0 F6000 X106.368 Y132.259
G0 X107.782 Y132.259
G0 X107.782 Y133.238
G1 F1200 X110.634 Y136.09 E104.42981
G0 F6000 X110.634 Y137.071
G0 X112.048 Y137.071
G0 X112.048 Y136.09
G1 F1200 X109.197 Y133.238 E104.83218
G0 F6000 X109.197 Y132.259
G0 X110.611 Y132.259
G0 X110.611 Y133.238
G1 F1200 X113.463 Y136.09 E105.23463
G0 F6000 X113.463 Y137.071
G0 X114.877 Y137.071
G0 X114.877 Y136.09
G1 F1200 X112.025 Y133.238 E105.63708
G0 F6000 X112.025 Y132.259
G0 X113.439 Y132.259
G0 X113.439 Y133.238
G1 F1200 X116.291 Y136.09 E106.03953
G0 F6000 X116.291 Y137.071
G0 X117.705 Y137.071
G0 X117.705 Y136.09
G1 F1200 X114.853 Y133.238 E106.44198
G0 F6000 X114.853 Y132.259
G0 X116.268 Y132.259
G0 X116.268 Y133.238
G1 F1200 X119.119 Y136.09 E106.84435
G0 F6000 X119.119 Y137.071
G0 X120.534 Y137.071
G0 X120.534 Y136.09
G1 F1200 X117.682 Y133.238 E107.2468
G0 F6000 X117.682 Y132.259
G0 X119.096 Y132.259
G0 X119.096 Y133.238
G1 F1200 X121.948 Y136.09 E107.64925
G0 F6000 X121.948 Y137.071
G0 X123.362 Y137.071
G0 X123.362 Y136.09
G1 F1200 X120.51 Y133.238 E108.0517
G0 F6000 X120.51 Y132.259
G0 X121.925 Y132.259
G0 X121.925 Y133.238
G1 F1200 X124.776 Y136.09 E108.45407
G0 F6000 X124.776 Y137.071
G0 X126.19 Y137.071
G0 X126.19 Y136.09
G1 F1200 X123.339 Y133.238 E108.85645
G0 F6000 X123.339 Y132.259
G0 X124.753 Y132.259
G0 X124.753 Y133.238
G1 F1200 X127.605 Y136.09 E109.2589
G0 F6000 X127.605 Y137.071
G0 X129.019 Y137.071
G0 X129.019 Y136.09
G1 F1200 X126.167 Y133.238 E109.66135
G0 F6000 X126.167 Y132.259
G0 X127.581 Y132.259
G0 X127.581 Y133.238
G1 F1200 X130.433 Y136.09 E110.0638
G0 F6000 X130.433 Y137.071
G0 X131.847 Y137.071
G0 X131.847 Y136.09
G1 F1200 X128.996 Y133.238 E110.46617
G0 F6000 X128.996 Y132.259
G0 X130.41 Y132.259
G0 X130.41 Y133.238
G1 F1200 X133.262 Y136.09 E110.86862
G0 F6000 X133.262 Y137.071
G0 X134.676 Y137.071
G0 X134.676 Y136.09
G1 F1200 X131.824 Y133.238 E111.27107
G0 F6000 X131.824 Y132.259
G0 X133.238 Y132.259
G0 X133.238 Y133.238
G1 F1200 X136.09 Y136.09 E111.67352
G0 F6000 X136.09 Y137.071
G0 X137.504 Y137.071
G0 X137.504 Y136.09
G1 F1200 X134.652 Y133.238 E112.07597
G0 F6000 X134.652 Y132.259
G0 X136.067 Y132.259
G0 X136.067 Y133.238
G1 F1200 X138.918 Y136.09 E112.47834
G0 F6000 X138.918 Y137.071
G0 X140.333 Y137.071
G0 X140.333 Y136.09
G1 F1200 X137.481 Y133.238 E112.88079
G0 F6000 X137.481 Y132.259
G0 X138.895 Y132.259
G0 X138.895 Y133.238
G1 F1200 X141.747 Y136.09 E113.28324
G0 F6000 X141.747 Y137.071
G0 X143.161 Y137.071
G0 X143.161 Y136.09
G1 F1200 X140.309 Y133.238 E113.68569
G0 F6000 X139.789 Y132.289
G0 X140.738 Y132.253
G1 F1200 X144.575 Y136.09 E114.22713
G0 F6000 X144.575 Y137.071
G0 X146.75 Y136.999
G0 X146.822 Y135.941
G0 X145.84 Y135.941
G1 F1200 X140.738 Y130.838 E114.94715
G0 F6000 X139.76 Y130.837
G0 X139.76 Y129.423
G0 X140.738 Y129.424
G1 F1200 X145.84 Y134.527 E115.66717
G0 F6000 X146.822 Y134.527
G0 X146.822 Y133.112
G0 X145.84 Y133.112
G1 F1200 X140.738 Y128.01 E116.38711
G0 F6000 X139.76 Y128.009
G0 X139.76 Y126.595
G0 X140.738 Y126.596
G1 F1200 X145.84 Y131.698 E117.10706
G0 F6000 X146.822 Y131.698
G0 X146.822 Y130.284
G0 X145.84 Y130.284
G1 F1200 X140.738 Y125.181 E117.82708
G0 F6000 X139.76 Y125.2
G0 X139.759 Y123.767
G0 X140.738 Y123.767
G1 F1200 X145.84 Y128.87 E118.5471
G0 F6000 X146.822 Y128.87
G0 X146.822 Y127.455
G0 X145.84 Y127.455
G1 F1200 X140.738 Y122.353 E119.26704
G0 F6000 X139.759 Y122.353
G0 X139.759 Y120.939
G0 X140.738 Y120.939
G1 F1200 X145.84 Y126.041 E119.98699
G0 F6000 X146.822 Y126.041
G0 X146.822 Y124.627
G0 X145.84 Y124.627
G1 F1200 X140.738 Y119.525 E120.70694
G0 F6000 X139.759 Y119.525
G0 X139.759 Y118.11
G0 X140.738 Y118.11
G1 F1200 X145.84 Y123.213 E121.42696
G0 F6000 X146.822 Y123.213
G0 X146.822 Y121.799
G0 X145.84 Y121.799
G1 F1200 X140.738 Y116.696 E122.14697
G0 F6000 X139.759 Y116.696
G0 X139.759 Y115.282
G0 X140.738 Y115.282
G1 F1200 X145.84 Y120.384 E122.86692
G0 F6000 X146.822 Y120.384
G0 X146.822 Y118.97
G0 X145.84 Y118.97
G1 F1200 X140.738 Y113.868 E123.58687
G0 F6000 X139.759 Y113.868
G0 X139.759 Y112.454
G0 X140.738 Y112.454
G1 F1200 X145.84 Y117.556 E124.30682
G0 F6000 X146.822 Y117.556
G0 X146.822 Y116.142
G0 X145.84 Y116.142
G1 F1200 X140.738 Y111.039 E125.02683
G0 F6000 X139.759 Y111.039
G0 X139.759 Y109.625
G0 X140.738 Y109.625
G1 F1200 X145.84 Y114.728 E125.74685
G0 F6000 X146.822 Y114.728
G0 X146.822 Y113.313
G0 X145.84 Y113.313
G1 F1200 X140.738 Y108.211 E126.4668
G0 F6000 X139.759 Y108.211
G0 X139.759 Y106.797
G0 X140.738 Y106.797
G1 F1200 X145.84 Y111.899 E127.18675
G0 F6000 X146.822 Y111.899
G0 X146.822 Y110.485
G0 X145.84 Y110.485
G1 F1200 X140.738 Y105.382 E127.90676
G0 F6000 X139.759 Y105.382
G0 X139.759 Y103.968
G0 X140.738 Y103.968
G1 F1200 X145.84 Y109.071 E128.62678
G0 F6000 X146.822 Y109.071
G0 X146.822 Y107.657
G0 X145.84 Y107.657
G1 F1200 X140.738 Y102.554 E129.3468
G0 F6000 X139.759 Y102.554
G0 X139.759 Y101.14
G0 X140.738 Y101.14
G1 F1200 X145.84 Y106.242 E130.06675
G0 F6000 X146.822 Y106.242
G0 X146.822 Y104.828
G0 X145.84 Y104.828
G1 F1200 X140.738 Y99.726 E130.78669
G0 F6000 X139.759 Y99.726
G0 X139.759 Y98.311
G0 X140.738 Y98.311
G1 F1200 X145.84 Y103.414 E131.50671
G0 F6000 X146.822 Y103.414
G0 X146.822 Y102
G0 X145.84 Y102
G1 F1200 X140.738 Y96.897 E132.22673
G0 F6000 X139.759 Y96.897
G0 X139.759 Y95.483
G0 X140.738 Y95.483
G1 F1200 X145.84 Y100.585 E132.94668
G0 F6000 X146.822 Y100.585
G0 X146.822 Y99.171
G0 X145.84 Y99.171
G1 F1200 X140.738 Y94.069 E133.66662
G0 F6000 X139.759 Y94.069
G0 X139.759 Y92.655
G0 X140.738 Y92.655
G1 F1200 X145.84 Y97.757 E134.38657
G0 F6000 X146.822 Y97.757
G0 X146.822 Y96.343
G0 X145.84 Y96.343
G1 F1200 X140.738 Y91.24 E135.10659
G0 F6000 X139.759 Y91.24
G0 X139.759 Y89.826
G0 X140.738 Y89.826
G1 F1200 X145.84 Y94.929 E135.82661
G0 F6000 X146.822 Y94.929
G0 X146.822 Y93.514
G0 X145.84 Y93.514
G1 F1200 X140.738 Y88.412 E136.54655
G0 F6000 X139.759 Y88.412
G0 X139.789 Y87.711
G0 X140.738 Y86.998
G1 F1200 X145.84 Y92.1 E137.2665
G0 F6000 X146.822 Y92.1
G0 X146.822 Y90.686
G0 X145.84 Y90.686
G1 F1200 X139.063 Y83.908 E138.22288
G0 F6000 X139.063 Y82.928
G0 X140.477 Y82.928
G0 X140.477 Y83.908
G1 F1200 X145.84 Y89.272 E138.97973
G0 F6000 X146.822 Y89.272
G0 X146.822 Y87.858
G0 X145.84 Y87.858
G1 F1200 X141.891 Y83.908 E139.53705
G0 F6000 X141.891 Y82.928
G0 X143.305 Y82.928
G0 X143.305 Y83.908
G1 F1200 X145.84 Y86.443 E139.89476
G0 F6000 X146.822 Y86.443
G0 X146.822 Y85.029
G0 X145.84 Y85.029
G1 F1200 X144.72 Y83.908 E140.05288
G1 F3000 E132.05288
G0 F6000 X144.72 Y82.928
G0 X139.759 Y83.028
G0 X139.758 Y87.66
G0 X139.759 Y87.71
G0 X140.499 Y86.759
G1 F3000 E140.05288
G1 F1200 X137.648 Y83.908 E140.45518
G0 F6000 X137.648 Y82.928
G0 X136.234 Y82.928
G0 X136.234 Y83.908
G1 F1200 X139.085 Y86.759 E140.85749
G0 F6000 X139.084 Y87.74
G0 X137.67 Y87.74
G0 X137.671 Y86.759
G1 F1200 X134.82 Y83.908 E141.2598
G0 F6000 X134.82 Y82.928
G0 X133.406 Y82.928
G0 X133.406 Y83.908
G1 F1200 X136.257 Y86.759 E141.6621
G0 F6000 X136.256 Y87.74
G0 X134.842 Y87.74
G0 X134.843 Y86.759
G1 F1200 X131.992 Y83.908 E142.06441
G0 F6000 X131.992 Y82.928
G0 X130.577 Y82.928
G0 X130.577 Y83.908
G1 F1200 X133.428 Y86.759 E142.46672
G0 F6000 X133.427 Y87.74
G0 X132.013 Y87.74
G0 X132.014 Y86.759
G1 F1200 X129.163 Y83.908 E142.86902
G0 F6000 X129.163 Y82.928
G0 X127.749 Y82.928
G0 X127.749 Y83.908
G1 F1200 X130.6 Y86.759 E143.27133
G0 F6000 X130.599 Y87.74
G0 X129.185 Y87.74
G0 X129.186 Y86.759
G1 F1200 X126.335 Y83.908 E143.67364
G0 F6000 X126.335 Y82.928
G0 X124.921 Y82.928
G0 X124.921 Y83.908
G1 F1200 X127.772 Y86.759 E144.07594
G0 F6000 X127.771 Y87.74
G0 X126.356 Y87.74
G0 X126.357 Y86.759
G1 F1200 X123.506 Y83.908 E144.47825
G0 F6000 X123.506 Y82.928
G0 X122.092 Y82.929
G0 X122.092 Y83.908
G1 F1200 X124.943 Y86.759 E144.88056
G0 F6000 X124.942 Y87.74
G0 X123.528 Y87.74
G0 X123.529 Y86.759
G1 F1200 X120.678 Y83.908 E145.28287
G0 F6000 X120.678 Y82.929
G0 X119.264 Y82.929
G0 X119.264 Y83.908
G1 F1200 X122.115 Y86.759 E145.68517
G0 F6000 X122.114 Y87.74
G0 X120.7 Y87.74
G0 X120.701 Y86.759
G1 F1200 X117.849 Y83.908 E146.08755
G0 F6000 X117.849 Y82.929
G0 X116.435 Y82.929
G0 X116.435 Y83.908
G1 F1200 X119.286 Y86.759 E146.48986
G0 F6000 X119.285 Y87.74
G0 X117.871 Y87.74
G0 X117.872 Y86.759
G1 F1200 X115.021 Y83.908 E146.89216
G0 F6000 X115.021 Y82.929
G0 X113.607 Y82.929
G0 X113.607 Y83.908
G1 F1200 X116.458 Y86.759 E147.29447
G0 F6000 X116.457 Y87.74
G0 X115.043 Y87.74
G0 X115.044 Y86.759
G1 F1200 X112.193 Y83.908 E147.69678
G0 F6000 X112.193 Y82.929
G0 X110.778 Y82.929
G0 X110.778 Y83.908
G1 F1200 X113.629 Y86.759 E148.09908
G0 F6000 X113.628 Y87.74
G0 X112.214 Y87.74
G0 X112.215 Y86.759
G1 F1200 X109.364 Y83.908 E148.50139
G0 F6000 X109.364 Y82.929
G0 X107.95 Y82.929
G0 X107.95 Y83.908
G1 F1200 X110.801 Y86.759 E148.9037
G0 F6000 X110.8 Y87.74
G0 X109.385 Y87.74
G0 X109.386 Y86.759
G1 F1200 X106.536 Y83.908 E149.30593
G0 F6000 X106.536 Y82.929
G0 X105.122 Y82.929
G0 X105.122 Y83.908
G1 F1200 X107.972 Y86.759 E149.70817
G0 F6000 X107.971 Y87.74
G0 X106.557 Y87.74
G0 X106.558 Y86.759
G1 F1200 X103.707 Y83.908 E150.11048
G0 F6000 X103.707 Y82.929
G0 X102.293 Y82.929
G0 X102.293 Y83.908
G1 F1200 X105.143 Y86.759 E150.51271
G0 F6000 X105.142 Y87.74
G0 X103.728 Y87.74
G0 X103.729 Y86.759
G1 F1200 X100.879 Y83.908 E150.91495
G0 F6000 X100.879 Y82.929
G0 X99.465 Y82.929
G0 X99.465 Y83.908
G1 F1200 X102.315 Y86.759 E151.31719
G0 F6000 X102.314 Y87.74
G0 X100.9 Y87.74
G0 X100.901 Y86.759
G1 F1200 X98.05 Y83.908 E151.71949
G0 F6000 X98.05 Y82.929
G0 X96.636 Y82.929
G0 X96.636 Y83.908
G1 F1200 X99.487 Y86.759 E152.1218
G0 F6000 X99.486 Y87.74
G0 X98.071 Y87.74
G0 X98.072 Y86.759
G1 F1200 X95.222 Y83.908 E152.52404
G0 F6000 X95.222 Y82.929
G0 X93.808 Y82.929
G0 X93.808 Y83.908
G1 F1200 X96.658 Y86.759 E152.92627
G0 F6000 X96.657 Y87.74
G0 X95.243 Y87.74
G0 X95.244 Y86.759
G1 F1200 X92.394 Y83.908 E153.32851
G0 F6000 X92.394 Y82.929
G0 X90.979 Y82.929
G0 X90.979 Y83.908
G1 F1200 X93.83 Y86.759 E153.73082
G0 F6000 X93.829 Y87.74
G0 X92.415 Y87.74
G0 X92.416 Y86.759
G1 F1200 X89.565 Y83.908 E154.13312
G0 F6000 X89.565 Y82.929
G0 X88.151 Y82.929
G0 X88.151 Y83.908
G1 F1200 X91.001 Y86.759 E154.53536
G0 F6000 X91 Y87.74
G0 X89.586 Y87.74
G0 X89.587 Y86.759
G1 F1200 X86.737 Y83.908 E154.9376
G0 F6000 X86.737 Y82.929
G0 X85.323 Y82.929
G0 X85.323 Y83.908
G1 F1200 X88.173 Y86.759 E155.33983
G0 F6000 X88.172 Y87.74
G0 X86.758 Y87.74
G0 X86.759 Y86.759
G1 F1200 X83.908 Y83.908 E155.74214
G0 F6000 X83.908 Y82.929
G0 X82.494 Y82.929
G0 X82.494 Y83.908
G1 F1200 X85.344 Y86.759 E156.14438
G0 F6000 X85.343 Y87.74
G0 X83.929 Y87.74
G0 X83.93 Y86.759
G1 F1200 X81.08 Y83.908 E156.54661
G0 F6000 X81.08 Y82.929
G0 X79.666 Y82.929
G0 X79.666 Y83.908
G1 F1200 X82.516 Y86.759 E156.94885
G0 F6000 X82.515 Y87.74
G0 X81.101 Y87.74
G0 X81.102 Y86.759
G1 F1200 X78.251 Y83.908 E157.35116
G0 F6000 X78.251 Y82.929
