;FLAVOR:Marlin
;TIME:1373
;Filament used: 3.5899m
;Layer height: 0.4
;MINX:71.5
;MINY:83.797
;MINZ:0.3
;MAXX:148.5
;MAXY:141.297
;MAXZ:4.7
;Generated with Cura_SteamEngine 4.3.0
M140 S60
M105
M190 S60
M104 S210
M105
M109 S210
M82 ;absolute extrusion mode
M201 X500.00 Y500.00 Z100.00 E5000.00 ;Setup machine max acceleration
M203 X500.00 Y500.00 Z10.00 E50.00 ;Setup machine max feedrate
M204 P500.00 R1000.00 T500.00 ;Setup Print/Retract/Travel acceleration
M205 X8.00 Y8.00 Z0.40 E5.00 ;Setup Jerk
M220 S100 ;Reset Feedrate
M221 S100 ;Reset Flowrate

G28 ;Home

G92 E0 ;Reset Extruder
G1 Z2.0 F3000 ;Move Z Axis up
G1 X10.1 Y20 Z0.28 F5000.0 ;Move to start position
G1 X10.1 Y200.0 Z0.28 F1500.0 E15 ;Draw the first line
G1 X10.4 Y200.0 Z0.28 F5000.0 ;Move to side a little
G1 X10.4 Y20 Z0.28 F1500.0 E30 ;Draw the second line
G92 E0 ;Reset Extruder
G1 Z2.0 F3000 ;Move Z Axis up

G92 E0
G92 E0
G1 F3000 E-8
;LAYER_COUNT:12
;LAYER:0
M107
;MESH:minimal_back.stl
G0 F6000 X71.5 Y141.297 Z0.3
;TYPE:WALL-OUTER
G1 F3000 E0
G1 F1200 X71.5 Y83.797 E5.73737
G1 X148.5 Y83.797 E13.42046
G1 X148.5 Y141.297 E19.15784
G1 X71.5 Y141.297 E26.84093
G0 F6000 X71.82 Y140.977
G0 X71.91 Y140.307
G0 X72.49 Y140.307
;TYPE:SKIN
G1 F1200 X72.49 Y84.787 E32.38074
G1 X147.51 Y84.787 E39.86626
G1 X147.51 Y140.307 E45.40607
G1 X72.49 Y140.307 E52.8916
G0 F6000 X71.91 Y140.307
G0 X71.982 Y140.815
G0 X73.438 Y140.887
G0 X73.438 Y139.906
G1 F1200 X72.889 Y139.358 E52.969
G0 F6000 X71.91 Y139.358
G0 X71.91 Y137.943
G0 X72.889 Y137.943
G1 F1200 X74.852 Y139.906 E53.246
G0 F6000 X74.852 Y140.887
G0 X76.267 Y140.887
G0 X76.267 Y139.906
G1 F1200 X72.889 Y136.529 E53.7226
G0 F6000 X71.91 Y136.529
G0 X71.91 Y135.115
G0 X72.889 Y135.115
G1 F1200 X77.681 Y139.906 E54.39873
G0 F6000 X77.681 Y140.887
G0 X79.095 Y140.887
G0 X79.095 Y139.906
G1 F1200 X72.889 Y133.701 E55.27439
G0 F6000 X71.91 Y133.701
G0 X71.91 Y132.286
G0 X72.889 Y132.286
G1 F1200 X80.509 Y139.906 E56.34966
G0 F6000 X80.509 Y140.887
G0 X81.923 Y140.887
G0 X81.923 Y139.906
G1 F1200 X72.889 Y130.872 E57.62445
G0 F6000 X71.91 Y130.872
G0 X71.91 Y129.458
G0 X72.889 Y129.458
G1 F1200 X83.338 Y139.906 E59.09885
G0 F6000 X83.338 Y140.887
G0 X84.752 Y140.887
G0 X84.752 Y139.906
G1 F1200 X72.889 Y128.044 E60.77278
G0 F6000 X71.91 Y128.044
G0 X71.91 Y126.63
G0 X72.889 Y126.63
G1 F1200 X86.166 Y139.906 E62.64623
G0 F6000 X86.166 Y140.887
G0 X87.58 Y140.887
G0 X87.58 Y139.906
G1 F1200 X72.889 Y125.215 E64.71929
G0 F6000 X71.91 Y125.215
G0 X71.91 Y123.801
G0 X72.889 Y123.801
G1 F1200 X88.995 Y139.906 E66.99195
G0 F6000 X88.995 Y140.887
G0 X90.409 Y140.887
G0 X90.409 Y139.906
G1 F1200 X72.889 Y122.387 E69.46414
G0 F6000 X71.91 Y122.387
G0 X71.91 Y120.973
G0 X72.889 Y120.973
G1 F1200 X91.823 Y139.906 E72.13587
G0 F6000 X91.823 Y140.887
G0 X93.237 Y140.887
G0 X93.237 Y139.906
G1 F1200 X72.889 Y119.559 E75.00712
G0 F6000 X71.91 Y119.559
G0 X71.91 Y118.144
G0 X72.889 Y118.144
G1 F1200 X94.651 Y139.906 E78.07797
G0 F6000 X94.651 Y140.887
G0 X96.066 Y140.887
G0 X96.066 Y139.906
G1 F1200 X72.889 Y116.73 E81.34842
G0 F6000 X71.91 Y116.73
G0 X71.91 Y115.316
G0 X72.889 Y115.316
G1 F1200 X97.48 Y139.906 E84.81841
G0 F6000 X97.48 Y140.887
G0 X98.894 Y140.887
G0 X98.894 Y139.906
G1 F1200 X72.889 Y113.902 E88.48793
G0 F6000 X71.91 Y113.902
G0 X71.91 Y112.487
G0 X72.889 Y112.487
G1 F1200 X100.308 Y139.906 E92.35704
G0 F6000 X100.308 Y140.887
G0 X101.722 Y140.887
G0 X101.722 Y139.906
G1 F1200 X72.889 Y111.073 E96.42569
G0 F6000 X71.91 Y111.073
G0 X71.91 Y109.659
G0 X72.889 Y109.659
G1 F1200 X103.137 Y139.906 E100.69394
G0 F6000 X103.137 Y140.887
G0 X104.551 Y140.887
G0 X104.551 Y139.906
G1 F1200 X72.889 Y108.245 E105.16172
G0 F6000 X71.91 Y108.245
G0 X71.91 Y106.831
G0 X72.889 Y106.831
G1 F1200 X105.965 Y139.906 E109.82903
G0 F6000 X105.965 Y140.887
G0 X107.379 Y140.887
G0 X107.379 Y139.906
G1 F1200 X72.889 Y105.416 E114.69594
G0 F6000 X71.91 Y105.416
G0 X71.91 Y104.002
G0 X72.889 Y104.002
G1 F1200 X108.794 Y139.906 E119.76245
G0 F6000 X108.794 Y140.887
G0 X110.208 Y140.887
G0 X110.208 Y139.906
G1 F1200 X72.889 Y102.588 E125.0285
G0 F6000 X71.91 Y102.588
G0 X71.91 Y101.174
G0 X72.889 Y101.174
G1 F1200 X111.622 Y139.906 E130.49407
G0 F6000 X111.622 Y140.887
G0 X113.036 Y140.887
G0 X113.036 Y139.906
G1 F1200 X72.889 Y99.76 E136.15918
G0 F6000 X71.91 Y99.76
G0 X71.91 Y98.345
G0 X72.889 Y98.345
G1 F1200 X114.45 Y139.906 E142.02388
G0 F6000 X114.45 Y140.887
G0 X115.865 Y140.887
G0 X115.865 Y139.906
G1 F1200 X72.889 Y96.931 E148.08819
G0 F6000 X71.91 Y96.931
G0 X71.91 Y95.517
G0 X72.889 Y95.517
G1 F1200 X117.279 Y139.906 E154.35203
G0 F6000 X117.279 Y140.887
G0 X118.693 Y140.887
G0 X118.693 Y139.906
G1 F1200 X72.889 Y94.103 E160.8154
G0 F6000 X71.91 Y94.103
G0 X71.91 Y92.688
G0 X72.889 Y92.688
G1 F1200 X120.107 Y139.906 E167.47837
G0 F6000 X120.107 Y140.887
G0 X121.521 Y140.887
G0 X121.521 Y139.906
G1 F1200 X72.889 Y91.274 E174.34087
G0 F6000 X71.91 Y91.274
G0 X71.91 Y89.86
G0 X72.889 Y89.86
G1 F1200 X122.936 Y139.906 E181.40297
G0 F6000 X122.936 Y140.887
G0 X124.35 Y140.887
G0 X124.35 Y139.906
G1 F1200 X72.889 Y88.446 E188.6646
G0 F6000 X71.91 Y88.446
G0 X71.91 Y87.032
G0 X72.889 Y87.032
G1 F1200 X125.764 Y139.906 E196.12576
G0 F6000 X125.764 Y140.887
G0 X127.178 Y140.887
G0 X127.178 Y139.906
G1 F1200 X72.889 Y85.617 E203.78653
G0 F6000 X71.91 Y85.617
G0 X71.982 Y84.279
G0 X73.872 Y84.207
G0 X73.872 Y85.186
G1 F1200 X128.593 Y139.906 E211.50818
G0 F6000 X128.593 Y140.887
G0 X130.007 Y140.887
G0 X130.007 Y139.906
G1 F1200 X75.287 Y85.186 E219.22977
G0 F6000 X75.287 Y84.207
G0 X76.701 Y84.207
G0 X76.701 Y85.186
G1 F1200 X131.421 Y139.906 E226.95135
G0 F6000 X131.421 Y140.887
G0 X132.835 Y140.887
G0 X132.835 Y139.906
G1 F1200 X78.115 Y85.186 E234.67293
G0 F6000 X78.115 Y84.207
G0 X79.529 Y84.207
G0 X79.529 Y85.186
G1 F1200 X134.249 Y139.906 E242.39451
G0 F6000 X134.249 Y140.887
G0 X135.664 Y140.887
G0 X135.664 Y139.906
G1 F1200 X80.943 Y85.186 E250.11617
G0 F6000 X80.943 Y84.207
G0 X82.358 Y84.207
G0 X82.358 Y85.186
G1 F1200 X137.078 Y139.906 E257.83775
G0 F6000 X137.078 Y140.887
G0 X138.492 Y140.887
G0 X138.492 Y139.906
G1 F1200 X83.772 Y85.186 E265.55933
G0 F6000 X83.772 Y84.207
G0 X85.186 Y84.207
G0 X85.186 Y85.186
G1 F1200 X139.906 Y139.906 E273.28092
G0 F6000 X139.906 Y140.887
G0 X141.32 Y140.887
G0 X141.32 Y139.906
G1 F1200 X86.6 Y85.186 E281.0025
G0 F6000 X86.6 Y84.207
G0 X88.014 Y84.207
G0 X88.014 Y85.186
G1 F1200 X142.735 Y139.906 E288.72415
G0 F6000 X142.735 Y140.887
G0 X144.149 Y140.887
G0 X144.149 Y139.906
G1 F1200 X89.429 Y85.186 E296.44574
G0 F6000 X89.429 Y84.207
G0 X90.843 Y84.207
G0 X90.843 Y85.186
G1 F1200 X145.563 Y139.906 E304.16732
G0 F6000 X145.563 Y140.887
G0 X146.977 Y140.887
G0 X146.977 Y139.906
G1 F1200 X92.257 Y85.186 E311.8889
G0 F6000 X92.257 Y84.207
G0 X93.671 Y84.207
G0 X93.671 Y85.186
G1 F1200 X147.109 Y138.624 E319.42958
G0 F6000 X148.09 Y138.624
G0 X148.09 Y137.209
G0 X147.109 Y137.209
G1 F1200 X95.086 Y85.186 E326.77059
G0 F6000 X95.086 Y84.207
G0 X96.5 Y84.207
G0 X96.5 Y85.186
G1 F1200 X147.109 Y135.795 E333.91207
G0 F6000 X148.09 Y135.795
G0 X148.09 Y134.381
G0 X147.109 Y134.381
G1 F1200 X97.914 Y85.186 E340.85401
G0 F6000 X97.914 Y84.207
G0 X99.328 Y84.207
G0 X99.328 Y85.186
G1 F1200 X147.109 Y132.967 E347.59643
G0 F6000 X148.09 Y132.967
G0 X148.09 Y131.552
G0 X147.109 Y131.552
G1 F1200 X100.742 Y85.186 E354.13924
G0 F6000 X100.742 Y84.207
G0 X102.157 Y84.207
G0 X102.157 Y85.186
G1 F1200 X147.109 Y130.138 E360.48245
G0 F6000 X148.09 Y130.138
G0 X148.09 Y128.724
G0 X147.109 Y128.724
G1 F1200 X103.571 Y85.186 E366.62614
G0 F6000 X103.571 Y84.207
G0 X104.985 Y84.207
G0 X104.985 Y85.186
G1 F1200 X147.109 Y127.31 E372.57029
G0 F6000 X148.09 Y127.31
G0 X148.09 Y125.896
G0 X147.109 Y125.896
G1 F1200 X106.399 Y85.186 E378.31491
G0 F6000 X106.399 Y84.207
G0 X107.813 Y84.207
G0 X107.813 Y85.186
G1 F1200 X147.109 Y124.481 E383.85993
G0 F6000 X148.09 Y124.481
G0 X148.09 Y123.067
G0 X147.109 Y123.067
G1 F1200 X109.228 Y85.186 E389.20535
G0 F6000 X109.228 Y84.207
G0 X110.642 Y84.207
G0 X110.642 Y85.186
G1 F1200 X147.109 Y121.653 E394.35123
G0 F6000 X148.09 Y121.653
G0 X148.09 Y120.239
G0 X147.109 Y120.239
G1 F1200 X112.056 Y85.186 E399.29759
G0 F6000 X112.056 Y84.207
G0 X113.47 Y84.207
G0 X113.47 Y85.186
G1 F1200 X147.109 Y118.825 E404.04442
G0 F6000 X148.09 Y118.825
G0 X148.09 Y117.41
G0 X147.109 Y117.41
G1 F1200 X114.885 Y85.186 E408.59157
G0 F6000 X114.885 Y84.207
G0 X116.299 Y84.207
G0 X116.299 Y85.186
G1 F1200 X147.109 Y115.996 E412.9392
G0 F6000 X148.09 Y115.996
G0 X148.09 Y114.582
G0 X147.109 Y114.582
G1 F1200 X117.713 Y85.186 E417.08729
G0 F6000 X117.713 Y84.207
G0 X119.127 Y84.207
G0 X119.127 Y85.186
G1 F1200 X147.109 Y113.168 E421.03585
G0 F6000 X148.09 Y113.168
G0 X148.09 Y111.753
G0 X147.109 Y111.753
G1 F1200 X120.541 Y85.186 E424.78481
G0 F6000 X120.541 Y84.207
G0 X121.956 Y84.207
G0 X121.956 Y85.186
G1 F1200 X147.109 Y110.339 E428.33417
G0 F6000 X148.09 Y110.339
G0 X148.09 Y108.925
G0 X147.109 Y108.925
G1 F1200 X123.37 Y85.186 E431.684
G0 F6000 X123.37 Y84.207
G0 X124.784 Y84.207
G0 X124.784 Y85.186
G1 F1200 X147.109 Y107.511 E434.8343
G0 F6000 X148.09 Y107.511
G0 X148.09 Y106.097
G0 X147.109 Y106.097
G1 F1200 X126.198 Y85.186 E437.78507
G0 F6000 X126.198 Y84.207
G0 X127.612 Y84.207
G0 X127.612 Y85.186
G1 F1200 X147.109 Y104.682 E440.53624
G0 F6000 X148.09 Y104.682
G0 X148.09 Y103.268
G0 X147.109 Y103.268
G1 F1200 X129.027 Y85.186 E443.0878
G0 F6000 X129.027 Y84.207
G0 X130.441 Y84.207
G0 X130.441 Y85.186
G1 F1200 X147.109 Y101.854 E445.43984
G0 F6000 X148.09 Y101.854
G0 X148.09 Y100.44
G0 X147.109 Y100.44
G1 F1200 X131.855 Y85.186 E447.59234
G0 F6000 X131.855 Y84.207
G0 X133.269 Y84.207
G0 X133.269 Y85.186
G1 F1200 X147.109 Y99.026 E449.54531
G0 F6000 X148.09 Y99.026
G0 X148.09 Y97.611
G0 X147.109 Y97.611
G1 F1200 X134.684 Y85.186 E451.29862
G0 F6000 X134.684 Y84.207
G0 X136.098 Y84.207
G0 X136.098 Y85.186
G1 F1200 X147.109 Y96.197 E452.85239
G0 F6000 X148.09 Y96.197
G0 X148.09 Y94.783
G0 X147.109 Y94.783
G1 F1200 X137.512 Y85.186 E454.20663
G0 F6000 X137.512 Y84.207
G0 X138.926 Y84.207
G0 X138.926 Y85.186
G1 F1200 X147.109 Y93.369 E455.36134
G0 F6000 X148.09 Y93.369
G0 X148.09 Y91.954
G0 X147.109 Y91.954
G1 F1200 X140.34 Y85.186 E456.31644
G0 F6000 X140.34 Y84.207
G0 X141.755 Y84.207
G0 X141.755 Y85.186
G1 F1200 X147.109 Y90.54 E457.07195
G0 F6000 X148.09 Y90.54
G0 X148.09 Y89.126
G0 X147.109 Y89.126
G1 F1200 X143.169 Y85.186 E457.62793
G0 F6000 X143.169 Y84.207
G0 X144.583 Y84.207
G0 X144.583 Y85.186
G1 F1200 X147.109 Y87.712 E457.98437
G0 F6000 X148.09 Y87.712
G0 X148.09 Y86.298
G0 X147.109 Y86.298
G1 F1200 X145.997 Y85.186 E458.14129
G1 F3000 E450.14129
;MESH:NONMESH
G0 F300 X145.997 Y85.186 Z0.7
G0 F6000 X145.997 Y84.207
G0 X71.982 Y84.279
G0 X71.82 Y140.977
G0 X71.5 Y141.297
;TIME_ELAPSED:257.701840
;LAYER:1
M140 S55
M106 S85
;TYPE:WALL-OUTER
;MESH:minimal_back.stl
G1 F3000 E458.14129
G1 F1350 X71.5 Y83.797 E465.79112
G1 X148.5 Y83.797 E476.03524
G1 X148.5 Y141.297 E483.68507
G1 X71.5 Y141.297 E493.92919
G0 F7500 X71.82 Y140.977
G0 X71.91 Y140.307
G0 X72.49 Y140.307
;TYPE:SKIN
G1 F1350 X72.49 Y84.787 E501.31561
G1 X147.51 Y84.787 E511.29631
G1 X147.51 Y140.307 E518.68272
G1 X72.49 Y140.307 E528.66342
G1 F3000 E520.66342
G0 F7500 X71.91 Y140.307
G0 X71.91 Y85.501
G0 X72.889 Y85.501
G1 F3000 E528.66342
G1 F1350 X73.205 Y85.186 E528.72278
G0 F7500 X73.205 Y84.207
G0 X74.619 Y84.207
G0 X74.619 Y85.186
G1 F1350 X72.889 Y86.916 E529.04828
G0 F7500 X71.91 Y86.916
G0 X71.91 Y88.33
G0 X72.889 Y88.33
G1 F1350 X76.033 Y85.186 E529.63981
G0 F7500 X76.033 Y84.207
G0 X77.447 Y84.207
G0 X77.447 Y85.186
G1 F1350 X72.889 Y89.744 E530.49739
G0 F7500 X71.91 Y89.744
G0 X71.91 Y91.158
G0 X72.889 Y91.158
G1 F1350 X78.862 Y85.186 E531.6211
G0 F7500 X78.862 Y84.207
G0 X80.276 Y84.207
G0 X80.276 Y85.186
G1 F1350 X72.889 Y92.573 E533.01095
G0 F7500 X71.91 Y92.573
G0 X71.91 Y93.987
G0 X72.889 Y93.987
G1 F1350 X81.69 Y85.186 E534.66684
G0 F7500 X81.69 Y84.207
G0 X83.104 Y84.207
G0 X83.104 Y85.186
G1 F1350 X72.889 Y95.401 E536.58877
G0 F7500 X71.91 Y95.401
G0 X71.91 Y96.815
G0 X72.889 Y96.815
G1 F1350 X84.519 Y85.186 E538.77683
G0 F7500 X84.519 Y84.207
G0 X85.933 Y84.207
G0 X85.933 Y85.186
G1 F1350 X72.889 Y98.229 E541.23094
G0 F7500 X71.91 Y98.229
G0 X71.91 Y99.644
G0 X72.889 Y99.644
G1 F1350 X87.347 Y85.186 E543.95118
G0 F7500 X87.347 Y84.207
G0 X88.761 Y84.207
G0 X88.761 Y85.186
G1 F1350 X72.889 Y101.058 E546.93746
G0 F7500 X71.91 Y101.058
G0 X71.91 Y102.472
G0 X72.889 Y102.472
G1 F1350 X90.175 Y85.186 E550.18978
G0 F7500 X90.175 Y84.207
G0 X91.59 Y84.207
G0 X91.59 Y85.186
G1 F1350 X72.889 Y103.886 E553.70823
G0 F7500 X71.91 Y103.886
G0 X71.91 Y105.3
G0 X72.889 Y105.3
G1 F1350 X93.004 Y85.186 E557.49273
G0 F7500 X93.004 Y84.207
G0 X94.418 Y84.207
G0 X94.418 Y85.186
G1 F1350 X72.889 Y106.715 E561.54336
G0 F7500 X71.91 Y106.715
G0 X71.91 Y108.129
G0 X72.889 Y108.129
G1 F1350 X95.832 Y85.186 E565.86004
G0 F7500 X95.832 Y84.207
G0 X97.246 Y84.207
G0 X97.246 Y85.186
G1 F1350 X72.889 Y109.543 E570.44275
G0 F7500 X71.91 Y109.543
G0 X71.91 Y110.957
G0 X72.889 Y110.957
G1 F1350 X98.661 Y85.186 E575.2916
G0 F7500 X98.661 Y84.207
G0 X100.075 Y84.207
G0 X100.075 Y85.186
G1 F1350 X72.889 Y112.371 E580.40649
G0 F7500 X71.91 Y112.371
G0 X71.91 Y113.786
G0 X72.889 Y113.786
G1 F1350 X101.489 Y85.186 E585.78752
G0 F7500 X101.489 Y84.207
G0 X102.903 Y84.207
G0 X102.903 Y85.186
G1 F1350 X72.889 Y115.2 E591.43458
G0 F7500 X71.91 Y115.2
G0 X71.91 Y116.614
G0 X72.889 Y116.614
G1 F1350 X104.318 Y85.186 E597.34779
G0 F7500 X104.318 Y84.207
G0 X105.732 Y84.207
G0 X105.732 Y85.186
G1 F1350 X72.889 Y118.028 E603.52703
G0 F7500 X71.91 Y118.028
G0 X71.91 Y119.443
G0 X72.889 Y119.443
G1 F1350 X107.146 Y85.186 E609.9724
G0 F7500 X107.146 Y84.207
G0 X108.56 Y84.207
G0 X108.56 Y85.186
G1 F1350 X72.889 Y120.857 E616.68382
G0 F7500 X71.91 Y120.857
G0 X71.91 Y122.271
G0 X72.889 Y122.271
G1 F1350 X109.974 Y85.186 E623.66128
G0 F7500 X109.974 Y84.207
G0 X111.389 Y84.207
G0 X111.389 Y85.186
G1 F1350 X72.889 Y123.685 E630.90487
G0 F7500 X71.91 Y123.685
G0 X71.91 Y125.099
G0 X72.889 Y125.099
G1 F1350 X112.803 Y85.186 E638.41451
G0 F7500 X112.803 Y84.207
G0 X114.217 Y84.207
G0 X114.217 Y85.186
G1 F1350 X72.889 Y126.514 E646.19028
G0 F7500 X71.91 Y126.514
G0 X71.91 Y127.928
G0 X72.889 Y127.928
G1 F1350 X115.631 Y85.186 E654.23209
G0 F7500 X115.631 Y84.207
G0 X117.045 Y84.207
G0 X117.045 Y85.186
G1 F1350 X72.889 Y129.342 E662.53994
G0 F7500 X71.91 Y129.342
G0 X71.91 Y130.756
G0 X72.889 Y130.756
G1 F1350 X118.46 Y85.186 E671.11393
G0 F7500 X118.46 Y84.207
G0 X119.874 Y84.207
G0 X119.874 Y85.186
G1 F1350 X72.889 Y132.17 E679.95395
G0 F7500 X71.91 Y132.17
G0 X71.91 Y133.585
G0 X72.889 Y133.585
G1 F1350 X121.288 Y85.186 E689.06012
G0 F7500 X121.288 Y84.207
G0 X122.702 Y84.207
G0 X122.702 Y85.186
G1 F1350 X72.889 Y134.999 E698.43232
G0 F7500 X71.91 Y134.999
G0 X71.91 Y136.413
G0 X72.889 Y136.413
G1 F1350 X124.117 Y85.186 E708.07066
G0 F7500 X124.117 Y84.207
G0 X125.531 Y84.207
G0 X125.531 Y85.186
G1 F1350 X72.889 Y137.827 E717.97504
G0 F7500 X71.91 Y137.827
G0 X71.91 Y139.242
G0 X72.889 Y139.242
G1 F1350 X126.945 Y85.186 E728.14555
G0 F7500 X126.945 Y84.207
G0 X128.359 Y84.207
G0 X128.359 Y85.186
G1 F1350 X73.639 Y139.906 E738.441
G0 F7500 X73.639 Y140.887
G0 X75.053 Y140.887
G0 X75.053 Y139.906
G1 F1350 X129.773 Y85.186 E748.73644
G0 F7500 X129.773 Y84.207
G0 X131.188 Y84.207
G0 X131.188 Y85.186
G1 F1350 X76.467 Y139.906 E759.03198
G0 F7500 X76.467 Y140.887
G0 X77.882 Y140.887
G0 X77.882 Y139.906
G1 F1350 X132.602 Y85.186 E769.32742
G0 F7500 X132.602 Y84.207
G0 X134.016 Y84.207
G0 X134.016 Y85.186
G1 F1350 X79.296 Y139.906 E779.62287
G0 F7500 X79.296 Y140.887
G0 X80.71 Y140.887
G0 X80.71 Y139.906
G1 F1350 X135.43 Y85.186 E789.91831
G0 F7500 X135.43 Y84.207
G0 X136.844 Y84.207
G0 X136.844 Y85.186
G1 F1350 X82.124 Y139.906 E800.21375
G0 F7500 X82.124 Y140.887
G0 X83.539 Y140.887
G0 X83.539 Y139.906
G1 F1350 X138.259 Y85.186 E810.5092
