;FLAVOR:Marlin
;TIME:5169
;Filament used: 8.28742m
;Layer height: 0.2
;MINX:29.679
;MINY:13.631
;MINZ:0.3
;MAXX:190.321
;MAXY:157.806
;MAXZ:14.9
;Generated with Cura_SteamEngine 4.1.0
M140 S60
M105
M190 S60
M104 S220
M105
M109 S220
M82 ;absolute extrusion mode
G28 ;Home
G1 Z15.0 F6000 ;Move the platform down 15mm
;Prime the extruder
G92 E0
G1 F200 E3
G92 E0
G92 E0
G92 E0
G1 F1500 E-6.5
;LAYER_COUNT:74
;LAYER:0
M107
;MESH:3D.obj
G0 F3600 X55.623 Y64.782 Z0.3
;TYPE:WALL-OUTER
G1 F1500 E0
G1 F1800 X55.48 Y64.921 E0.00995
G1 X54.638 Y65.739 E0.06852
G1 X53.799 Y66.579 E0.12775
G1 X53.104 Y67.297 E0.1776
G1 X52.374 Y68.069 E0.23061
G1 X51.613 Y68.898 E0.28675
G1 X50.824 Y69.782 E0.34587
G1 X50.011 Y70.725 E0.40798
G1 X49.174 Y71.724 E0.47301
G1 X48.319 Y72.783 E0.54091
G1 X47.449 Y73.902 E0.61162
G1 X46.565 Y75.081 E0.68514
G1 X45.671 Y76.322 E0.76145
G1 X44.77 Y77.624 E0.84044
G1 X43.865 Y78.989 E0.92215
G1 X42.959 Y80.419 E1.00661
G1 X42.054 Y81.912 E1.09371
G1 X41.155 Y83.471 E1.18349
G1 X40.267 Y85.09 E1.27562
G1 X39.999 Y85.5 E1.30005
G1 X39.67 Y85.853 E1.32413
G1 X39.285 Y86.145 E1.34824
G1 X38.857 Y86.364 E1.37222
G1 X38.391 Y86.51 E1.39659
G1 X37.919 Y86.572 E1.42034
G1 X37.431 Y86.552 E1.4447
G1 X36.964 Y86.45 E1.46855
G1 X36.513 Y86.265 E1.49287
G1 X36.111 Y86.013 E1.51654
G1 X35.745 Y85.683 E1.54113
G1 X35.453 Y85.31 E1.56476
G1 X35.223 Y84.883 E1.58896
G1 X35.07 Y84.424 E1.6131
G1 X34.999 Y83.946 E1.63721
G1 X35.012 Y83.459 E1.66151
G1 X35.254 Y81.432 E1.76336
G1 X35.526 Y79.414 E1.86494
G1 X35.83 Y77.4 E1.96656
G1 X36.166 Y75.404 E2.06754
G1 X36.538 Y73.416 E2.16845
G1 X36.945 Y71.443 E2.26895
G1 X37.391 Y69.482 E2.36929
G1 X37.875 Y67.538 E2.46923
G1 X38.402 Y65.607 E2.56909
G1 X38.971 Y63.692 E2.66876
G1 X39.581 Y61.81 E2.76746
G1 X40.24 Y59.946 E2.8661
G1 X40.946 Y58.105 E2.96447
G1 X41.704 Y56.283 E3.06292
G1 X42.508 Y54.499 E3.16055
G1 X43.438 Y52.598 E3.26613
G1 X42.929 Y52.106 E3.30145
G1 X42.595 Y52.039 E3.31844
G1 X42.296 Y52.208 E3.33558
G1 X41.874 Y53.048 E3.38248
G1 X41.514 Y53.779 E3.42313
G1 X41.005 Y54.891 E3.48414
G1 X40.425 Y56.211 E3.55608
G1 X39.894 Y57.494 E3.62535
G1 X39.388 Y58.792 E3.69486
G1 X38.905 Y60.104 E3.76461
G1 X38.445 Y61.428 E3.83453
G1 X38.007 Y62.764 E3.90468
G1 X37.592 Y64.111 E3.975
G1 X37.391 Y64.788 E4.01023
G1 X37.097 Y65.809 E4.06324
G1 X36.822 Y66.837 E4.11633
G1 X36.468 Y68.211 E4.18712
G1 X36.22 Y69.248 E4.24031
G1 X35.742 Y71.328 E4.34679
G1 X35.18 Y74.122 E4.48897
G1 X34.69 Y76.931 E4.63123
G1 X34.234 Y79.998 E4.78593
G1 X34.14 Y80.732 E4.82284
G1 X33.851 Y83.055 E4.93963
G1 X33.772 Y83.793 E4.97666
G1 X33.535 Y86.093 E5.09202
G1 X33.47 Y86.833 E5.12908
G1 X33.28 Y89.099 E5.24253
G1 X33.148 Y90.959 E5.33555
G1 X33.079 Y92.061 E5.39064
G1 X32.976 Y93.896 E5.48233
G1 X32.925 Y94.97 E5.53598
G1 X32.849 Y96.773 E5.62601
G1 X32.759 Y99.575 E5.76587
G1 X32.734 Y100.573 E5.81568
G1 X32.69 Y102.756 E5.92461
G1 X32.671 Y104.059 E5.98962
G1 X32.761 Y104.398 E6.00712
G1 X33.034 Y104.663 E6.0261
G1 X33.405 Y104.746 E6.04507
G1 X33.766 Y104.627 E6.06404
G1 X34.005 Y104.347 E6.0824
G1 X34.727 Y101.767 E6.21606
G1 X35.479 Y99.339 E6.34287
G1 X36.31 Y96.921 E6.47043
G1 X37.217 Y94.521 E6.59844
G1 X38.201 Y92.138 E6.72706
G1 X39.253 Y89.793 E6.85529
G1 X40.38 Y87.473 E6.98397
G1 X41.426 Y85.468 E7.09679
G1 X42.374 Y83.754 E7.19451
G1 X42.942 Y82.773 E7.25106
G1 X43.778 Y81.38 E7.33212
G1 X44.632 Y80.019 E7.41228
G1 X45.507 Y78.686 E7.49183
G1 X46.147 Y77.748 E7.54848
G1 X47.052 Y76.463 E7.62689
G1 X47.973 Y75.209 E7.70452
G1 X48.906 Y73.987 E7.78122
G1 X49.856 Y72.795 E7.85727
G1 X50.812 Y71.642 E7.93199
G1 X51.782 Y70.516 E8.00614
G1 X52.756 Y69.428 E8.07899
G1 X53.172 Y68.977 E8.1096
G1 X53.946 Y68.153 E8.166
G1 X54.923 Y67.149 E8.23589
G1 X55.299 Y66.776 E8.26232
G1 X56.128 Y65.962 E8.32028
G1 X56.265 Y65.684 E8.33574
G1 X56.195 Y65.375 E8.35155
G1 X55.762 Y64.926 E8.38267
G1 X55.761 Y64.925 E8.38274
G1 X55.623 Y64.782 E8.38912
G0 F3600 X55.48 Y64.921
G0 X55.336 Y65.061
G0 X55.268 Y64.989
G0 X56.23 Y65.357
G0 X54.109 Y69.341
G0 X53.16 Y70.331
G0 X50.1 Y73.939
G0 X47.796 Y76.983
G0 X45.638 Y80.14
G0 X43.631 Y83.396
G0 X41.78 Y86.741
G0 X40.087 Y90.161
G0 X38.556 Y93.641
G0 X37.189 Y97.169
G0 X35.567 Y102.136
G0 X34.457 Y106.36
G0 X33.588 Y110.592
G0 X32.965 Y114.818
G0 X32.627 Y118.608
G0 X31.214 Y155.382
G0 X31.132 Y155.439
G1 F1800 X30.765 Y155.28 E8.40908
G1 X30.578 Y155.199 E8.41925
G1 X30.663 Y155.014 E8.42576
G1 X31.094 Y154.074 E8.47735
G1 X31.081 Y149.603 E8.70041
G1 X31.053 Y147.386 E8.81103
G1 X29.93 Y145.87 E8.90515
G1 X29.907 Y141.734 E9.1115
G1 X29.805 Y136.776 E9.35891
G1 X29.712 Y133.653 E9.51479
G1 X29.679 Y132.758 E9.55947
G1 X30.745 Y131.848 E9.6294
G1 X30.665 Y130.16 E9.7137
G1 X30.586 Y128.845 E9.77943
G1 X30.545 Y128.28 E9.80769
G1 X30.475 Y127.439 E9.84979
G1 X30.405 Y126.746 E9.88454
G1 X30.333 Y126.185 E9.91276
G1 X30.222 Y125.515 E9.94664
G1 X30.025 Y124.784 E9.98441
G1 X29.802 Y124.28 E10.01191
G1 X29.719 Y123.787 E10.03685
G1 X29.706 Y123.3 E10.06116
G1 X29.696 Y107.42 E10.85341
G1 X29.712 Y104.961 E10.9761
G1 X29.726 Y103.682 E11.03991
G1 X29.746 Y102.36 E11.10587
G1 X29.772 Y101.002 E11.17364
G1 X29.806 Y99.611 E11.24305
G1 X29.847 Y98.191 E11.31393
G1 X29.898 Y96.739 E11.38641
G1 X29.958 Y95.26 E11.46026
G1 X30.03 Y93.753 E11.53553
G1 X30.114 Y92.22 E11.61213
G1 X30.211 Y90.666 E11.68981
G1 X30.322 Y89.09 E11.76863
G1 X30.448 Y87.499 E11.84825
G1 X30.591 Y85.889 E11.92889
G1 X30.751 Y84.264 E12.01036
G1 X30.93 Y82.627 E12.09251
G1 X31.129 Y80.978 E12.17538
G1 X31.348 Y79.325 E12.25857
G1 X31.59 Y77.663 E12.34236
G1 X31.855 Y75.995 E12.42662
G1 X32.141 Y74.332 E12.51081
G1 X32.654 Y71.665 E12.6463
G1 X33.235 Y69.006 E12.78209
G1 X33.887 Y66.362 E12.91795
G1 X34.615 Y63.737 E13.05386
G1 X35.006 Y62.444 E13.12125
G1 X35.42 Y61.152 E13.18894
G1 X35.851 Y59.876 E13.25613
G1 X36.305 Y58.607 E13.32337
G1 X36.779 Y57.349 E13.39044
G1 X37.274 Y56.102 E13.45737
G1 X37.789 Y54.869 E13.52404
G1 X38.328 Y53.645 E13.59076
G1 X39.027 Y52.143 E13.67342
G1 X39.763 Y50.659 E13.75606
G1 X40.532 Y49.201 E13.8383
G1 X41.336 Y47.769 E13.92023
G1 X42.259 Y46.226 E14.00993
G1 X43.23 Y44.705 E14.09996
G1 X44.226 Y43.239 E14.18838
G1 X45.271 Y41.798 E14.27719
G1 X46.356 Y40.392 E14.36579
G1 X47.483 Y39.022 E14.45429
G1 X48.652 Y37.684 E14.54294
G1 X49.856 Y36.387 E14.63123
G1 X51.094 Y35.132 E14.71918
G1 X52.374 Y33.911 E14.80743
G1 X53.695 Y32.724 E14.89603
G1 X55.044 Y31.583 E14.98418
G1 X56.431 Y30.477 E15.07268
G1 X57.858 Y29.406 E15.1617
G1 X59.31 Y28.38 E15.2504
G1 X60.798 Y27.39 E15.33957
G1 X62.421 Y26.377 E15.43501
G1 X64.084 Y25.404 E15.53114
G1 X65.777 Y24.477 E15.62744
G1 X67.513 Y23.589 E15.72472
G1 X69.27 Y22.749 E15.82188
G1 X71.067 Y21.95 E15.91999
G1 X73.097 Y21.112 E16.02956
G1 X75.167 Y20.325 E16.14005
G1 X77.269 Y19.592 E16.25111
G1 X79.407 Y18.91 E16.36307
G1 X81.569 Y18.281 E16.4754
G1 X83.754 Y17.705 E16.58814
G1 X85.975 Y17.18 E16.702
G1 X88.211 Y16.706 E16.81603
G1 X90.481 Y16.28 E16.93126
G1 X92.763 Y15.906 E17.04663
G1 X95.071 Y15.581 E17.16291
G1 X97.404 Y15.305 E17.28012
G1 X99.752 Y15.077 E17.39781
G1 X102.114 Y14.898 E17.51599
G1 X104.502 Y14.768 E17.6353
G1 X106.904 Y14.685 E17.75521
G1 X109.853 Y14.65 E17.90235
G1 X111.533 Y14.665 E17.98617
G1 X113.096 Y14.685 E18.06415
G1 X115.498 Y14.768 E18.18406
G1 X117.886 Y14.899 E18.30337
G1 X120.248 Y15.077 E18.42155
G1 X122.596 Y15.305 E18.53924
G1 X124.929 Y15.581 E18.65645
G1 X127.237 Y15.906 E18.77273
G1 X129.519 Y16.279 E18.88809
G1 X131.789 Y16.706 E19.00333
G1 X134.025 Y17.18 E19.11736
G1 X136.246 Y17.706 E19.23123
G1 X138.431 Y18.281 E19.34395
G1 X140.593 Y18.91 E19.45629
G1 X142.731 Y19.592 E19.56825
G1 X144.833 Y20.325 E19.67931
G1 X146.898 Y21.11 E19.78953
G1 X148.933 Y21.95 E19.89936
G1 X150.73 Y22.75 E19.9975
G1 X152.487 Y23.589 E20.09464
G1 X154.223 Y24.477 E20.19192
G1 X155.916 Y25.403 E20.28819
G1 X157.574 Y26.374 E20.38405
G1 X159.202 Y27.39 E20.47979
G1 X160.69 Y28.38 E20.56896
G1 X162.141 Y29.406 E20.65762
G1 X163.564 Y30.473 E20.74635
G1 X164.952 Y31.58 E20.83493
G1 X166.305 Y32.724 E20.92332
G1 X167.622 Y33.907 E21.01165
G1 X168.906 Y35.132 E21.10018
G1 X170.145 Y36.386 E21.18813
G1 X171.348 Y37.684 E21.27642
G1 X172.513 Y39.017 E21.36475
G1 X173.643 Y40.392 E21.45354
G1 X174.725 Y41.793 E21.54185
G1 X175.774 Y43.239 E21.63098
G1 X176.771 Y44.704 E21.71939
G1 X177.738 Y46.221 E21.80914
G1 X178.663 Y47.769 E21.89911
G1 X179.465 Y49.196 E21.98077
G1 X180.235 Y50.655 E22.06308
G1 X180.971 Y52.138 E22.14568
G1 X181.673 Y53.645 E22.22862
G1 X182.209 Y54.865 E22.2951
G1 X182.725 Y56.099 E22.36183
G1 X183.22 Y57.346 E22.42876
G1 X183.695 Y58.607 E22.49599
G1 X184.148 Y59.873 E22.56307
G1 X184.581 Y61.152 E22.63044
G1 X184.993 Y62.444 E22.6981
G1 X185.385 Y63.737 E22.7655
G1 X186.112 Y66.357 E22.90116
G1 X186.764 Y69.001 E23.03702
G1 X187.345 Y71.66 E23.17281
G1 X187.858 Y74.328 E23.30835
G1 X188.145 Y75.995 E23.39274
G1 X188.41 Y77.661 E23.4769
G1 X188.652 Y79.322 E23.56065
G1 X188.872 Y80.978 E23.64399
G1 X189.069 Y82.625 E23.72674
G1 X189.249 Y84.262 E23.80891
G1 X189.409 Y85.887 E23.89037
G1 X189.552 Y87.497 E23.97101
G1 X189.679 Y89.09 E24.05074
G1 X189.789 Y90.664 E24.12946
G1 X189.886 Y92.219 E24.20719
G1 X189.97 Y93.751 E24.28373
G1 X190.041 Y95.258 E24.359
G1 X190.102 Y96.738 E24.4329
G1 X190.153 Y98.19 E24.50539
G1 X190.194 Y99.612 E24.57636
G1 X190.228 Y101.001 E24.64568
G1 X190.254 Y102.361 E24.71354
G1 X190.274 Y103.681 E24.7794
G1 X190.298 Y106.212 E24.90568
G1 X190.294 Y123.294 E25.75791
G1 X190.28 Y123.787 E25.78251
G1 X190.198 Y124.28 E25.80744
G1 X189.976 Y124.782 E25.83483
G1 X189.818 Y125.326 E25.86309
G1 X189.702 Y125.947 E25.89461
G1 X189.632 Y126.451 E25.92
G1 X189.56 Y127.074 E25.95128
G1 X189.49 Y127.839 E25.98961
G1 X189.414 Y128.844 E26.03989
G1 X189.374 Y129.47 E26.07119
G1 X189.297 Y130.919 E26.14358
G1 X189.255 Y131.849 E26.19002
G1 X190.321 Y132.759 E26.25995
G1 X190.224 Y135.709 E26.40721
G1 X190.142 Y139.104 E26.57663
G1 X190.093 Y141.735 E26.70792
G1 X190.07 Y145.87 E26.91422
G1 X188.947 Y147.386 E27.00834
G1 X188.919 Y149.603 E27.11896
G1 X188.906 Y154.074 E27.34202
G1 X189.337 Y155.013 E27.39356
G1 X189.422 Y155.199 E27.40376
G1 X189.234 Y155.279 E27.41031
G1 X188.885 Y155.429 E27.42926
G1 X188.782 Y155.934 E27.45498
G1 X187.636 Y155.936 E27.51215
G1 X187.531 Y155.409 E27.53896
G1 X187.524 Y154.621 E27.57827
G1 X187.527 Y148.904 E27.8635
G1 X187.511 Y124.539 E29.07907
G1 X187.483 Y121.827 E29.21438
G1 X187.441 Y120.431 E29.28406
G1 X187.372 Y119.032 E29.35394
G1 X187.274 Y117.631 E29.42401
G1 X187.149 Y116.227 E29.49433
G1 X186.996 Y114.822 E29.56484
G1 X186.816 Y113.416 E29.63556
G1 X186.608 Y112.008 E29.70657
G1 X186.373 Y110.598 E29.77788
G1 X186.11 Y109.189 E29.84939
G1 X185.822 Y107.779 E29.92119
G1 X185.505 Y106.369 E29.99329
G1 X185.161 Y104.96 E30.06565
G1 X184.791 Y103.552 E30.13828
G1 X184.395 Y102.147 E30.21111
G1 X183.972 Y100.744 E30.28421
G1 X183.394 Y98.959 E30.37782
G1 X182.774 Y97.182 E30.47172
G1 X182.112 Y95.413 E30.56595
G1 X181.408 Y93.656 E30.66038
G1 X180.663 Y91.909 E30.75513
G1 X179.877 Y90.177 E30.85003
G1 X179.051 Y88.46 E30.94508
G1 X178.185 Y86.759 E31.04031
G1 X177.279 Y85.077 E31.13563
G1 X176.334 Y83.416 E31.23097
G1 X175.35 Y81.776 E31.32638
G1 X174.329 Y80.161 E31.42171
G1 X173.268 Y78.57 E31.51712
G1 X172.172 Y77.006 E31.6124
G1 X171.038 Y75.47 E31.70765
G1 X169.869 Y73.963 E31.8028
G1 X168.368 Y72.135 E31.92081
G1 X166.811 Y70.357 E32.03872
G1 X165.202 Y68.632 E32.1564
G1 X163.543 Y66.964 E32.27377
G1 X162.247 Y65.733 E32.36295
G1 X160.905 Y64.52 E32.4532
G1 X159.546 Y63.351 E32.54263
G1 X158.159 Y62.217 E32.63201
G1 X156.746 Y61.12 E32.72126
G1 X155.309 Y60.059 E32.81038
G1 X153.847 Y59.035 E32.89943
G1 X152.362 Y58.048 E32.98838
G1 X150.854 Y57.099 E33.07728
G1 X149.326 Y56.189 E33.166
G1 X147.777 Y55.317 E33.25469
G1 X146.208 Y54.482 E33.34336
G1 X144.619 Y53.687 E33.432
G1 X143.013 Y52.93 E33.52058
G1 X141.39 Y52.212 E33.60912
G1 X139.75 Y51.532 E33.6977
G1 X138.095 Y50.893 E33.78621
G1 X136.425 Y50.291 E33.87477
G1 X134.74 Y49.729 E33.96339
G1 X133.042 Y49.205 E34.05205
G1 X131.33 Y48.72 E34.14082
G1 X129.608 Y48.275 E34.22955
G1 X127.872 Y47.868 E34.31851
G1 X126.127 Y47.501 E34.40747
G1 X124.371 Y47.172 E34.4966
G1 X122.604 Y46.883 E34.58593
G1 X120.829 Y46.633 E34.67536
G1 X119.043 Y46.421 E34.76509
G1 X117.249 Y46.249 E34.855
G1 X115.447 Y46.115 E34.94515
G1 X113.635 Y46.021 E35.03568
G1 X111.816 Y45.966 E35.12647
G1 X110.147 Y45.95 E35.20974
G1 X108.184 Y45.966 E35.30768
G1 X106.365 Y46.021 E35.39847
G1 X104.553 Y46.115 E35.48899
G1 X102.751 Y46.249 E35.57914
G1 X100.957 Y46.421 E35.66905
G1 X99.171 Y46.633 E35.75878
G1 X97.396 Y46.883 E35.84821
G1 X95.629 Y47.172 E35.93754
G1 X93.873 Y47.501 E36.02667
G1 X92.128 Y47.868 E36.11564
G1 X90.392 Y48.275 E36.20459
G1 X88.67 Y48.72 E36.29333
G1 X86.958 Y49.205 E36.3821
G1 X85.26 Y49.729 E36.47076
G1 X83.575 Y50.291 E36.55937
G1 X81.905 Y50.893 E36.64794
G1 X80.25 Y51.532 E36.73645
G1 X78.61 Y52.212 E36.82502
G1 X76.987 Y52.93 E36.91356
G1 X75.381 Y53.687 E37.00214
G1 X73.792 Y54.482 E37.09078
G1 X72.223 Y55.317 E37.17946
G1 X70.674 Y56.189 E37.26814
G1 X69.146 Y57.099 E37.35687
G1 X67.638 Y58.048 E37.44576
G1 X66.153 Y59.035 E37.53472
G1 X64.691 Y60.059 E37.62377
G1 X63.254 Y61.12 E37.71289
G1 X61.841 Y62.217 E37.80213
G1 X60.454 Y63.351 E37.89151
G1 X59.095 Y64.52 E37.98095
G1 X57.753 Y65.733 E38.0712
G1 X56.457 Y66.964 E38.16037
G1 X54.798 Y68.632 E38.27774
G1 X53.189 Y70.357 E38.39543
G1 X51.632 Y72.135 E38.51334
G1 X50.131 Y73.963 E38.63134
G1 X48.962 Y75.47 E38.7265
G1 X47.828 Y77.006 E38.82175
G1 X46.731 Y78.57 E38.91706
G1 X45.671 Y80.161 E39.01244
G1 X44.65 Y81.776 E39.10776
G1 X43.665 Y83.416 E39.2032
G1 X42.721 Y85.077 E39.29852
G1 X41.815 Y86.759 E39.39383
G1 X40.949 Y88.459 E39.48902
G1 X40.123 Y90.177 E39.58412
G1 X39.337 Y91.909 E39.67901
G1 X38.592 Y93.656 E39.77377
G1 X37.888 Y95.413 E39.8682
G1 X37.226 Y97.182 E39.96243
G1 X36.606 Y98.959 E40.05633
G1 X36.028 Y100.744 E40.14993
G1 X35.605 Y102.147 E40.22304
G1 X35.209 Y103.552 E40.29587
G1 X34.839 Y104.96 E40.3685
G1 X34.495 Y106.369 E40.44086
G1 X34.178 Y107.779 E40.51296
G1 X33.89 Y109.189 E40.58476
G1 X33.627 Y110.598 E40.65627
G1 X33.392 Y112.008 E40.72758
G1 X33.184 Y113.416 E40.79859
G1 X33.004 Y114.822 E40.86931
G1 X32.851 Y116.227 E40.93982
G1 X32.726 Y117.631 E41.01014
G1 X32.628 Y119.032 E41.08021
G1 X32.559 Y120.431 E41.15009
G1 X32.517 Y121.827 E41.21977
G1 X32.468 Y130.074 E41.63122
G1 X32.476 Y155.198 E42.88466
G1 X32.424 Y155.74 E42.91183
G1 X32.373 Y155.935 E42.92188
G1 X31.222 Y155.935 E42.9793
G1 X31.141 Y155.604 E42.99631
G1 X31.132 Y155.439 E43.00455
G0 F3600 X30.765 Y155.28
G0 X30.804 Y155.189
G0 X32.435 Y150.151
G0 X32.478 Y121.827
G0 X32.687 Y117.628
G0 X33.145 Y113.411
G0 X33.851 Y109.182
G0 X34.801 Y104.951
G0 X35.99 Y100.733
G0 X37.189 Y97.169
G0 X38.556 Y93.641
G0 X40.087 Y90.161
G0 X41.78 Y86.741
G0 X43.631 Y83.396
G0 X45.638 Y80.14
G0 X47.796 Y76.983
G0 X50.1 Y73.939
G0 X53.16 Y70.331
G0 X56.43 Y66.936
G0 X59.069 Y64.49
G0 X61.817 Y62.186
G0 X64.668 Y60.027
G0 X67.617 Y58.015
G0 X70.654 Y56.155
G0 X73.774 Y54.447
G0 X76.971 Y52.894
G0 X80.236 Y51.495
G0 X83.562 Y50.254
G0 X86.947 Y49.167
G0 X90.383 Y48.237
G0 X93.866 Y47.462
G0 X97.39 Y46.844
G0 X100.953 Y46.382
G0 X104.551 Y46.076
G0 X108.184 Y45.927
G0 X113.636 Y45.982
G0 X117.252 Y46.21
G0 X120.834 Y46.594
G0 X124.377 Y47.133
